(Created with grbl post processor 2026/05/29 19:48)
G20
(G-code Generated with Fabex and NC library)
(Rapids: 196.85/min)
G17G90
(Tool: D = 0.125''  type END flutes 2)
S15000M03
G00 Z0.39 F196.85

G0X0Y0Z0.3937
X1.3124Y1.0624
G1Z-0.125F19.68
X1.3127Y1.0684F39.37
X1.3135Y1.0742
X1.3149Y1.08
X1.3168Y1.0855
X1.3192Y1.0909
X1.3222Y1.0961
X1.3256Y1.1009
X1.3294Y1.1054
X1.3295
X1.3339Y1.1097
X1.3387Y1.1135
X1.3439Y1.1168
X1.3494Y1.1195
X1.3551Y1.1218
X1.361Y1.1234
X1.367Y1.1245
X1.3731Y1.125
X1.3749
X1.3828
X1.3907
X1.3985
X1.4064
X1.4143
X1.4222
X1.43
X1.4379
X1.4458
X1.4537
X1.4615
X1.4694
X1.4773
X1.4851
X1.493
X1.5009
X1.5088
X1.5166
X1.5245
X1.5324
X1.5403
X1.5481
X1.556
X1.5639
X1.5718
X1.5796
X1.5875
X1.5954
X1.6033
X1.6111
X1.619
X1.6269
X1.6348
X1.6426
X1.6505
X1.6584
X1.6663
X1.6741
X1.682
X1.6899
X1.6977
X1.7056
X1.7135
X1.7214
X1.7292
X1.7371
X1.745
X1.7529
X1.7607
X1.7686
X1.7765
X1.7844
X1.7922
X1.8001
X1.808
X1.8159
X1.8237
X1.8316
X1.8395
X1.8474
X1.8552
X1.8631
X1.871
X1.8788
X1.8867
X1.8946
X1.9025
X1.9103
X1.9182
X1.9261
X1.934
X1.9418
X1.9497
X1.9576
X1.9655
X1.9733
X1.9812
X1.9891
X1.997
X1.9999
X2.006Y1.1247
X2.0121Y1.1238
X2.018Y1.1223
X2.0238Y1.1202
X2.0294Y1.1176
X2.0346Y1.1145
X2.0396Y1.1108
X2.0441Y1.1067
Y1.1066
X2.0483Y1.1021
X2.0519Y1.0972
X2.0551Y1.0919
X2.0577Y1.0864
X2.0598Y1.0806
X2.0612Y1.0746
X2.0621Y1.0686
X2.0624Y1.0624
Y1.0546
Y1.0467
Y1.0388
Y1.031
Y1.0231
Y1.0152
Y1.0073
Y0.9995
Y0.9916
Y0.9837
Y0.9758
Y0.968
Y0.9601
Y0.9522
Y0.9443
Y0.9365
Y0.9286
Y0.9207
Y0.9128
Y0.905
Y0.8971
Y0.8892
Y0.8813
Y0.8735
Y0.8656
Y0.8577
Y0.8498
Y0.842
Y0.8341
Y0.8262
Y0.8184
Y0.8105
Y0.8026
Y0.7947
Y0.7869
Y0.779
Y0.7711
Y0.7632
Y0.7554
Y0.7475
Y0.7396
Y0.7317
Y0.7239
Y0.716
Y0.7081
Y0.7002
Y0.6924
Y0.6845
Y0.6766
Y0.6687
Y0.6609
Y0.653
Y0.6451
Y0.6373
Y0.6294
Y0.6215
Y0.6136
Y0.6058
Y0.5979
Y0.59
Y0.5821
Y0.5743
Y0.5664
Y0.5585
Y0.5506
Y0.5428
Y0.5349
Y0.527
Y0.5191
Y0.5113
Y0.5034
Y0.4955
Y0.4876
Y0.4798
Y0.4719
Y0.464
Y0.4561
Y0.4483
Y0.4404
Y0.4325
Y0.4247
Y0.4168
Y0.4089
Y0.401
Y0.3932
Y0.3853
Y0.3774
Y0.3695
Y0.3617
Y0.3538
Y0.3459
Y0.338
Y0.3302
Y0.3223
Y0.3144
Y0.3065
Y0.2987
Y0.2908
Y0.2829
Y0.275
Y0.2672
Y0.2593
Y0.2514
Y0.2436
Y0.2357
Y0.2278
Y0.2199
Y0.2121
Y0.2042
Y0.1963
Y0.1884
Y0.1806
Y0.1727
Y0.1648
Y0.1569
Y0.1491
Y0.1412
Y0.1333
Y0.1254
Y0.1176
Y0.1097
Y0.1018
Y0.0939
Y0.0861
Y0.0782
Y0.0703
Y0.0624
Y0.0546
Y0.0467
Y0.0388
Y0.031
Y0.0231
Y0.0152
Y0.0073
Y-0.0004
Y-0.0083
Y-0.0162
Y-0.0241
Y-0.0319
Y-0.0398
Y-0.0477
Y-0.0556
Y-0.0634
Y-0.0713
Y-0.0792
Y-0.0871
Y-0.0949
Y-0.1028
Y-0.1107
Y-0.1186
Y-0.1264
Y-0.1343
Y-0.1422
Y-0.1501
Y-0.1579
Y-0.1658
Y-0.1737
Y-0.1815
Y-0.1894
Y-0.1973
Y-0.2052
Y-0.213
Y-0.2209
Y-0.2288
Y-0.2367
Y-0.2445
Y-0.2524
Y-0.2603
Y-0.2682
Y-0.276
Y-0.2839
Y-0.2918
Y-0.2997
Y-0.3075
Y-0.3154
Y-0.3233
Y-0.3312
Y-0.339
Y-0.3469
Y-0.3548
Y-0.3626
Y-0.3705
Y-0.3784
Y-0.3863
Y-0.3941
Y-0.402
Y-0.4099
Y-0.4178
Y-0.4256
Y-0.4335
Y-0.4414
Y-0.4493
Y-0.4571
Y-0.465
Y-0.4729
Y-0.4808
Y-0.4886
Y-0.4965
Y-0.5044
Y-0.5123
Y-0.5201
Y-0.528
Y-0.5359
Y-0.5438
Y-0.5516
Y-0.5595
Y-0.5674
Y-0.5752
Y-0.5831
Y-0.591
Y-0.5989
Y-0.6067
Y-0.6146
Y-0.6225
Y-0.6304
Y-0.6382
Y-0.6461
Y-0.654
Y-0.6619
Y-0.6697
Y-0.6776
Y-0.6855
Y-0.6934
Y-0.7012
Y-0.7091
Y-0.717
Y-0.7249
Y-0.7327
Y-0.7406
Y-0.7485
Y-0.7564
Y-0.7642
Y-0.7721
Y-0.78
Y-0.7878
Y-0.7957
Y-0.8036
Y-0.8115
Y-0.8193
Y-0.8272
Y-0.8351
Y-0.843
Y-0.8508
Y-0.8587
Y-0.8666
Y-0.8745
Y-0.8823
Y-0.8902
Y-0.8981
Y-0.906
Y-0.9138
Y-0.9217
Y-0.9296
Y-0.9375
Y-0.9453
Y-0.9532
Y-0.9611
Y-0.9689
Y-0.9768
Y-0.9847
Y-0.9926
Y-1.0004
Y-1.0083
Y-1.0162
Y-1.0241
Y-1.0319
Y-1.0398
Y-1.0477
Y-1.0556
Y-1.0634
Y-1.0713
Y-1.0792
Y-1.0871
Y-1.0949
Y-1.1028
Y-1.1107
Y-1.1186
Y-1.1264
Y-1.1343
Y-1.1422
Y-1.1501
Y-1.1579
Y-1.1658
Y-1.1737
Y-1.1815
Y-1.1894
Y-1.1973
Y-1.2052
Y-1.213
Y-1.2209
Y-1.2288
Y-1.2367
Y-1.2445
Y-1.2524
Y-1.2603
Y-1.2682
Y-1.276
Y-1.2839
Y-1.2918
Y-1.2997
Y-1.3075
Y-1.3154
Y-1.3233
Y-1.3312
Y-1.339
Y-1.3469
Y-1.3548
Y-1.3626
Y-1.3705
Y-1.3784
Y-1.3863
Y-1.3941
Y-1.402
Y-1.4099
Y-1.4178
Y-1.4256
Y-1.4335
Y-1.4414
Y-1.4493
Y-1.4571
Y-1.465
Y-1.4729
Y-1.4808
Y-1.4886
Y-1.4965
Y-1.5044
Y-1.5123
Y-1.5201
Y-1.528
Y-1.5359
Y-1.5438
Y-1.5516
Y-1.5595
Y-1.5674
Y-1.5752
Y-1.5831
Y-1.591
Y-1.5989
Y-1.6067
Y-1.6146
Y-1.6225
Y-1.6304
Y-1.6382
Y-1.6461
Y-1.654
Y-1.6619
Y-1.6697
Y-1.6776
Y-1.6855
Y-1.6934
Y-1.7012
Y-1.7091
Y-1.717
Y-1.7249
Y-1.7327
Y-1.7406
Y-1.7485
Y-1.7564
Y-1.7642
Y-1.7721
Y-1.78
Y-1.7878
Y-1.7957
Y-1.8036
Y-1.8115
Y-1.8193
Y-1.8272
Y-1.8351
Y-1.843
Y-1.8508
Y-1.8587
Y-1.8666
Y-1.8745
Y-1.8823
Y-1.8902
Y-1.8981
Y-1.906
Y-1.9138
Y-1.9217
Y-1.9296
Y-1.9375
Y-1.9453
Y-1.9532
Y-1.9611
Y-1.9689
Y-1.9768
Y-1.9847
Y-1.9926
Y-2.0004
Y-2.0083
Y-2.0162
Y-2.0241
Y-2.0319
Y-2.0398
Y-2.0477
Y-2.0556
Y-2.0634
Y-2.0713
Y-2.0792
Y-2.0871
Y-2.0949
Y-2.1028
Y-2.1107
Y-2.1186
Y-2.1264
Y-2.1343
Y-2.1422
Y-2.1501
Y-2.1579
Y-2.1658
Y-2.1737
Y-2.1815
Y-2.1894
Y-2.1973
Y-2.2052
Y-2.213
Y-2.2209
Y-2.2288
Y-2.2367
Y-2.2445
Y-2.2524
Y-2.2603
Y-2.2682
Y-2.276
Y-2.2839
Y-2.2918
Y-2.2997
Y-2.3075
Y-2.3154
Y-2.3233
Y-2.3312
Y-2.339
Y-2.3469
Y-2.3548
Y-2.3626
Y-2.3705
Y-2.3784
Y-2.3863
Y-2.3941
Y-2.402
Y-2.4099
Y-2.4178
Y-2.4256
Y-2.4335
Y-2.4414
Y-2.4493
Y-2.4571
Y-2.465
Y-2.4729
Y-2.4808
Y-2.4886
Y-2.4965
Y-2.5044
Y-2.5123
Y-2.5201
Y-2.528
Y-2.5359
Y-2.5438
Y-2.5516
Y-2.5595
Y-2.5674
Y-2.5752
Y-2.5831
Y-2.591
Y-2.5989
Y-2.6067
Y-2.6146
Y-2.6225
Y-2.6304
Y-2.6382
Y-2.6461
Y-2.654
Y-2.6619
Y-2.6697
Y-2.6776
Y-2.6855
Y-2.6934
Y-2.7012
Y-2.7091
Y-2.717
Y-2.7249
Y-2.7327
Y-2.7406
Y-2.7485
Y-2.7564
Y-2.7642
Y-2.7721
Y-2.78
Y-2.7878
Y-2.7957
Y-2.8036
Y-2.8115
Y-2.8193
Y-2.8272
Y-2.8351
Y-2.843
Y-2.8508
Y-2.8587
Y-2.8666
Y-2.8745
Y-2.8823
Y-2.8902
Y-2.8981
Y-2.906
Y-2.9138
Y-2.9217
Y-2.9296
Y-2.9375
Y-2.9453
Y-2.9532
Y-2.9611
Y-2.9689
Y-2.9768
Y-2.9847
Y-2.9926
Y-3.0004
Y-3.0083
Y-3.0162
Y-3.0241
Y-3.0319
Y-3.0398
Y-3.0477
Y-3.0556
Y-3.0634
Y-3.0713
Y-3.0792
Y-3.0871
Y-3.0949
Y-3.1028
Y-3.1107
Y-3.1186
Y-3.1264
Y-3.1343
Y-3.1422
Y-3.1501
Y-3.1579
Y-3.1658
Y-3.1737
Y-3.1815
Y-3.1894
Y-3.1973
Y-3.2052
Y-3.213
Y-3.2209
Y-3.2288
Y-3.2367
Y-3.2445
Y-3.2524
Y-3.2603
Y-3.2682
Y-3.276
Y-3.2839
Y-3.2918
Y-3.2997
Y-3.3075
Y-3.3154
Y-3.3233
Y-3.3312
Y-3.339
Y-3.3469
Y-3.3548
Y-3.3626
Y-3.3705
Y-3.3784
Y-3.3863
Y-3.3941
Y-3.402
Y-3.4099
Y-3.4178
Y-3.4256
Y-3.4335
Y-3.4414
Y-3.4493
Y-3.4571
Y-3.465
Y-3.4729
Y-3.4808
Y-3.4886
Y-3.4965
Y-3.5044
Y-3.5123
Y-3.5201
Y-3.528
Y-3.5359
Y-3.5438
Y-3.5516
Y-3.5595
Y-3.5674
Y-3.5752
Y-3.5831
Y-3.591
Y-3.5989
Y-3.6067
Y-3.6146
Y-3.6225
Y-3.6304
Y-3.6382
Y-3.6461
Y-3.654
Y-3.6619
Y-3.6697
Y-3.6776
Y-3.6855
Y-3.6934
Y-3.7012
Y-3.7091
Y-3.717
Y-3.7249
Y-3.7327
Y-3.7406
Y-3.7485
Y-3.7564
Y-3.7642
Y-3.7721
Y-3.78
Y-3.7878
Y-3.7957
Y-3.8036
Y-3.8115
Y-3.8193
Y-3.8272
Y-3.8351
Y-3.843
Y-3.8508
Y-3.8587
Y-3.8666
Y-3.8745
Y-3.8823
Y-3.8902
Y-3.8981
Y-3.906
Y-3.9138
Y-3.9217
Y-3.9296
Y-3.9375
Y-3.9453
Y-3.9532
Y-3.9611
Y-3.9689
Y-3.9768
Y-3.9847
Y-3.9926
Y-4.0004
Y-4.0083
Y-4.0162
Y-4.0241
Y-4.0319
Y-4.0398
Y-4.0477
Y-4.0556
Y-4.0634
Y-4.0713
Y-4.0792
Y-4.0871
Y-4.0949
Y-4.1028
Y-4.1107
Y-4.1186
Y-4.1264
Y-4.1343
Y-4.1422
Y-4.1501
Y-4.1579
Y-4.1658
Y-4.1737
Y-4.1815
Y-4.1894
Y-4.1973
Y-4.2052
Y-4.213
Y-4.2209
Y-4.2288
Y-4.2367
Y-4.2445
Y-4.2524
Y-4.2603
Y-4.2682
Y-4.276
Y-4.2839
Y-4.2918
Y-4.2997
Y-4.3075
Y-4.3154
Y-4.3233
Y-4.3312
Y-4.339
Y-4.3469
Y-4.3548
Y-4.3626
Y-4.3705
Y-4.3784
Y-4.3863
Y-4.3941
Y-4.402
Y-4.4099
Y-4.4178
Y-4.4256
Y-4.4335
Y-4.4375
X2.0622Y-4.4433
X2.0614Y-4.4491
X2.06Y-4.4547
X2.0581Y-4.4603
X2.0557Y-4.4656
X2.0529Y-4.4707
X2.0495Y-4.4756
X2.0457Y-4.4801
X2.0414Y-4.4842
X2.0368Y-4.4879
X2.0319Y-4.4912
X2.0267Y-4.494
X2.0212Y-4.4962
X2.0156Y-4.498
X2.0087Y-4.4994
X2.0017Y-4.5
X1.9999
X1.992
X1.9842
X1.9763
X1.9684
X1.9605
X1.9527
X1.9448
X1.9369
X1.929
X1.9212
X1.9133
X1.9054
X1.8975
X1.8897
X1.8818
X1.8739
X1.866
X1.8582
X1.8503
X1.8424
X1.8346
X1.8267
X1.8188
X1.8109
X1.8031
X1.7952
X1.7873
X1.7794
X1.7716
X1.7637
X1.7558
X1.7479
X1.7401
X1.7322
X1.7243
X1.7164
X1.7086
X1.7007
X1.6928
X1.6849
X1.6771
X1.6692
X1.6613
X1.6535
X1.6456
X1.6377
X1.6298
X1.622
X1.6141
X1.6062
X1.5983
X1.5905
X1.5826
X1.5747
X1.5668
X1.559
X1.5511
X1.5432
X1.5353
X1.5275
X1.5196
X1.5117
X1.5038
X1.496
X1.4881
X1.4802
X1.4723
X1.4645
X1.4566
X1.4487
X1.4409
X1.433
X1.4251
X1.4172
X1.4094
X1.4015
X1.3936
X1.3857
X1.3779
X1.37
X1.3621
X1.3542
X1.3464
X1.3385
X1.3306
X1.3227
X1.3149
X1.307
X1.2991
X1.2912
X1.2834
X1.2755
X1.2676
X1.2597
X1.2519
X1.244
X1.2361
X1.2283
X1.2204
X1.2125
X1.2046
X1.1968
X1.1889
X1.181
X1.1731
X1.1653
X1.1574
X1.1495
X1.1416
X1.1338
X1.1259
X1.118
X1.1101
X1.1023
X1.0944
X1.0865
X1.0786
X1.0708
X1.0629
X1.055
X1.0472
X1.0393
X1.0314
X1.0235
X1.0157
X1.0078
X0.9999
X0.992
X0.9842
X0.9763
X0.9684
X0.9605
X0.9527
X0.9448
X0.9369
X0.929
X0.9212
X0.9133
X0.9054
X0.8975
X0.8897
X0.8818
X0.8739
X0.866
X0.8582
X0.8503
X0.8424
X0.8346
X0.8267
X0.8188
X0.8109
X0.8031
X0.7952
X0.7873
X0.7794
X0.7716
X0.7637
X0.7558
X0.7479
X0.7401
X0.7322
X0.7243
X0.7164
X0.7086
X0.7007
X0.6928
X0.6849
X0.6771
X0.6692
X0.6613
X0.6535
X0.6456
X0.6377
X0.6298
X0.622
X0.6141
X0.6062
X0.5983
X0.5905
X0.5826
X0.5747
X0.5668
X0.559
X0.5511
X0.5432
X0.5353
X0.5275
X0.5196
X0.5117
X0.5038
X0.496
X0.4881
X0.4802
X0.4723
X0.4645
X0.4566
X0.4487
X0.4409
X0.433
X0.4251
X0.4172
X0.4094
X0.4015
X0.3936
X0.3857
X0.3779
X0.37
X0.3621
X0.3542
X0.3464
X0.3385
X0.3306
X0.3227
X0.3149
X0.307
X0.2991
X0.2912
X0.2834
X0.2755
X0.2676
X0.2597
X0.2519
X0.244
X0.2361
X0.2283
X0.2204
X0.2125
X0.2046
X0.1968
X0.1889
X0.181
X0.1731
X0.1653
X0.1574
X0.1495
X0.1416
X0.1338
X0.1259
X0.118
X0.1101
X0.1023
X0.0944
X0.0865
X0.0786
X0.0708
X0.0629
X0.055
X0.0472
X0.0393
X0.0314
X0.0235
X0.0157
X0.0078
X0
X-0.0079
X-0.0157
X-0.0236
X-0.0315
X-0.0394
X-0.0472
X-0.0551
X-0.063
X-0.0709
X-0.0787
X-0.0866
X-0.0945
X-0.1024
X-0.1102
X-0.1181
X-0.126
X-0.1339
X-0.1417
X-0.1496
X-0.1575
X-0.1653
X-0.1732
X-0.1811
X-0.189
X-0.1968
X-0.2047
X-0.2126
X-0.2205
X-0.2283
X-0.2362
X-0.2441
X-0.252
X-0.2598
X-0.2677
X-0.2756
X-0.2835
X-0.2913
X-0.2992
X-0.3071
X-0.315
X-0.3228
X-0.3307
X-0.3386
X-0.3465
X-0.3543
X-0.3622
X-0.3701
X-0.3779
X-0.3858
X-0.3937
X-0.4016
X-0.4094
X-0.4173
X-0.4252
X-0.4331
X-0.4409
X-0.4488
X-0.4567
X-0.4646
X-0.4724
X-0.4803
X-0.4882
X-0.4961
X-0.5
X-0.5063Y-4.4997
X-0.5125Y-4.4987
X-0.5186Y-4.4972
X-0.5245Y-4.495
X-0.5301Y-4.4922
X-0.5355Y-4.4889
X-0.5405Y-4.4851
X-0.545Y-4.4809
X-0.549Y-4.4762
X-0.5526Y-4.4713
X-0.5557Y-4.4659
X-0.5582Y-4.4603
X-0.5602Y-4.4545
X-0.5615Y-4.4486
X-0.5623Y-4.4425
X-0.5625Y-4.4375
Y-4.4296
Y-4.4217
Y-4.4138
Y-4.406
Y-4.3981
Y-4.3902
Y-4.3823
Y-4.3745
Y-4.3666
Y-4.3587
Y-4.3508
Y-4.343
Y-4.3351
Y-4.3272
Y-4.3193
Y-4.3115
Y-4.3036
Y-4.2957
Y-4.2878
Y-4.28
Y-4.2721
Y-4.2642
Y-4.2563
Y-4.2485
Y-4.2406
Y-4.2327
Y-4.2249
Y-4.217
Y-4.2091
Y-4.2012
Y-4.1934
Y-4.1855
Y-4.1776
Y-4.1697
Y-4.1619
Y-4.154
Y-4.1461
Y-4.1382
Y-4.1304
Y-4.1225
Y-4.1146
Y-4.1067
Y-4.0989
Y-4.091
Y-4.0831
Y-4.0752
Y-4.0674
Y-4.0595
Y-4.0516
Y-4.0437
Y-4.0359
Y-4.028
Y-4.0201
Y-4.0123
Y-4.0044
Y-3.9965
Y-3.9886
Y-3.9808
Y-3.9729
Y-3.965
Y-3.9571
Y-3.9493
Y-3.9414
Y-3.9335
Y-3.9256
Y-3.9178
Y-3.9099
Y-3.902
Y-3.8941
Y-3.8863
Y-3.8784
Y-3.8705
Y-3.8626
Y-3.8548
Y-3.8469
Y-3.839
Y-3.8312
Y-3.8233
Y-3.8154
Y-3.8125
X-0.5622Y-3.8063
X-0.5613Y-3.8003
X-0.5598Y-3.7943
X-0.5578Y-3.7885
X-0.5552Y-3.783
X-0.552Y-3.7777
X-0.5483Y-3.7728
X-0.5442Y-3.7683
Y-3.7682
X-0.5396Y-3.7641
X-0.5347Y-3.7604
X-0.5295Y-3.7573
X-0.5239Y-3.7547
X-0.5181Y-3.7526
X-0.5122Y-3.7511
X-0.5061Y-3.7502
X-0.5Y-3.7499
X-0.4921
X-0.4842
X-0.4764
X-0.4685
X-0.4606
X-0.4527
X-0.4449
X-0.437
X-0.4291
X-0.4213
X-0.4134
X-0.4055
X-0.3976
X-0.3898
X-0.3819
X-0.374
X-0.3661
X-0.3583
X-0.3504
X-0.3425
X-0.3346
X-0.3268
X-0.3189
X-0.311
X-0.3031
X-0.2953
X-0.2874
X-0.2795
X-0.2716
X-0.2638
X-0.2559
X-0.248
X-0.2401
X-0.2323
X-0.2244
X-0.2165
X-0.2087
X-0.2008
X-0.1929
X-0.185
X-0.1772
X-0.1693
X-0.1614
X-0.1535
X-0.1457
X-0.1378
X-0.1299
X-0.122
X-0.1142
X-0.1063
X-0.0984
X-0.0905
X-0.0827
X-0.0748
X-0.0669
X-0.059
X-0.0512
X-0.0433
X-0.0354
X-0.0276
X-0.0197
X-0.0118
X-0.0039
X0.0038
X0.0117
X0.0196
X0.0275
X0.0353
X0.0432
X0.0511
X0.059
X0.0668
X0.0747
X0.0826
X0.0905
X0.0983
X0.1062
X0.1141
X0.122
X0.1298
X0.1377
X0.1456
X0.1535
X0.1613
X0.1692
X0.1771
X0.1849
X0.1928
X0.2007
X0.2086
X0.2164
X0.2243
X0.2322
X0.2401
X0.2479
X0.2558
X0.2637
X0.2716
X0.2794
X0.2873
X0.2952
X0.3031
X0.3109
X0.3188
X0.3267
X0.3346
X0.3424
X0.3503
X0.3582
X0.3661
X0.3739
X0.3818
X0.3897
X0.3975
X0.4054
X0.4133
X0.4212
X0.429
X0.4369
X0.4448
X0.4527
X0.4605
X0.4684
X0.4763
X0.4842
X0.492
X0.4999
X0.5078
X0.5157
X0.5235
X0.5314
X0.5393
X0.5472
X0.555
X0.5629
X0.5708
X0.5786
X0.5865
X0.5944
X0.6023
X0.6101
X0.618
X0.6259
X0.6338
X0.6416
X0.6495
X0.6574
X0.6653
X0.6731
X0.681
X0.6889
X0.6968
X0.7046
X0.7125
X0.7204
X0.7283
X0.7361
X0.744
X0.7519
X0.7598
X0.7676
X0.7755
X0.7834
X0.7912
X0.7991
X0.807
X0.8149
X0.8227
X0.8306
X0.8385
X0.8464
X0.8542
X0.8621
X0.87
X0.8779
X0.8857
X0.8936
X0.9015
X0.9094
X0.9172
X0.9251
X0.933
X0.9409
X0.9487
X0.9566
X0.9645
X0.9724
X0.9802
X0.9881
X0.996
X1.0038
X1.0117
X1.0196
X1.0275
X1.0353
X1.0432
X1.0511
X1.059
X1.0668
X1.0747
X1.0826
X1.0905
X1.0983
X1.1062
X1.1141
X1.122
X1.1298
X1.1377
X1.1456
X1.1535
X1.1613
X1.1692
X1.1771
X1.1849
X1.1928
X1.2007
X1.2086
X1.2164
X1.2243
X1.2322
X1.2401
X1.2479
X1.2558
X1.2637
X1.2716
X1.2794
X1.2873
X1.2952
X1.3031
X1.3109
X1.3124
Y-3.742
Y-3.7342
Y-3.7263
Y-3.7184
Y-3.7105
Y-3.7027
Y-3.6948
Y-3.6869
Y-3.679
Y-3.6712
Y-3.6633
Y-3.6554
Y-3.6475
Y-3.6397
Y-3.6318
Y-3.6239
Y-3.6161
Y-3.6082
Y-3.6003
Y-3.5924
Y-3.5846
Y-3.5767
Y-3.5688
Y-3.5609
Y-3.5531
Y-3.5452
Y-3.5373
Y-3.5294
Y-3.5216
Y-3.5137
Y-3.5058
Y-3.4979
Y-3.4901
Y-3.4822
Y-3.4743
Y-3.4664
Y-3.4586
Y-3.4507
Y-3.4428
Y-3.435
Y-3.4271
Y-3.4192
Y-3.4113
Y-3.4035
Y-3.3956
Y-3.3877
Y-3.3798
Y-3.372
Y-3.3641
Y-3.3562
Y-3.3483
Y-3.3405
Y-3.3326
Y-3.3247
Y-3.3168
Y-3.309
Y-3.3011
Y-3.2932
Y-3.2853
Y-3.2775
Y-3.2696
Y-3.2617
Y-3.2538
Y-3.246
Y-3.2381
Y-3.2302
Y-3.2224
Y-3.2145
Y-3.2066
Y-3.1987
Y-3.1909
Y-3.183
Y-3.1751
Y-3.1672
Y-3.1594
Y-3.1515
Y-3.1436
Y-3.1357
Y-3.1279
Y-3.12
Y-3.1121
Y-3.1042
Y-3.0964
Y-3.0885
Y-3.0806
Y-3.0727
Y-3.0649
Y-3.057
Y-3.0491
Y-3.0413
Y-3.0334
Y-3.0255
Y-3.0176
Y-3.0098
Y-3.0019
Y-2.994
Y-2.9861
Y-2.9783
Y-2.9704
Y-2.9625
Y-2.9546
Y-2.9468
Y-2.9389
Y-2.931
Y-2.9231
Y-2.9153
Y-2.9074
Y-2.8995
Y-2.8916
Y-2.8838
Y-2.8759
Y-2.868
Y-2.8601
Y-2.8523
Y-2.8444
Y-2.8365
Y-2.8287
Y-2.8208
Y-2.8129
Y-2.805
Y-2.7972
Y-2.7893
Y-2.7814
Y-2.7735
Y-2.7657
Y-2.7578
Y-2.7499
Y-2.742
Y-2.7342
Y-2.7263
Y-2.7184
Y-2.7105
Y-2.7027
Y-2.6948
Y-2.6869
Y-2.679
Y-2.6712
Y-2.6633
Y-2.6554
Y-2.6475
Y-2.6397
Y-2.6318
Y-2.6239
Y-2.6161
Y-2.6082
Y-2.6003
Y-2.5924
Y-2.5846
Y-2.5767
Y-2.5688
Y-2.5609
Y-2.5531
Y-2.5452
Y-2.5373
Y-2.5294
Y-2.5216
Y-2.5137
Y-2.5058
Y-2.4979
Y-2.4901
Y-2.4822
Y-2.4743
Y-2.4664
Y-2.4586
Y-2.4507
Y-2.4428
Y-2.435
Y-2.4271
Y-2.4192
Y-2.4113
Y-2.4035
Y-2.3956
Y-2.3877
Y-2.3798
Y-2.372
Y-2.3641
Y-2.3562
Y-2.3483
Y-2.3405
Y-2.3326
Y-2.3247
Y-2.3168
Y-2.309
Y-2.3011
Y-2.2932
Y-2.2853
Y-2.2775
Y-2.2696
Y-2.2617
Y-2.2538
Y-2.246
Y-2.2381
Y-2.2302
Y-2.2224
Y-2.2145
Y-2.2066
Y-2.1987
Y-2.1909
Y-2.183
Y-2.1751
Y-2.1672
Y-2.1594
Y-2.1515
Y-2.1436
Y-2.1357
Y-2.1279
Y-2.12
Y-2.1121
Y-2.1042
Y-2.0964
Y-2.0885
Y-2.0806
Y-2.0727
Y-2.0649
Y-2.057
Y-2.0491
Y-2.0413
Y-2.0334
Y-2.0255
Y-2.0176
Y-2.0098
Y-2.0019
Y-1.994
Y-1.9861
Y-1.9783
Y-1.9704
Y-1.9625
Y-1.9546
Y-1.9468
Y-1.9389
Y-1.931
Y-1.9231
Y-1.9153
Y-1.9074
Y-1.8995
Y-1.8916
Y-1.8838
Y-1.8759
Y-1.868
Y-1.8601
Y-1.8523
Y-1.8444
Y-1.8365
Y-1.8287
Y-1.8208
Y-1.8129
Y-1.805
Y-1.7972
Y-1.7893
Y-1.7814
Y-1.7735
Y-1.7657
Y-1.7578
Y-1.7499
Y-1.742
Y-1.7342
Y-1.7263
Y-1.7184
Y-1.7105
Y-1.7027
Y-1.6948
Y-1.6869
Y-1.679
Y-1.6712
Y-1.6633
Y-1.6554
Y-1.6475
Y-1.6397
Y-1.6318
Y-1.6239
Y-1.6161
Y-1.6082
Y-1.6003
Y-1.5924
Y-1.5846
Y-1.5767
Y-1.5688
Y-1.5609
Y-1.5531
Y-1.5452
Y-1.5373
Y-1.5294
Y-1.5216
Y-1.5137
Y-1.5058
Y-1.4979
Y-1.4901
Y-1.4822
Y-1.4743
Y-1.4664
Y-1.4586
Y-1.4507
Y-1.4428
Y-1.435
Y-1.4271
Y-1.4192
Y-1.4113
Y-1.4035
Y-1.3956
Y-1.3877
Y-1.3798
Y-1.372
Y-1.3641
Y-1.3562
Y-1.3483
Y-1.3405
Y-1.3326
Y-1.3247
Y-1.3168
Y-1.309
Y-1.3011
Y-1.2932
Y-1.2853
Y-1.2775
Y-1.2696
Y-1.2617
Y-1.2538
Y-1.246
Y-1.2381
Y-1.2302
Y-1.2224
Y-1.2145
Y-1.2066
Y-1.1987
Y-1.1909
Y-1.183
Y-1.1751
Y-1.1672
Y-1.1594
Y-1.1515
Y-1.1436
Y-1.1357
Y-1.1279
Y-1.12
Y-1.1121
Y-1.1042
Y-1.0964
Y-1.0885
Y-1.0806
Y-1.0727
Y-1.0649
Y-1.057
Y-1.0491
Y-1.0413
Y-1.0334
Y-1.0255
Y-1.0176
Y-1.0098
Y-1.0019
Y-0.994
Y-0.9861
Y-0.9783
Y-0.9704
Y-0.9625
Y-0.9546
Y-0.9468
Y-0.9389
Y-0.931
Y-0.9231
Y-0.9153
Y-0.9074
Y-0.8995
Y-0.8916
Y-0.8838
Y-0.8759
Y-0.868
Y-0.8601
Y-0.8523
Y-0.8444
Y-0.8365
Y-0.8287
Y-0.8208
Y-0.8129
Y-0.805
Y-0.7972
Y-0.7893
Y-0.7814
Y-0.7735
Y-0.7657
Y-0.7578
Y-0.7499
Y-0.742
Y-0.7342
Y-0.7263
Y-0.7184
Y-0.7105
Y-0.7027
Y-0.6948
Y-0.6869
Y-0.679
Y-0.6712
Y-0.6633
Y-0.6554
Y-0.6475
Y-0.6397
Y-0.6318
Y-0.6239
Y-0.6161
Y-0.6082
Y-0.6003
Y-0.5924
Y-0.5846
Y-0.5767
Y-0.5688
Y-0.5609
Y-0.5531
Y-0.5452
Y-0.5373
Y-0.5294
Y-0.5216
Y-0.5137
Y-0.5058
Y-0.4979
Y-0.4901
Y-0.4822
Y-0.4743
Y-0.4664
Y-0.4586
Y-0.4507
Y-0.4428
Y-0.435
Y-0.4271
Y-0.4192
Y-0.4113
Y-0.4035
Y-0.3956
Y-0.3877
Y-0.3798
Y-0.372
Y-0.3641
Y-0.3562
Y-0.3483
Y-0.3405
Y-0.3326
Y-0.3247
Y-0.3168
Y-0.309
Y-0.3011
Y-0.2932
Y-0.2853
Y-0.2775
Y-0.2696
Y-0.2617
Y-0.2538
Y-0.246
Y-0.2381
Y-0.2302
Y-0.2224
Y-0.2145
Y-0.2066
Y-0.1987
Y-0.1909
Y-0.183
Y-0.1751
Y-0.1672
Y-0.1594
Y-0.1515
Y-0.1436
Y-0.1357
Y-0.1279
Y-0.12
Y-0.1121
Y-0.1042
Y-0.0964
Y-0.0885
Y-0.0806
Y-0.0727
Y-0.0649
Y-0.057
Y-0.0491
Y-0.0413
Y-0.0334
Y-0.0255
Y-0.0176
Y-0.0098
Y-0.0019
Y0.0059
Y0.0138
Y0.0216
Y0.0295
Y0.0374
Y0.0453
Y0.0531
Y0.061
Y0.0689
Y0.0768
Y0.0846
Y0.0925
Y0.1004
Y0.1083
Y0.1161
Y0.124
Y0.1319
Y0.1398
Y0.1476
Y0.1555
Y0.1634
Y0.1712
Y0.1791
Y0.187
Y0.1949
Y0.2027
Y0.2106
Y0.2185
Y0.2264
Y0.2342
Y0.2421
Y0.25
Y0.2579
Y0.2657
Y0.2736
Y0.2815
Y0.2894
Y0.2972
Y0.3051
Y0.313
Y0.3209
Y0.3287
Y0.3366
Y0.3445
Y0.3524
Y0.3602
Y0.3681
Y0.376
Y0.3838
Y0.3917
Y0.3996
Y0.4075
Y0.4153
Y0.4232
Y0.4311
Y0.439
Y0.4468
Y0.4547
Y0.4626
Y0.4705
Y0.4783
Y0.4862
Y0.4941
Y0.502
Y0.5098
Y0.5177
Y0.5256
Y0.5335
Y0.5413
Y0.5492
Y0.5571
Y0.5649
Y0.5728
Y0.5807
Y0.5886
Y0.5964
Y0.6043
Y0.6122
Y0.6201
Y0.6279
Y0.6358
Y0.6437
Y0.6516
Y0.6594
Y0.6673
Y0.6752
Y0.6831
Y0.6909
Y0.6988
Y0.7067
Y0.7146
Y0.7224
Y0.7303
Y0.7382
Y0.7461
Y0.7539
Y0.7618
Y0.7697
Y0.7775
Y0.7854
Y0.7933
Y0.8012
Y0.809
Y0.8169
Y0.8248
Y0.8327
Y0.8405
Y0.8484
Y0.8563
Y0.8642
Y0.872
Y0.8799
Y0.8878
Y0.8957
Y0.9035
Y0.9114
Y0.9193
Y0.9272
Y0.935
Y0.9429
Y0.9508
Y0.9587
Y0.9665
Y0.9744
Y0.9823
Y0.9901
Y0.998
Y1.0059
Y1.0138
Y1.0216
Y1.0295
Y1.0374
Y1.0453
Y1.0531
Y1.061
Y1.0624
G0Z0.3937
X0.9374Y2.1875
G1Z-0.125F19.68
Y2.1796F39.37
Y2.1717
Y2.1638
Y2.156
Y2.1481
Y2.1402
Y2.1323
Y2.1245
Y2.1166
Y2.1087
Y2.1008
Y2.093
Y2.0851
Y2.0772
Y2.0693
Y2.0615
Y2.0536
Y2.0457
Y2.0378
Y2.03
Y2.0221
Y2.0142
Y2.0063
Y1.9985
Y1.9906
Y1.9827
Y1.9749
Y1.967
Y1.9591
Y1.9512
Y1.9434
Y1.9355
Y1.9276
Y1.9197
Y1.9119
Y1.904
Y1.8961
Y1.8882
Y1.8804
Y1.8725
Y1.8646
Y1.8567
Y1.8489
Y1.841
Y1.8331
Y1.8252
Y1.8174
Y1.8095
Y1.8016
Y1.7937
Y1.7859
Y1.778
Y1.7701
Y1.7623
Y1.7544
Y1.7465
Y1.7386
Y1.7308
Y1.7229
Y1.715
Y1.7071
Y1.6993
Y1.6914
Y1.6835
Y1.6756
Y1.6678
Y1.6599
Y1.652
Y1.6441
Y1.6363
Y1.6284
Y1.6205
Y1.6126
Y1.6048
Y1.5969
Y1.589
Y1.5812
Y1.5733
Y1.5654
Y1.5575
Y1.5497
Y1.5418
Y1.5339
Y1.526
Y1.5182
Y1.5103
Y1.5024
Y1.4945
Y1.4867
Y1.4788
Y1.4709
Y1.463
Y1.4552
Y1.4473
Y1.4394
Y1.4315
Y1.4237
Y1.4158
Y1.4079
Y1.4
Y1.3922
Y1.3843
Y1.3764
Y1.3686
Y1.3607
Y1.3528
Y1.3449
Y1.3371
Y1.3292
Y1.3213
Y1.3134
Y1.3056
Y1.2977
Y1.2898
Y1.2819
Y1.2741
Y1.2662
Y1.2583
Y1.2504
Y1.2426
Y1.2347
Y1.2268
Y1.2189
Y1.2111
Y1.2032
Y1.1953
Y1.1875
Y1.1796
Y1.1717
Y1.1638
Y1.156
Y1.1481
Y1.1402
Y1.1323
Y1.1245
Y1.1166
Y1.1087
Y1.1008
Y1.093
Y1.0851
Y1.0772
Y1.0693
Y1.0615
Y1.0536
Y1.0457
Y1.0378
Y1.03
Y1.0221
Y1.0142
Y1.0063
Y0.9985
Y0.9906
Y0.9827
Y0.9749
Y0.967
Y0.9591
Y0.9512
Y0.9434
Y0.9355
Y0.9276
Y0.9197
Y0.9119
Y0.904
Y0.8961
Y0.8882
Y0.8804
Y0.8725
Y0.8646
Y0.8567
Y0.8489
Y0.841
Y0.8331
Y0.8252
Y0.8174
Y0.8095
Y0.8016
Y0.7937
Y0.7859
Y0.778
Y0.7701
Y0.7623
Y0.7544
Y0.7465
Y0.7386
Y0.7308
Y0.7229
Y0.715
Y0.7071
Y0.6993
Y0.6914
Y0.6835
Y0.6756
Y0.6678
Y0.6599
Y0.652
Y0.6441
Y0.6363
Y0.6284
Y0.6205
Y0.6126
Y0.6048
Y0.5969
Y0.589
Y0.5812
Y0.5733
Y0.5654
Y0.5575
Y0.5497
Y0.5418
Y0.5339
Y0.526
Y0.5182
Y0.5103
Y0.5024
Y0.4945
Y0.4867
Y0.4788
Y0.4709
Y0.463
Y0.4552
Y0.4473
Y0.4394
Y0.4315
Y0.4237
Y0.4158
Y0.4079
Y0.4
Y0.3922
Y0.3843
Y0.3764
Y0.3686
Y0.3607
Y0.3528
Y0.3449
Y0.3371
Y0.3292
Y0.3213
Y0.3134
Y0.3056
Y0.2977
Y0.2898
Y0.2819
Y0.2741
Y0.2662
Y0.2583
Y0.2504
Y0.2426
Y0.2347
Y0.2268
Y0.2189
Y0.2111
Y0.2032
Y0.1953
Y0.1875
Y0.1796
Y0.1717
Y0.1638
Y0.156
Y0.1481
Y0.1402
Y0.1323
Y0.1245
Y0.1166
Y0.1087
Y0.1008
Y0.093
Y0.0851
Y0.0772
Y0.0693
Y0.0615
Y0.0536
Y0.0457
Y0.0378
Y0.03
Y0.0221
Y0.0142
Y0.0063
Y-0.0014
Y-0.0093
Y-0.0172
Y-0.025
Y-0.0329
Y-0.0408
Y-0.0487
Y-0.0565
Y-0.0644
Y-0.0723
Y-0.0802
Y-0.088
Y-0.0959
Y-0.1038
Y-0.1117
Y-0.1195
Y-0.1274
Y-0.1353
Y-0.1432
Y-0.151
Y-0.1589
Y-0.1668
Y-0.1747
Y-0.1825
Y-0.1904
Y-0.1983
Y-0.2062
Y-0.214
Y-0.2219
Y-0.2298
Y-0.2376
Y-0.2455
Y-0.2534
Y-0.2613
Y-0.2691
Y-0.277
Y-0.2849
Y-0.2928
Y-0.3006
Y-0.3085
Y-0.3164
Y-0.3243
Y-0.3321
Y-0.34
Y-0.3479
Y-0.3558
Y-0.3636
Y-0.3715
Y-0.3794
Y-0.3873
Y-0.3951
Y-0.403
Y-0.4109
Y-0.4187
Y-0.4266
Y-0.4345
Y-0.4424
Y-0.4502
Y-0.4581
Y-0.466
Y-0.4739
Y-0.4817
Y-0.4896
Y-0.4975
Y-0.5054
Y-0.5132
Y-0.5211
Y-0.529
Y-0.5369
Y-0.5447
Y-0.5526
Y-0.5605
Y-0.5684
Y-0.5762
Y-0.5841
Y-0.592
Y-0.5999
Y-0.6077
Y-0.6156
Y-0.6235
Y-0.6313
Y-0.6392
Y-0.6471
Y-0.655
Y-0.6628
Y-0.6707
Y-0.6786
Y-0.6865
Y-0.6943
Y-0.7022
Y-0.7101
Y-0.718
Y-0.7258
Y-0.7337
Y-0.7416
Y-0.7495
Y-0.7573
Y-0.7652
Y-0.7731
Y-0.781
Y-0.7888
Y-0.7967
Y-0.8046
Y-0.8125
Y-0.8203
Y-0.8282
Y-0.8361
Y-0.8439
Y-0.8518
Y-0.8597
Y-0.8676
Y-0.8754
Y-0.8833
Y-0.8912
Y-0.8991
Y-0.9069
Y-0.9148
Y-0.9227
Y-0.9306
Y-0.9384
Y-0.9463
Y-0.9542
Y-0.9621
Y-0.9699
Y-0.9778
Y-0.9857
Y-0.9936
Y-1.0014
Y-1.0093
Y-1.0172
Y-1.025
Y-1.0329
Y-1.0408
Y-1.0487
Y-1.0565
Y-1.0644
Y-1.0723
Y-1.0802
Y-1.088
Y-1.0959
Y-1.1038
Y-1.1117
Y-1.1195
Y-1.1274
Y-1.1353
Y-1.1432
Y-1.151
Y-1.1589
Y-1.1668
Y-1.1747
Y-1.1825
Y-1.1904
Y-1.1983
Y-1.2062
Y-1.214
Y-1.2219
Y-1.2298
Y-1.2376
Y-1.2455
Y-1.2534
Y-1.2613
Y-1.2691
Y-1.277
Y-1.2849
Y-1.2928
Y-1.3006
Y-1.3085
Y-1.3164
Y-1.3243
Y-1.3321
Y-1.34
Y-1.3479
Y-1.3558
Y-1.3636
Y-1.3715
Y-1.3794
Y-1.3873
Y-1.3951
Y-1.403
Y-1.4109
Y-1.4187
Y-1.4266
Y-1.4345
Y-1.4424
Y-1.4502
Y-1.4581
Y-1.466
Y-1.4739
Y-1.4817
Y-1.4896
Y-1.4975
Y-1.5054
Y-1.5132
Y-1.5211
Y-1.529
Y-1.5369
Y-1.5447
Y-1.5526
Y-1.5605
Y-1.5684
Y-1.5762
Y-1.5841
Y-1.592
Y-1.5999
Y-1.6077
Y-1.6156
Y-1.6235
Y-1.6313
Y-1.6392
Y-1.6471
Y-1.655
Y-1.6628
Y-1.6707
Y-1.6786
Y-1.6865
Y-1.6943
Y-1.7022
Y-1.7101
Y-1.718
Y-1.7258
Y-1.7337
Y-1.7416
Y-1.7495
Y-1.7573
Y-1.7652
Y-1.7731
Y-1.781
Y-1.7888
Y-1.7967
Y-1.8046
Y-1.8125
Y-1.8203
Y-1.8282
Y-1.8361
Y-1.8439
Y-1.8518
Y-1.8597
Y-1.8676
Y-1.8754
Y-1.8833
Y-1.8912
Y-1.8991
Y-1.9069
Y-1.9148
Y-1.9227
Y-1.9306
Y-1.9384
Y-1.9463
Y-1.9542
Y-1.9621
Y-1.9699
Y-1.9778
Y-1.9857
Y-1.9936
Y-2.0014
Y-2.0093
Y-2.0172
Y-2.025
Y-2.0329
Y-2.0408
Y-2.0487
Y-2.0565
Y-2.0644
Y-2.0723
Y-2.0802
Y-2.088
Y-2.0959
Y-2.1038
Y-2.1117
Y-2.1195
Y-2.1274
Y-2.1353
Y-2.1432
Y-2.151
Y-2.1589
Y-2.1668
Y-2.1747
Y-2.1825
Y-2.1904
Y-2.1983
Y-2.2062
Y-2.214
Y-2.2219
Y-2.2298
Y-2.2376
Y-2.2455
Y-2.2534
Y-2.2613
Y-2.2691
Y-2.277
Y-2.2849
Y-2.2928
Y-2.3006
Y-2.3085
Y-2.3164
Y-2.3243
Y-2.3321
Y-2.34
Y-2.3479
Y-2.3558
Y-2.3636
Y-2.3715
Y-2.3794
Y-2.3873
Y-2.3951
Y-2.403
Y-2.4109
Y-2.4187
Y-2.4266
Y-2.4345
Y-2.4424
Y-2.4502
Y-2.4581
Y-2.466
Y-2.4739
Y-2.4817
Y-2.4896
Y-2.4975
Y-2.5054
Y-2.5132
Y-2.5211
Y-2.529
Y-2.5369
Y-2.5447
Y-2.5526
Y-2.5605
Y-2.5684
Y-2.5762
Y-2.5841
Y-2.592
Y-2.5999
Y-2.6077
Y-2.6156
Y-2.6235
Y-2.6313
Y-2.6392
Y-2.6471
Y-2.655
Y-2.6628
Y-2.6707
Y-2.6786
Y-2.6865
Y-2.6943
Y-2.7022
Y-2.7101
Y-2.718
Y-2.7258
Y-2.7337
Y-2.7416
Y-2.7495
Y-2.7573
Y-2.7652
Y-2.7731
Y-2.781
Y-2.7888
Y-2.7967
Y-2.8046
Y-2.8125
Y-2.8203
Y-2.8282
Y-2.8361
Y-2.8439
Y-2.8518
Y-2.8597
Y-2.8676
Y-2.8754
Y-2.8833
Y-2.8912
Y-2.8991
Y-2.9069
Y-2.9148
Y-2.9227
Y-2.9306
Y-2.9384
Y-2.9463
Y-2.9542
Y-2.9621
Y-2.9699
Y-2.9778
Y-2.9857
Y-2.9936
Y-3.0014
Y-3.0093
Y-3.0172
Y-3.025
Y-3.0329
Y-3.0408
Y-3.0487
Y-3.0565
Y-3.0644
Y-3.0723
Y-3.0802
Y-3.088
Y-3.0959
Y-3.1038
Y-3.1117
Y-3.1195
Y-3.1274
Y-3.1353
Y-3.1432
Y-3.151
Y-3.1589
Y-3.1668
Y-3.1747
Y-3.1825
Y-3.1904
Y-3.1983
Y-3.2062
Y-3.214
Y-3.2219
Y-3.2298
Y-3.2376
Y-3.2455
Y-3.2534
Y-3.2613
Y-3.2691
Y-3.277
Y-3.2849
Y-3.2928
Y-3.3006
Y-3.3085
Y-3.3125
X0.9371Y-3.3186
X0.9362Y-3.3246
X0.9348Y-3.3306
X0.9327Y-3.3364
X0.9301Y-3.3419
X0.9269Y-3.3472
X0.9232Y-3.3521
X0.9191Y-3.3567
X0.9146Y-3.3608
X0.9096Y-3.3645
X0.9044Y-3.3676
X0.8988Y-3.3702
X0.8931Y-3.3723
X0.8871Y-3.3738
X0.881Y-3.3747
X0.8749Y-3.375
X0.867
X0.8592
X0.8513
X0.8434
X0.8355
X0.8277
X0.8198
X0.8119
X0.804
X0.7962
X0.7883
X0.7804
X0.7725
X0.7647
X0.7568
X0.7489
X0.7411
X0.7332
X0.7253
X0.7174
X0.7096
X0.7017
X0.6938
X0.6859
X0.6781
X0.6702
X0.6623
X0.6544
X0.6466
X0.6387
X0.6308
X0.6229
X0.6151
X0.6072
X0.5993
X0.5914
X0.5836
X0.5757
X0.5678
X0.5599
X0.5521
X0.5442
X0.5363
X0.5285
X0.5206
X0.5127
X0.5048
X0.497
X0.4891
X0.4812
X0.4733
X0.4655
X0.4576
X0.4497
X0.4418
X0.434
X0.4261
X0.4182
X0.4103
X0.4025
X0.3946
X0.3867
X0.3788
X0.371
X0.3631
X0.3552
X0.3474
X0.3395
X0.3316
X0.3237
X0.3159
X0.308
X0.3001
X0.2922
X0.2844
X0.2765
X0.2686
X0.2607
X0.2529
X0.245
X0.2371
X0.2292
X0.2214
X0.2135
X0.2056
X0.1977
X0.1899
X0.182
X0.1741
X0.1662
X0.1584
X0.1505
X0.1426
X0.1348
X0.1269
X0.119
X0.1111
X0.1033
X0.0954
X0.0875
X0.0796
X0.0718
X0.0639
X0.056
X0.0481
X0.0403
X0.0324
X0.0245
X0.0166
X0.0088
X0.0009
X-0.0069
X-0.0148
X-0.0226
X-0.0305
X-0.0384
X-0.0463
X-0.0541
X-0.062
X-0.0699
X-0.0777
X-0.0856
X-0.0935
X-0.1014
X-0.1092
X-0.1171
X-0.125
X-0.1329
X-0.1407
X-0.1486
X-0.1565
X-0.1644
X-0.1722
X-0.1801
X-0.188
X-0.1959
X-0.2037
X-0.2116
X-0.2195
X-0.2274
X-0.2352
X-0.2431
X-0.251
X-0.2589
X-0.2667
X-0.2746
X-0.2825
X-0.2903
X-0.2982
X-0.3061
X-0.314
X-0.3218
X-0.3297
X-0.3376
X-0.3455
X-0.3533
X-0.3612
X-0.3691
X-0.377
X-0.3848
X-0.3927
X-0.4006
X-0.4085
X-0.4163
X-0.4242
X-0.4321
X-0.44
X-0.4478
X-0.4557
X-0.4636
X-0.4714
X-0.4793
X-0.4872
X-0.4951
X-0.5029
X-0.5108
X-0.5187
X-0.5266
X-0.5344
X-0.5423
X-0.5502
X-0.5581
X-0.5659
X-0.5738
X-0.5817
X-0.5896
X-0.5974
X-0.6053
X-0.6132
X-0.6211
X-0.6289
X-0.6368
X-0.6447
X-0.6526
X-0.6604
X-0.6683
X-0.6762
X-0.684
X-0.6919
X-0.6998
X-0.7077
X-0.7155
X-0.7234
X-0.7313
X-0.7392
X-0.747
X-0.7549
X-0.7628
X-0.7707
X-0.7785
X-0.7864
X-0.7943
X-0.8022
X-0.81
X-0.8179
X-0.8258
X-0.8337
X-0.8415
X-0.8494
X-0.8573
X-0.8651
X-0.873
X-0.8809
X-0.8888
X-0.8966
X-0.9045
X-0.9124
X-0.9203
X-0.9281
X-0.936
X-0.9439
X-0.9518
X-0.9596
X-0.9675
X-0.9754
X-0.9833
X-0.9911
X-0.999
X-1.0069
X-1.0148
X-1.0226
X-1.0305
X-1.0384
X-1.0463
X-1.0541
X-1.062
X-1.0699
X-1.0777
X-1.0856
X-1.0935
X-1.1014
X-1.1092
X-1.1171
X-1.125
X-1.1329
X-1.1407
X-1.1486
X-1.1565
X-1.1644
X-1.1722
X-1.1801
X-1.188
X-1.1959
X-1.2037
X-1.2116
X-1.2195
X-1.2274
X-1.2352
X-1.2431
X-1.251
X-1.2589
X-1.2667
X-1.2746
X-1.2825
X-1.2903
X-1.2982
X-1.3061
X-1.314
X-1.3218
X-1.3297
X-1.3376
X-1.3455
X-1.3533
X-1.3612
X-1.3691
X-1.377
X-1.3848
X-1.3927
X-1.4006
X-1.4085
X-1.4163
X-1.4242
X-1.4321
X-1.44
X-1.4478
X-1.4557
X-1.4636
X-1.4714
X-1.4793
X-1.4872
X-1.4951
X-1.5029
X-1.5108
X-1.5187
X-1.5266
X-1.5344
X-1.5423
X-1.5502
X-1.5581
X-1.5659
X-1.5738
X-1.5817
X-1.5896
X-1.5974
X-1.6053
X-1.6132
X-1.6211
X-1.625
X-1.6313Y-3.3747
X-1.6375Y-3.3737
X-1.6436Y-3.3722
X-1.6495Y-3.37
X-1.6551Y-3.3672
X-1.6605Y-3.3639
X-1.6615Y-3.3631
X-1.6616Y-3.3632
X-1.6636Y-3.3616
X-1.6655Y-3.3601
X-1.6659Y-3.3597
X-1.6662Y-3.3595
X-1.6684Y-3.3574
X-1.6701Y-3.3557
X-1.6703Y-3.3555
X-1.6705Y-3.3554
X-1.673Y-3.3524
X-1.6742Y-3.351
X-1.6743Y-3.3509
X-1.6777Y-3.3461
X-1.6778Y-3.346
X-1.6779Y-3.3459
X-1.6788Y-3.3441
X-1.6807Y-3.3409
X-1.6808Y-3.3407
X-1.6809Y-3.3404
X-1.6818Y-3.3384
X-1.6831Y-3.3355
X-1.6833Y-3.3351
X-1.6835Y-3.3346
X-1.6841Y-3.3326
X-1.685Y-3.33
X-1.6852Y-3.3293
X-1.6854Y-3.3286
X-1.6858Y-3.3266
X-1.6864Y-3.3242
X-1.6865Y-3.3233
X-1.6867Y-3.3225
X-1.6869Y-3.3206
X-1.6872Y-3.3184
X-1.6873Y-3.3172
X-1.6874Y-3.3162
Y-3.3145
X-1.6875Y-3.3125
Y-3.3046
Y-3.2967
Y-3.2888
Y-3.281
Y-3.2731
Y-3.2652
Y-3.2573
Y-3.2495
Y-3.2416
Y-3.2337
Y-3.2258
Y-3.218
Y-3.2101
Y-3.2022
Y-3.1943
Y-3.1865
Y-3.1786
Y-3.1707
Y-3.1628
Y-3.155
Y-3.1471
Y-3.1392
Y-3.1314
Y-3.1235
Y-3.1156
Y-3.1077
Y-3.0999
Y-3.092
Y-3.0841
Y-3.0762
Y-3.0684
Y-3.0605
Y-3.0526
Y-3.0447
Y-3.0369
Y-3.029
Y-3.0211
Y-3.0132
Y-3.0054
Y-2.9975
Y-2.9896
Y-2.9817
Y-2.9739
Y-2.966
Y-2.9581
Y-2.9502
Y-2.9424
Y-2.9345
Y-2.9266
Y-2.9188
Y-2.9109
Y-2.903
Y-2.8951
Y-2.8873
Y-2.8794
Y-2.8715
Y-2.8636
Y-2.8558
Y-2.8479
Y-2.84
Y-2.8321
Y-2.8243
Y-2.8164
Y-2.8085
Y-2.8006
Y-2.7928
Y-2.7849
Y-2.777
Y-2.7691
Y-2.7613
Y-2.7534
Y-2.7455
Y-2.7376
Y-2.7298
Y-2.7219
Y-2.714
Y-2.7062
Y-2.6983
Y-2.6904
Y-2.6875
X-1.6872Y-2.6813
X-1.6863Y-2.6753
X-1.6848Y-2.6693
X-1.6828Y-2.6635
X-1.6801Y-2.658
X-1.677Y-2.6527
X-1.6733Y-2.6478
X-1.6692Y-2.6433
Y-2.6432
X-1.6646Y-2.6391
X-1.6597Y-2.6354
X-1.6545Y-2.6323
X-1.6489Y-2.6297
X-1.6431Y-2.6276
X-1.6372Y-2.6261
X-1.6311Y-2.6252
X-1.625Y-2.6249
X-1.6171
X-1.6092
X-1.6014
X-1.5935
X-1.5856
X-1.5777
X-1.5699
X-1.562
X-1.5541
X-1.5462
X-1.5384
X-1.5305
X-1.5226
X-1.5148
X-1.5069
X-1.499
X-1.4911
X-1.4833
X-1.4754
X-1.4675
X-1.4596
X-1.4518
X-1.4439
X-1.436
X-1.4281
X-1.4203
X-1.4124
X-1.4045
X-1.3966
X-1.3888
X-1.3809
X-1.373
X-1.3651
X-1.3573
X-1.3494
X-1.3415
X-1.3337
X-1.3258
X-1.3179
X-1.31
X-1.3022
X-1.2943
X-1.2864
X-1.2785
X-1.2707
X-1.2628
X-1.2549
X-1.247
X-1.2392
X-1.2313
X-1.2234
X-1.2155
X-1.2077
X-1.1998
X-1.1919
X-1.184
X-1.1762
X-1.1683
X-1.1604
X-1.1525
X-1.1447
X-1.1368
X-1.1289
X-1.1211
X-1.1132
X-1.1053
X-1.0974
X-1.0896
X-1.0817
X-1.0738
X-1.0659
X-1.0581
X-1.0502
X-1.0423
X-1.0344
X-1.0266
X-1.0187
X-1.0108
X-1.0029
X-0.9951
X-0.9872
X-0.9793
X-0.9714
X-0.9636
X-0.9557
X-0.9478
X-0.9399
X-0.9321
X-0.9242
X-0.9163
X-0.9085
X-0.9006
X-0.8927
X-0.8848
X-0.877
X-0.8691
X-0.8612
X-0.8533
X-0.8455
X-0.8376
X-0.8297
X-0.8218
X-0.814
X-0.8061
X-0.7982
X-0.7903
X-0.7825
X-0.7746
X-0.7667
X-0.7588
X-0.751
X-0.7431
X-0.7352
X-0.7274
X-0.7195
X-0.7116
X-0.7037
X-0.6959
X-0.688
X-0.6801
X-0.6722
X-0.6644
X-0.6565
X-0.6486
X-0.6407
X-0.6329
X-0.625
X-0.6171
X-0.6092
X-0.6014
X-0.5935
X-0.5856
X-0.5777
X-0.5699
X-0.562
X-0.5541
X-0.5462
X-0.5384
X-0.5305
X-0.5226
X-0.5148
X-0.5069
X-0.499
X-0.4911
X-0.4833
X-0.4754
X-0.4675
X-0.4596
X-0.4518
X-0.4439
X-0.436
X-0.4281
X-0.4203
X-0.4124
X-0.4045
X-0.3966
X-0.3888
X-0.3809
X-0.373
X-0.3651
X-0.3573
X-0.3494
X-0.3415
X-0.3337
X-0.3258
X-0.3179
X-0.31
X-0.3022
X-0.2943
X-0.2864
X-0.2785
X-0.2707
X-0.2628
X-0.2549
X-0.247
X-0.2392
X-0.2313
X-0.2234
X-0.2155
X-0.2077
X-0.1998
X-0.1919
X-0.184
X-0.1762
X-0.1683
X-0.1604
X-0.1525
X-0.1447
X-0.1368
X-0.1289
X-0.1211
X-0.1132
X-0.1053
X-0.0974
X-0.0896
X-0.0817
X-0.0738
X-0.0659
X-0.0581
X-0.0502
X-0.0423
X-0.0344
X-0.0266
X-0.0187
X-0.0108
X-0.0029
X0.0048
X0.0127
X0.0206
X0.0285
X0.0363
X0.0442
X0.0521
X0.06
X0.0678
X0.0757
X0.0836
X0.0914
X0.0993
X0.1072
X0.1151
X0.1229
X0.1308
X0.1387
X0.1466
X0.1544
X0.1623
X0.1702
X0.1781
X0.1859
X0.1874
Y-2.617
Y-2.6092
Y-2.6013
Y-2.5934
Y-2.5855
Y-2.5777
Y-2.5698
Y-2.5619
Y-2.554
Y-2.5462
Y-2.5383
Y-2.5304
Y-2.5226
Y-2.5147
Y-2.5068
Y-2.4989
Y-2.4911
Y-2.4832
Y-2.4753
Y-2.4674
Y-2.4596
Y-2.4517
Y-2.4438
Y-2.4359
Y-2.4281
Y-2.4202
Y-2.4123
Y-2.4044
Y-2.3966
Y-2.3887
Y-2.3808
Y-2.3729
Y-2.3651
Y-2.3572
Y-2.3493
Y-2.3414
Y-2.3336
Y-2.3257
Y-2.3178
Y-2.31
Y-2.3021
Y-2.2942
Y-2.2863
Y-2.2785
Y-2.2706
Y-2.2627
Y-2.2548
Y-2.247
Y-2.2391
Y-2.2312
Y-2.2233
Y-2.2155
Y-2.2076
Y-2.1997
Y-2.1918
Y-2.184
Y-2.1761
Y-2.1682
Y-2.1603
Y-2.1525
Y-2.1446
Y-2.1367
Y-2.1289
Y-2.121
Y-2.1131
Y-2.1052
Y-2.0974
Y-2.0895
Y-2.0816
Y-2.0737
Y-2.0659
Y-2.058
Y-2.0501
Y-2.0422
Y-2.0344
Y-2.0265
Y-2.0186
Y-2.0107
Y-2.0029
Y-1.995
Y-1.9871
Y-1.9792
Y-1.9714
Y-1.9635
Y-1.9556
Y-1.9477
Y-1.9399
Y-1.932
Y-1.9241
Y-1.9163
Y-1.9084
Y-1.9005
Y-1.8926
Y-1.8848
Y-1.8769
Y-1.869
Y-1.8611
Y-1.8533
Y-1.8454
Y-1.8375
Y-1.8296
Y-1.8218
Y-1.8139
Y-1.806
Y-1.7981
Y-1.7903
Y-1.7824
Y-1.7745
Y-1.7666
Y-1.7588
Y-1.7509
Y-1.743
Y-1.7352
Y-1.7273
Y-1.7194
Y-1.7115
Y-1.7037
Y-1.6958
Y-1.6879
Y-1.68
Y-1.6722
Y-1.6643
Y-1.6564
Y-1.6485
Y-1.6407
Y-1.6328
Y-1.6249
Y-1.617
Y-1.6092
Y-1.6013
Y-1.5934
Y-1.5855
Y-1.5777
Y-1.5698
Y-1.5619
Y-1.554
Y-1.5462
Y-1.5383
Y-1.5304
Y-1.5226
Y-1.5147
Y-1.5068
Y-1.4989
Y-1.4911
Y-1.4832
Y-1.4753
Y-1.4674
Y-1.4596
Y-1.4517
Y-1.4438
Y-1.4359
Y-1.4281
Y-1.4202
Y-1.4123
Y-1.4044
Y-1.3966
Y-1.3887
Y-1.3808
Y-1.3729
Y-1.3651
Y-1.3572
Y-1.3493
Y-1.3414
Y-1.3336
Y-1.3257
Y-1.3178
Y-1.31
Y-1.3021
Y-1.2942
Y-1.2863
Y-1.2785
Y-1.2706
Y-1.2627
Y-1.2548
Y-1.247
Y-1.2391
Y-1.2312
Y-1.2233
Y-1.2155
Y-1.2076
Y-1.1997
Y-1.1918
Y-1.184
Y-1.1761
Y-1.1682
Y-1.1603
Y-1.1525
Y-1.1446
Y-1.1367
Y-1.1289
Y-1.121
Y-1.1131
Y-1.1052
Y-1.0974
Y-1.0895
Y-1.0816
Y-1.0737
Y-1.0659
Y-1.058
Y-1.0501
Y-1.0422
Y-1.0344
Y-1.0265
Y-1.0186
Y-1.0107
Y-1.0029
Y-0.995
Y-0.9871
Y-0.9792
Y-0.9714
Y-0.9635
Y-0.9556
Y-0.9477
Y-0.9399
Y-0.932
Y-0.9241
Y-0.9163
Y-0.9084
Y-0.9005
Y-0.8926
Y-0.8848
Y-0.8769
Y-0.869
Y-0.8611
Y-0.8533
Y-0.8454
Y-0.8375
Y-0.8296
Y-0.8218
Y-0.8139
Y-0.806
Y-0.7981
Y-0.7903
Y-0.7824
Y-0.7745
Y-0.7666
Y-0.7588
Y-0.7509
Y-0.743
Y-0.7352
Y-0.7273
Y-0.7194
Y-0.7115
Y-0.7037
Y-0.6958
Y-0.6879
Y-0.68
Y-0.6722
Y-0.6643
Y-0.6564
Y-0.6485
Y-0.6407
Y-0.6328
Y-0.6249
Y-0.617
Y-0.6092
Y-0.6013
Y-0.5934
Y-0.5855
Y-0.5777
Y-0.5698
Y-0.5619
Y-0.554
Y-0.5462
Y-0.5383
Y-0.5304
Y-0.5226
Y-0.5147
Y-0.5068
Y-0.4989
Y-0.4911
Y-0.4832
Y-0.4753
Y-0.4674
Y-0.4596
Y-0.4517
Y-0.4438
Y-0.4359
Y-0.4281
Y-0.4202
Y-0.4123
Y-0.4044
Y-0.3966
Y-0.3887
Y-0.3808
Y-0.3729
Y-0.3651
Y-0.3572
Y-0.3493
Y-0.3414
Y-0.3336
Y-0.3257
Y-0.3178
Y-0.31
Y-0.3021
Y-0.2942
Y-0.2863
Y-0.2785
Y-0.2706
Y-0.2627
Y-0.2548
Y-0.247
Y-0.2391
Y-0.2312
Y-0.2233
Y-0.2155
Y-0.2076
Y-0.1997
Y-0.1918
Y-0.184
Y-0.1761
Y-0.1682
Y-0.1603
Y-0.1525
Y-0.1446
Y-0.1367
Y-0.1289
Y-0.121
Y-0.1131
Y-0.1052
Y-0.0974
Y-0.0895
Y-0.0816
Y-0.0737
Y-0.0659
Y-0.058
Y-0.0501
Y-0.0422
Y-0.0344
Y-0.0265
Y-0.0186
Y-0.0107
Y-0.0029
Y0.0049
Y0.0128
Y0.0207
Y0.0285
Y0.0364
Y0.0443
Y0.0522
Y0.06
Y0.0679
Y0.0758
Y0.0836
Y0.0915
Y0.0994
Y0.1073
Y0.1151
Y0.123
Y0.1309
Y0.1388
Y0.1466
Y0.1545
Y0.1624
Y0.1703
Y0.1781
Y0.186
Y0.1939
Y0.2018
Y0.2096
Y0.2175
Y0.2254
Y0.2333
Y0.2411
Y0.249
Y0.2569
Y0.2648
Y0.2726
Y0.2805
Y0.2884
Y0.2962
Y0.3041
Y0.312
Y0.3199
Y0.3277
Y0.3356
Y0.3435
Y0.3514
Y0.3592
Y0.3671
Y0.375
Y0.3829
Y0.3907
Y0.3986
Y0.4065
Y0.4144
Y0.4222
Y0.4301
Y0.438
Y0.4459
Y0.4537
Y0.4616
Y0.4695
Y0.4773
Y0.4852
Y0.4931
Y0.501
Y0.5088
Y0.5167
Y0.5246
Y0.5325
Y0.5403
Y0.5482
Y0.5561
Y0.564
Y0.5718
Y0.5797
Y0.5876
Y0.5955
Y0.6033
Y0.6112
Y0.6191
Y0.627
Y0.6348
Y0.6427
Y0.6506
Y0.6585
Y0.6663
Y0.6742
Y0.6821
Y0.6899
Y0.6978
Y0.7057
Y0.7136
Y0.7214
Y0.7293
Y0.7372
Y0.7451
Y0.7529
Y0.7608
Y0.7687
Y0.7766
Y0.7844
Y0.7923
Y0.8002
Y0.8081
Y0.8159
Y0.8238
Y0.8317
Y0.8396
Y0.8474
Y0.8553
Y0.8632
Y0.871
Y0.8789
Y0.8868
Y0.8947
Y0.9025
Y0.9104
Y0.9183
Y0.9262
Y0.934
Y0.9419
Y0.9498
Y0.9577
Y0.9655
Y0.9734
Y0.9813
Y0.9892
Y0.997
Y1.0049
Y1.0128
Y1.0207
Y1.0285
Y1.0364
Y1.0443
Y1.0522
Y1.06
Y1.0679
Y1.0758
Y1.0836
Y1.0915
Y1.0994
Y1.1073
Y1.1151
Y1.123
Y1.1309
Y1.1388
Y1.1466
Y1.1545
Y1.1624
Y1.1703
Y1.1781
Y1.186
Y1.1939
Y1.2018
Y1.2096
Y1.2175
Y1.2254
Y1.2333
Y1.2411
Y1.249
Y1.2569
Y1.2648
Y1.2726
Y1.2805
Y1.2884
Y1.2962
Y1.3041
Y1.312
Y1.3199
Y1.3277
Y1.3356
Y1.3435
Y1.3514
Y1.3592
Y1.3671
Y1.375
Y1.3829
Y1.3907
Y1.3986
Y1.4065
Y1.4144
Y1.4222
Y1.4301
Y1.438
Y1.4459
Y1.4537
Y1.4616
Y1.4695
Y1.4773
Y1.4852
Y1.4931
Y1.501
Y1.5088
Y1.5167
Y1.5246
Y1.5325
Y1.5403
Y1.5482
Y1.5561
Y1.564
Y1.5718
Y1.5797
Y1.5876
Y1.5955
Y1.6033
Y1.6112
Y1.6191
Y1.627
Y1.6348
Y1.6427
Y1.6506
Y1.6585
Y1.6663
Y1.6742
Y1.6821
Y1.6899
Y1.6978
Y1.7057
Y1.7136
Y1.7214
Y1.7293
Y1.7372
Y1.7451
Y1.7529
Y1.7608
Y1.7687
Y1.7766
Y1.7844
Y1.7923
Y1.8002
Y1.8081
Y1.8159
Y1.8238
Y1.8317
Y1.8396
Y1.8474
Y1.8553
Y1.8632
Y1.871
Y1.8789
Y1.8868
Y1.8947
Y1.9025
Y1.9104
Y1.9183
Y1.9262
Y1.934
Y1.9419
Y1.9498
Y1.9577
Y1.9655
Y1.9734
Y1.9813
Y1.9892
Y1.997
Y2.0049
Y2.0128
Y2.0207
Y2.0285
Y2.0364
Y2.0443
Y2.0522
Y2.06
Y2.0679
Y2.0758
Y2.0836
Y2.0915
Y2.0994
Y2.1073
Y2.1151
Y2.123
Y2.1309
Y2.1388
Y2.1466
Y2.1545
Y2.1624
Y2.1703
Y2.1781
Y2.186
Y2.1875
X0.1877Y2.1936
X0.1886Y2.1996
X0.1901Y2.2056
X0.1921Y2.2114
X0.1948Y2.2169
X0.1979Y2.2222
X0.2016Y2.2271
X0.2057Y2.2316
Y2.2317
X0.2103Y2.2358
X0.2152Y2.2395
X0.2205Y2.2426
X0.226Y2.2452
X0.2318Y2.2473
X0.2377Y2.2488
X0.2438Y2.2497
X0.2499Y2.25
X0.2578
X0.2657
X0.2735
X0.2814
X0.2893
X0.2972
X0.305
X0.3129
X0.3208
X0.3287
X0.3365
X0.3444
X0.3523
X0.3602
X0.368
X0.3759
X0.3838
X0.3916
X0.3995
X0.4074
X0.4153
X0.4231
X0.431
X0.4389
X0.4468
X0.4546
X0.4625
X0.4704
X0.4783
X0.4861
X0.494
X0.5019
X0.5098
X0.5176
X0.5255
X0.5334
X0.5413
X0.5491
X0.557
X0.5649
X0.5727
X0.5806
X0.5885
X0.5964
X0.6042
X0.6121
X0.62
X0.6279
X0.6357
X0.6436
X0.6515
X0.6594
X0.6672
X0.6751
X0.683
X0.6909
X0.6987
X0.7066
X0.7145
X0.7224
X0.7302
X0.7381
X0.746
X0.7539
X0.7617
X0.7696
X0.7775
X0.7853
X0.7932
X0.8011
X0.809
X0.8168
X0.8247
X0.8326
X0.8405
X0.8483
X0.8562
X0.8641
X0.872
X0.8749
X0.8769
X0.883Y2.2495
X0.8891Y2.2484
X0.895Y2.2467
X0.9007Y2.2444
X0.9061Y2.2416
X0.9113Y2.2383
X0.9161Y2.2345
X0.9205Y2.2303
Y2.2302
X0.9243Y2.2257
X0.9277Y2.2209
X0.9306Y2.2158
X0.9331Y2.2104
X0.935Y2.2049
X0.9363Y2.1992
X0.9372Y2.1933
X0.9374Y2.1875
G0Z0.3937
X1.6249Y2.6249
G1Z-0.125F19.68
X1.617F39.37
X1.6092
X1.6013
X1.5934
X1.5855
X1.5777
X1.5698
X1.5619
X1.554
X1.5462
X1.5383
X1.5304
X1.5226
X1.5147
X1.5068
X1.4989
X1.4911
X1.4832
X1.4753
X1.4674
X1.4596
X1.4517
X1.4438
X1.4359
X1.4281
X1.4202
X1.4123
X1.4044
X1.3966
X1.3887
X1.3808
X1.3729
X1.3651
X1.3572
X1.3493
X1.3414
X1.3336
X1.3257
X1.3178
X1.31
X1.3021
X1.2942
X1.2863
X1.2785
X1.2706
X1.2627
X1.2548
X1.247
X1.2391
X1.2312
X1.2233
X1.2155
X1.2076
X1.1997
X1.1918
X1.184
X1.1761
X1.1682
X1.1603
X1.1525
X1.1446
X1.1367
X1.1289
X1.121
X1.1131
X1.1052
X1.0974
X1.0895
X1.0816
X1.0737
X1.0659
X1.058
X1.0501
X1.0422
X1.0344
X1.0265
X1.0186
X1.0107
X1.0029
X0.995
X0.9871
X0.9792
X0.9714
X0.9635
X0.9556
X0.9477
X0.9399
X0.932
X0.9241
X0.9163
X0.9084
X0.9005
X0.8926
X0.8848
X0.8769
X0.869
X0.8611
X0.8533
X0.8454
X0.8375
X0.8296
X0.8218
X0.8139
X0.806
X0.7981
X0.7903
X0.7824
X0.7745
X0.7666
X0.7588
X0.7509
X0.743
X0.7352
X0.7273
X0.7194
X0.7115
X0.7037
X0.6958
X0.6879
X0.68
X0.6722
X0.6643
X0.6564
X0.6485
X0.6407
X0.6328
X0.6249
X0.617
X0.6092
X0.6013
X0.5934
X0.5855
X0.5777
X0.5698
X0.5619
X0.554
X0.5462
X0.5383
X0.5304
X0.5226
X0.5147
X0.5068
X0.4989
X0.4911
X0.4832
X0.4753
X0.4674
X0.4596
X0.4517
X0.4438
X0.4359
X0.4281
X0.4202
X0.4123
X0.4044
X0.3966
X0.3887
X0.3808
X0.3729
X0.3651
X0.3572
X0.3493
X0.3414
X0.3336
X0.3257
X0.3178
X0.31
X0.3021
X0.2942
X0.2863
X0.2785
X0.2706
X0.2627
X0.2548
X0.247
X0.2391
X0.2312
X0.2233
X0.2155
X0.2076
X0.1997
X0.1918
X0.184
X0.1761
X0.1682
X0.1603
X0.1525
X0.1446
X0.1367
X0.1289
X0.121
X0.1131
X0.1052
X0.0974
X0.0895
X0.0816
X0.0737
X0.0659
X0.058
X0.0501
X0.0422
X0.0344
X0.0265
X0.0186
X0.0107
X0.0029
X-0.0049
X-0.0128
X-0.0207
X-0.0285
X-0.0364
X-0.0443
X-0.0522
X-0.06
X-0.0679
X-0.0758
X-0.0836
X-0.0915
X-0.0994
X-0.1073
X-0.1151
X-0.123
X-0.1309
X-0.1388
X-0.1466
X-0.1545
X-0.1624
X-0.1703
X-0.1781
X-0.186
X-0.1875
Y2.617
Y2.6092
Y2.6013
Y2.5934
Y2.5855
Y2.5777
Y2.5698
Y2.5619
Y2.554
Y2.5462
Y2.5383
Y2.5304
Y2.5225
Y2.5147
Y2.5068
Y2.4989
Y2.4911
Y2.4832
Y2.4753
Y2.4674
Y2.4596
Y2.4517
Y2.4438
Y2.4359
Y2.4281
Y2.4202
Y2.4123
Y2.4044
Y2.3966
Y2.3887
Y2.3808
Y2.3729
Y2.3651
Y2.3572
Y2.3493
Y2.3414
Y2.3336
Y2.3257
Y2.3178
Y2.3099
Y2.3021
Y2.2942
Y2.2863
Y2.2785
Y2.2706
Y2.2627
Y2.2548
Y2.247
Y2.2391
Y2.2312
Y2.2233
Y2.2155
Y2.2076
Y2.1997
Y2.1918
Y2.184
Y2.1761
Y2.1682
Y2.1603
Y2.1525
Y2.1446
Y2.1367
Y2.1288
Y2.121
Y2.1131
Y2.1052
Y2.0974
Y2.0895
Y2.0816
Y2.0737
Y2.0659
Y2.058
Y2.0501
Y2.0422
Y2.0344
Y2.0265
Y2.0186
Y2.0107
Y2.0029
Y1.995
Y1.9871
Y1.9792
Y1.9714
Y1.9635
Y1.9556
Y1.9477
Y1.9399
Y1.932
Y1.9241
Y1.9162
Y1.9084
Y1.9005
Y1.8926
Y1.8848
Y1.8769
Y1.869
Y1.8611
Y1.8533
Y1.8454
Y1.8375
Y1.8296
Y1.8218
Y1.8139
Y1.806
Y1.7981
Y1.7903
Y1.7824
Y1.7745
Y1.7666
Y1.7588
Y1.7509
Y1.743
Y1.7351
Y1.7273
Y1.7194
Y1.7115
Y1.7036
Y1.6958
Y1.6879
Y1.68
Y1.6722
Y1.6643
Y1.6564
Y1.6485
Y1.6407
Y1.6328
Y1.6249
Y1.617
Y1.6092
Y1.6013
Y1.5934
Y1.5855
Y1.5777
Y1.5698
Y1.5619
Y1.554
Y1.5462
Y1.5383
Y1.5304
Y1.5225
Y1.5147
Y1.5068
Y1.4989
Y1.4911
Y1.4832
Y1.4753
Y1.4674
Y1.4596
Y1.4517
Y1.4438
Y1.4359
Y1.4281
Y1.4202
Y1.4123
Y1.4044
Y1.3966
Y1.3887
Y1.3808
Y1.3729
Y1.3651
Y1.3572
Y1.3493
Y1.3414
Y1.3336
Y1.3257
Y1.3178
Y1.3099
Y1.3021
Y1.2942
Y1.2863
Y1.2785
Y1.2706
Y1.2627
Y1.2548
Y1.247
Y1.2391
Y1.2312
Y1.2233
Y1.2155
Y1.2076
Y1.1997
Y1.1918
Y1.184
Y1.1761
Y1.1682
Y1.1603
Y1.1525
Y1.1446
Y1.1367
Y1.1288
Y1.121
Y1.1131
Y1.1052
Y1.0974
Y1.0895
Y1.0816
Y1.0737
Y1.0659
Y1.058
Y1.0501
Y1.0422
Y1.0344
Y1.0265
Y1.0186
Y1.0107
Y1.0029
Y0.995
Y0.9871
Y0.9792
Y0.9714
Y0.9635
Y0.9556
Y0.9477
Y0.9399
Y0.932
Y0.9241
Y0.9162
Y0.9084
Y0.9005
Y0.8926
Y0.8848
Y0.8769
Y0.869
Y0.8611
Y0.8533
Y0.8454
Y0.8375
Y0.8296
Y0.8218
Y0.8139
Y0.806
Y0.7981
Y0.7903
Y0.7824
Y0.7745
Y0.7666
Y0.7588
Y0.7509
Y0.743
Y0.7351
Y0.7273
Y0.7194
Y0.7115
Y0.7036
Y0.6958
Y0.6879
Y0.68
Y0.6722
Y0.6643
Y0.6564
Y0.6485
Y0.6407
Y0.6328
Y0.6249
Y0.617
Y0.6092
Y0.6013
Y0.5934
Y0.5855
Y0.5777
Y0.5698
Y0.5619
Y0.554
Y0.5462
Y0.5383
Y0.5304
Y0.5225
Y0.5147
Y0.5068
Y0.4989
Y0.4911
Y0.4832
Y0.4753
Y0.4674
Y0.4596
Y0.4517
Y0.4438
Y0.4359
Y0.4281
Y0.4202
Y0.4123
Y0.4044
Y0.3966
Y0.3887
Y0.3808
Y0.3729
Y0.3651
Y0.3572
Y0.3493
Y0.3414
Y0.3336
Y0.3257
Y0.3178
Y0.3099
Y0.3021
Y0.2942
Y0.2863
Y0.2785
Y0.2706
Y0.2627
Y0.2548
Y0.247
Y0.2391
Y0.2312
Y0.2233
Y0.2155
Y0.2076
Y0.1997
Y0.1918
Y0.184
Y0.1761
Y0.1682
Y0.1603
Y0.1525
Y0.1446
Y0.1367
Y0.1288
Y0.121
Y0.1131
Y0.1052
Y0.0974
Y0.0895
Y0.0816
Y0.0737
Y0.0659
Y0.058
Y0.0501
Y0.0422
Y0.0344
Y0.0265
Y0.0186
Y0.0107
Y0.0029
Y-0.0049
Y-0.0128
Y-0.0207
Y-0.0285
Y-0.0364
Y-0.0443
Y-0.0522
Y-0.06
Y-0.0679
Y-0.0758
Y-0.0837
Y-0.0915
Y-0.0994
Y-0.1073
Y-0.1151
Y-0.123
Y-0.1309
Y-0.1388
Y-0.1466
Y-0.1545
Y-0.1624
Y-0.1703
Y-0.1781
Y-0.186
Y-0.1939
Y-0.2018
Y-0.2096
Y-0.2175
Y-0.2254
Y-0.2333
Y-0.2411
Y-0.249
Y-0.2569
Y-0.2648
Y-0.2726
Y-0.2805
Y-0.2884
Y-0.2963
Y-0.3041
Y-0.312
Y-0.3199
Y-0.3277
Y-0.3356
Y-0.3435
Y-0.3514
Y-0.3592
Y-0.3671
Y-0.375
Y-0.3829
Y-0.3907
Y-0.3986
Y-0.4065
Y-0.4144
Y-0.4222
Y-0.4301
Y-0.438
Y-0.4459
Y-0.4537
Y-0.4616
Y-0.4695
Y-0.4774
Y-0.4852
Y-0.4931
Y-0.501
Y-0.5088
Y-0.5167
Y-0.5246
Y-0.5325
Y-0.5403
Y-0.5482
Y-0.5561
Y-0.564
Y-0.5718
Y-0.5797
Y-0.5876
Y-0.5955
Y-0.6033
Y-0.6112
Y-0.6191
Y-0.627
Y-0.6348
Y-0.6427
Y-0.6506
Y-0.6585
Y-0.6663
Y-0.6742
Y-0.6821
Y-0.69
Y-0.6978
Y-0.7057
Y-0.7136
Y-0.7214
Y-0.7293
Y-0.7372
Y-0.7451
Y-0.7529
Y-0.7608
Y-0.7687
Y-0.7766
Y-0.7844
Y-0.7923
Y-0.8002
Y-0.8081
Y-0.8159
Y-0.8238
Y-0.8317
Y-0.8396
Y-0.8474
Y-0.8553
Y-0.8632
Y-0.8711
Y-0.8789
Y-0.8868
Y-0.8947
Y-0.9026
Y-0.9104
Y-0.9183
Y-0.9262
Y-0.934
Y-0.9419
Y-0.9498
Y-0.9577
Y-0.9655
Y-0.9734
Y-0.9813
Y-0.9892
Y-0.997
Y-1.0049
Y-1.0128
Y-1.0207
Y-1.0285
Y-1.0364
Y-1.0443
Y-1.0522
Y-1.06
Y-1.0679
Y-1.0758
Y-1.0837
Y-1.0915
Y-1.0994
Y-1.1073
Y-1.1151
Y-1.123
Y-1.1309
Y-1.1388
Y-1.1466
Y-1.1545
Y-1.1624
Y-1.1703
Y-1.1781
Y-1.186
Y-1.1939
Y-1.2018
Y-1.2096
Y-1.2175
Y-1.2254
Y-1.2333
Y-1.2411
Y-1.249
Y-1.2569
Y-1.2648
Y-1.2726
Y-1.2805
Y-1.2884
Y-1.2963
Y-1.3041
Y-1.312
Y-1.3199
Y-1.3277
Y-1.3356
Y-1.3435
Y-1.3514
Y-1.3592
Y-1.3671
Y-1.375
Y-1.3829
Y-1.3907
Y-1.3986
Y-1.4065
Y-1.4144
Y-1.4222
Y-1.4301
Y-1.438
Y-1.4459
Y-1.4537
Y-1.4616
Y-1.4695
Y-1.4774
Y-1.4852
Y-1.4931
Y-1.501
Y-1.5088
Y-1.5167
Y-1.5246
Y-1.5325
Y-1.5403
Y-1.5482
Y-1.5561
Y-1.564
Y-1.5718
Y-1.5797
Y-1.5876
Y-1.5955
Y-1.6033
Y-1.6112
Y-1.6191
Y-1.627
Y-1.6348
Y-1.6427
Y-1.6506
Y-1.6585
Y-1.6663
Y-1.6742
Y-1.6821
Y-1.69
Y-1.6978
Y-1.7057
Y-1.7136
Y-1.7214
Y-1.7293
Y-1.7372
Y-1.7451
Y-1.7529
Y-1.7608
Y-1.7687
Y-1.7766
Y-1.7844
Y-1.7923
Y-1.8002
Y-1.8081
Y-1.8159
Y-1.8238
Y-1.8317
Y-1.8396
Y-1.8474
Y-1.8553
Y-1.8632
Y-1.8711
Y-1.8789
Y-1.8868
Y-1.8947
Y-1.9026
Y-1.9104
Y-1.9183
Y-1.9262
Y-1.934
Y-1.9419
Y-1.9498
Y-1.9577
Y-1.9655
Y-1.9734
Y-1.9813
Y-1.9892
Y-1.997
Y-2.0049
Y-2.0128
Y-2.0207
Y-2.0285
Y-2.0364
Y-2.0443
Y-2.0522
Y-2.06
Y-2.0679
Y-2.0758
Y-2.0837
Y-2.0915
Y-2.0994
Y-2.1073
Y-2.1151
Y-2.123
Y-2.1309
Y-2.1388
Y-2.1466
Y-2.1545
Y-2.1624
Y-2.1703
Y-2.1781
Y-2.186
Y-2.1875
X-0.1877Y-2.1934
X-0.1886Y-2.1992
X-0.19Y-2.205
X-0.1919Y-2.2105
X-0.1943Y-2.2159
X-0.1973Y-2.2211
X-0.2007Y-2.2259
X-0.2034Y-2.2291
X-0.2039Y-2.2297
X-0.2045Y-2.2304
X-0.2046
X-0.2059Y-2.2317
X-0.2075Y-2.2333
X-0.2083Y-2.234
X-0.2091Y-2.2348
X-0.2104Y-2.2358
X-0.2119Y-2.2371
X-0.2131Y-2.2379
X-0.2141Y-2.2387
X-0.2153Y-2.2394
X-0.2167Y-2.2404
X-0.2182Y-2.2412
X-0.2194Y-2.242
X-0.2206Y-2.2426
X-0.2218Y-2.2433
X-0.2236Y-2.2441
X-0.2251Y-2.2448
X-0.2261Y-2.2452
X-0.2271Y-2.2457
X-0.2293Y-2.2464
X-0.231Y-2.247
X-0.2318Y-2.2472
X-0.2327Y-2.2475
X-0.2352Y-2.2481
X-0.2371Y-2.2486
X-0.2377Y-2.2487
X-0.2384Y-2.2489
X-0.2414Y-2.2493
X-0.2433Y-2.2496
X-0.2437Y-2.2497
X-0.2442
X-0.2479Y-2.2499
X-0.2496Y-2.25
X-0.2498
X-0.25
X-0.2579
X-0.2657
X-0.2736
X-0.2815
X-0.2894
X-0.2972
X-0.3051
X-0.313
X-0.3209
X-0.3287
X-0.3366
X-0.3445
X-0.3524
X-0.3602
X-0.3681
X-0.376
X-0.3838
X-0.3917
X-0.3996
X-0.4075
X-0.4153
X-0.4232
X-0.4311
X-0.439
X-0.4468
X-0.4547
X-0.4626
X-0.4705
X-0.4783
X-0.4862
X-0.4941
X-0.502
X-0.5098
X-0.5177
X-0.5256
X-0.5335
X-0.5413
X-0.5492
X-0.5571
X-0.565
X-0.5728
X-0.5807
X-0.5886
X-0.5964
X-0.6043
X-0.6122
X-0.6201
X-0.6279
X-0.6358
X-0.6437
X-0.6516
X-0.6594
X-0.6673
X-0.6752
X-0.6831
X-0.6909
X-0.6988
X-0.7067
X-0.7146
X-0.7224
X-0.7303
X-0.7382
X-0.7461
X-0.7539
X-0.7618
X-0.7697
X-0.7775
X-0.7854
X-0.7933
X-0.8012
X-0.809
X-0.8169
X-0.8248
X-0.8327
X-0.8405
X-0.8484
X-0.8563
X-0.8642
X-0.872
X-0.875
X-0.8811Y-2.2497
X-0.8872Y-2.2488
X-0.8931Y-2.2473
X-0.8989Y-2.2452
X-0.9045Y-2.2426
X-0.9097Y-2.2395
X-0.9147Y-2.2358
X-0.9192Y-2.2317
Y-2.2316
X-0.9234Y-2.2271
X-0.927Y-2.2222
X-0.9302Y-2.2169
X-0.9328Y-2.2114
X-0.9349Y-2.2056
X-0.9363Y-2.1996
X-0.9372Y-2.1936
X-0.9375Y-2.1875
Y-2.1796
Y-2.1717
Y-2.1638
Y-2.156
Y-2.1481
Y-2.1402
Y-2.1323
Y-2.1245
Y-2.1166
Y-2.1087
Y-2.1008
Y-2.093
Y-2.0851
Y-2.0772
Y-2.0693
Y-2.0615
Y-2.0536
Y-2.0457
Y-2.0378
Y-2.03
Y-2.0221
Y-2.0142
Y-2.0063
Y-1.9985
Y-1.9906
Y-1.9827
Y-1.9749
Y-1.967
Y-1.9591
Y-1.9512
Y-1.9434
Y-1.9355
Y-1.9276
Y-1.9197
Y-1.9119
Y-1.904
Y-1.8961
Y-1.8882
Y-1.8804
Y-1.8725
Y-1.8646
Y-1.8567
Y-1.8489
Y-1.841
Y-1.8331
Y-1.8252
Y-1.8174
Y-1.8095
Y-1.8016
Y-1.7937
Y-1.7859
Y-1.778
Y-1.7701
Y-1.7623
Y-1.7544
Y-1.7465
Y-1.7386
Y-1.7308
Y-1.7229
Y-1.715
Y-1.7071
Y-1.6993
Y-1.6914
Y-1.6835
Y-1.6756
Y-1.6678
Y-1.6599
Y-1.652
Y-1.6441
Y-1.6363
Y-1.6284
Y-1.6205
Y-1.6126
Y-1.6048
Y-1.5969
Y-1.589
Y-1.5812
Y-1.5733
Y-1.5654
Y-1.5575
Y-1.5497
Y-1.5418
Y-1.5339
Y-1.526
Y-1.5182
Y-1.5103
Y-1.5024
Y-1.4945
Y-1.4867
Y-1.4788
Y-1.4709
Y-1.463
Y-1.4552
Y-1.4473
Y-1.4394
Y-1.4315
Y-1.4237
Y-1.4158
Y-1.4079
Y-1.4
Y-1.3922
Y-1.3843
Y-1.3764
Y-1.3686
Y-1.3607
Y-1.3528
Y-1.3449
Y-1.3371
Y-1.3292
Y-1.3213
Y-1.3134
Y-1.3056
Y-1.2977
Y-1.2898
Y-1.2819
Y-1.2741
Y-1.2662
Y-1.2583
Y-1.2504
Y-1.2426
Y-1.2347
Y-1.2268
Y-1.2189
Y-1.2111
Y-1.2032
Y-1.1953
Y-1.1875
Y-1.1796
Y-1.1717
Y-1.1638
Y-1.156
Y-1.1481
Y-1.1402
Y-1.1323
Y-1.1245
Y-1.1166
Y-1.1087
Y-1.1008
Y-1.093
Y-1.0851
Y-1.0772
Y-1.0693
Y-1.0615
Y-1.0536
Y-1.0457
Y-1.0378
Y-1.03
Y-1.0221
Y-1.0142
Y-1.0063
Y-0.9985
Y-0.9906
Y-0.9827
Y-0.9749
Y-0.967
Y-0.9591
Y-0.9512
Y-0.9434
Y-0.9355
Y-0.9276
Y-0.9197
Y-0.9119
Y-0.904
Y-0.8961
Y-0.8882
Y-0.8804
Y-0.8725
Y-0.8646
Y-0.8567
Y-0.8489
Y-0.841
Y-0.8331
Y-0.8252
Y-0.8174
Y-0.8095
Y-0.8016
Y-0.7937
Y-0.7859
Y-0.778
Y-0.7701
Y-0.7623
Y-0.7544
Y-0.7465
Y-0.7386
Y-0.7308
Y-0.7229
Y-0.715
Y-0.7071
Y-0.6993
Y-0.6914
Y-0.6835
Y-0.6756
Y-0.6678
Y-0.6599
Y-0.652
Y-0.6441
Y-0.6363
Y-0.6284
Y-0.6205
Y-0.6126
Y-0.6048
Y-0.5969
Y-0.589
Y-0.5812
Y-0.5733
Y-0.5654
Y-0.5575
Y-0.5497
Y-0.5418
Y-0.5339
Y-0.526
Y-0.5182
Y-0.5103
Y-0.5024
Y-0.4945
Y-0.4867
Y-0.4788
Y-0.4709
Y-0.463
Y-0.4552
Y-0.4473
Y-0.4394
Y-0.4315
Y-0.4237
Y-0.4158
Y-0.4079
Y-0.4
Y-0.3922
Y-0.3843
Y-0.3764
Y-0.3686
Y-0.3607
Y-0.3528
Y-0.3449
Y-0.3371
Y-0.3292
Y-0.3213
Y-0.3134
Y-0.3056
Y-0.2977
Y-0.2898
Y-0.2819
Y-0.2741
Y-0.2662
Y-0.2583
Y-0.2504
Y-0.2426
Y-0.2347
Y-0.2268
Y-0.2189
Y-0.2111
Y-0.2032
Y-0.1953
Y-0.1875
Y-0.1796
Y-0.1717
Y-0.1638
Y-0.156
Y-0.1481
Y-0.1402
Y-0.1323
Y-0.1245
Y-0.1166
Y-0.1087
Y-0.1008
Y-0.093
Y-0.0851
Y-0.0772
Y-0.0693
Y-0.0615
Y-0.0536
Y-0.0457
Y-0.0378
Y-0.03
Y-0.0221
Y-0.0142
Y-0.0063
Y0.0014
Y0.0093
Y0.0172
Y0.025
Y0.0329
Y0.0408
Y0.0487
Y0.0565
Y0.0644
Y0.0723
Y0.0802
Y0.088
Y0.0959
Y0.1038
Y0.1117
Y0.1195
Y0.1274
Y0.1353
Y0.1432
Y0.151
Y0.1589
Y0.1668
Y0.1747
Y0.1825
Y0.1904
Y0.1983
Y0.2062
Y0.214
Y0.2219
Y0.2298
Y0.2376
Y0.2455
Y0.2534
Y0.2613
Y0.2691
Y0.277
Y0.2849
Y0.2928
Y0.3006
Y0.3085
Y0.3164
Y0.3243
Y0.3321
Y0.34
Y0.3479
Y0.3558
Y0.3636
Y0.3715
Y0.3794
Y0.3873
Y0.3951
Y0.403
Y0.4109
Y0.4187
Y0.4266
Y0.4345
Y0.4424
Y0.4502
Y0.4581
Y0.466
Y0.4739
Y0.4817
Y0.4896
Y0.4975
Y0.5054
Y0.5132
Y0.5211
Y0.529
Y0.5369
Y0.5447
Y0.5526
Y0.5605
Y0.5684
Y0.5762
Y0.5841
Y0.592
Y0.5999
Y0.6077
Y0.6156
Y0.6235
Y0.6313
Y0.6392
Y0.6471
Y0.655
Y0.6628
Y0.6707
Y0.6786
Y0.6865
Y0.6943
Y0.7022
Y0.7101
Y0.718
Y0.7258
Y0.7337
Y0.7416
Y0.7495
Y0.7573
Y0.7652
Y0.7731
Y0.781
Y0.7888
Y0.7967
Y0.8046
Y0.8125
Y0.8203
Y0.8282
Y0.8361
Y0.8439
Y0.8518
Y0.8597
Y0.8676
Y0.8754
Y0.8833
Y0.8912
Y0.8991
Y0.9069
Y0.9148
Y0.9227
Y0.9306
Y0.9384
Y0.9463
Y0.9542
Y0.9621
Y0.9699
Y0.9778
Y0.9857
Y0.9936
Y1.0014
Y1.0093
Y1.0172
Y1.025
Y1.0329
Y1.0408
Y1.0487
Y1.0565
Y1.0644
Y1.0723
Y1.0802
Y1.088
Y1.0959
Y1.1038
Y1.1117
Y1.1195
Y1.1274
Y1.1353
Y1.1432
Y1.151
Y1.1589
Y1.1668
Y1.1747
Y1.1825
Y1.1904
Y1.1983
Y1.2062
Y1.214
Y1.2219
Y1.2298
Y1.2376
Y1.2455
Y1.2534
Y1.2613
Y1.2691
Y1.277
Y1.2849
Y1.2928
Y1.3006
Y1.3085
Y1.3164
Y1.3243
Y1.3321
Y1.34
Y1.3479
Y1.3558
Y1.3636
Y1.3715
Y1.3794
Y1.3873
Y1.3951
Y1.403
Y1.4109
Y1.4187
Y1.4266
Y1.4345
Y1.4424
Y1.4502
Y1.4581
Y1.466
Y1.4739
Y1.4817
Y1.4896
Y1.4975
Y1.5054
Y1.5132
Y1.5211
Y1.529
Y1.5369
Y1.5447
Y1.5526
Y1.5605
Y1.5684
Y1.5762
Y1.5841
Y1.592
Y1.5999
Y1.6077
Y1.6156
Y1.6235
Y1.6313
Y1.6392
Y1.6471
Y1.655
Y1.6628
Y1.6707
Y1.6786
Y1.6865
Y1.6943
Y1.7022
Y1.7101
Y1.718
Y1.7258
Y1.7337
Y1.7416
Y1.7495
Y1.7573
Y1.7652
Y1.7731
Y1.781
Y1.7888
Y1.7967
Y1.8046
Y1.8125
Y1.8203
Y1.8282
Y1.8361
Y1.8439
Y1.8518
Y1.8597
Y1.8676
Y1.8754
Y1.8833
Y1.8912
Y1.8991
Y1.9069
Y1.9148
Y1.9227
Y1.9306
Y1.9384
Y1.9463
Y1.9542
Y1.9621
Y1.9699
Y1.9778
Y1.9857
Y1.9936
Y2.0014
Y2.0093
Y2.0172
Y2.025
Y2.0329
Y2.0408
Y2.0487
Y2.0565
Y2.0644
Y2.0723
Y2.0802
Y2.088
Y2.0959
Y2.1038
Y2.1117
Y2.1195
Y2.1274
Y2.1353
Y2.1432
Y2.151
Y2.1589
Y2.1668
Y2.1747
Y2.1825
Y2.1904
Y2.1983
Y2.2062
Y2.214
Y2.2219
Y2.2298
Y2.2376
Y2.2455
Y2.2534
Y2.2613
Y2.2691
Y2.277
Y2.2849
Y2.2928
Y2.3006
Y2.3085
Y2.3164
Y2.3243
Y2.3321
Y2.34
Y2.3479
Y2.3558
Y2.3636
Y2.3715
Y2.3794
Y2.3873
Y2.3951
Y2.403
Y2.4109
Y2.4187
Y2.4266
Y2.4345
Y2.4424
Y2.4502
Y2.4581
Y2.466
Y2.4739
Y2.4817
Y2.4896
Y2.4975
Y2.5054
Y2.5132
Y2.5211
Y2.529
Y2.5369
Y2.5447
Y2.5526
Y2.5605
Y2.5684
Y2.5762
Y2.5841
Y2.592
Y2.5999
Y2.6077
Y2.6156
Y2.6235
Y2.6313
Y2.6392
Y2.6471
Y2.655
Y2.6628
Y2.6707
Y2.6786
Y2.6865
Y2.6943
Y2.7022
Y2.7101
Y2.718
Y2.7258
Y2.7337
Y2.7416
Y2.7495
Y2.7573
Y2.7652
Y2.7731
Y2.781
Y2.7888
Y2.7967
Y2.8046
Y2.8125
Y2.8203
Y2.8282
Y2.8361
Y2.8439
Y2.8518
Y2.8597
Y2.8676
Y2.8754
Y2.8833
Y2.8912
Y2.8991
Y2.9069
Y2.9148
Y2.9227
Y2.9306
Y2.9384
Y2.9463
Y2.9542
Y2.9621
Y2.9699
Y2.9778
Y2.9857
Y2.9936
Y3.0014
Y3.0093
Y3.0172
Y3.025
Y3.0329
Y3.0408
Y3.0487
Y3.0565
Y3.0644
Y3.0723
Y3.0802
Y3.088
Y3.0959
Y3.1038
Y3.1117
Y3.1195
Y3.1274
Y3.1353
Y3.1432
Y3.151
Y3.1589
Y3.1668
Y3.1747
Y3.1825
Y3.1904
Y3.1983
Y3.2062
Y3.214
Y3.2219
Y3.2298
Y3.2376
Y3.2455
Y3.2534
Y3.2613
Y3.2691
Y3.277
Y3.2849
Y3.2928
Y3.3006
Y3.3085
Y3.3124
X-0.9374Y3.3163
X-0.9369Y3.3216
X-0.9359Y3.3269
X-0.9344Y3.3321
X-0.9321Y3.3379
X-0.9293Y3.3434
X-0.926Y3.3487
X-0.9221Y3.3536
X-0.9177Y3.3581
X-0.913Y3.3621
X-0.9078Y3.3657
X-0.9024Y3.3687
X-0.8966Y3.3711
X-0.8907Y3.373
X-0.8838Y3.3744
X-0.8768Y3.375
X-0.875
X-0.8671
X-0.8593
X-0.8514
X-0.8435
X-0.8356
X-0.8278
X-0.8199
X-0.812
X-0.8041
X-0.7963
X-0.7884
X-0.7805
X-0.7726
X-0.7648
X-0.7569
X-0.749
X-0.7411
X-0.7333
X-0.7254
X-0.7175
X-0.7096
X-0.7018
X-0.6939
X-0.686
X-0.6782
X-0.6703
X-0.6624
X-0.6545
X-0.6467
X-0.6388
X-0.6309
X-0.623
X-0.6152
X-0.6073
X-0.5994
X-0.5915
X-0.5837
X-0.5758
X-0.5679
X-0.56
X-0.5522
X-0.5443
X-0.5364
X-0.5285
X-0.5207
X-0.5128
X-0.5049
X-0.4971
X-0.4892
X-0.4813
X-0.4734
X-0.4656
X-0.4577
X-0.4498
X-0.4419
X-0.4341
X-0.4262
X-0.4183
X-0.4104
X-0.4026
X-0.3947
X-0.3868
X-0.3789
X-0.3711
X-0.3632
X-0.3553
X-0.3474
X-0.3396
X-0.3317
X-0.3238
X-0.3159
X-0.3081
X-0.3002
X-0.2923
X-0.2845
X-0.2766
X-0.2687
X-0.2608
X-0.253
X-0.2451
X-0.2372
X-0.2293
X-0.2215
X-0.2136
X-0.2057
X-0.1978
X-0.19
X-0.1821
X-0.1742
X-0.1663
X-0.1585
X-0.1506
X-0.1427
X-0.1348
X-0.127
X-0.1191
X-0.1112
X-0.1033
X-0.0955
X-0.0876
X-0.0797
X-0.0719
X-0.064
X-0.0561
X-0.0482
X-0.0404
X-0.0325
X-0.0246
X-0.0167
X-0.0089
X-0.001
X0.0068
X0.0147
X0.0225
X0.0304
X0.0383
X0.0462
X0.054
X0.0619
X0.0698
X0.0777
X0.0855
X0.0934
X0.1013
X0.1091
X0.117
X0.1249
X0.1328
X0.1406
X0.1485
X0.1564
X0.1643
X0.1721
X0.18
X0.1879
X0.1958
X0.2036
X0.2115
X0.2194
X0.2273
X0.2351
X0.243
X0.2509
X0.2588
X0.2666
X0.2745
X0.2824
X0.2903
X0.2981
X0.306
X0.3139
X0.3217
X0.3296
X0.3375
X0.3454
X0.3532
X0.3611
X0.369
X0.3769
X0.3847
X0.3926
X0.4005
X0.4084
X0.4162
X0.4241
X0.432
X0.4399
X0.4477
X0.4556
X0.4635
X0.4714
X0.4792
X0.4871
X0.495
X0.5029
X0.5107
X0.5186
X0.5265
X0.5343
X0.5422
X0.5501
X0.558
X0.5658
X0.5737
X0.5816
X0.5895
X0.5973
X0.6052
X0.6131
X0.621
X0.6288
X0.6367
X0.6446
X0.6525
X0.6603
X0.6682
X0.6761
X0.684
X0.6918
X0.6997
X0.7076
X0.7154
X0.7233
X0.7312
X0.7391
X0.7469
X0.7548
X0.7627
X0.7706
X0.7784
X0.7863
X0.7942
X0.8021
X0.8099
X0.8178
X0.8257
X0.8336
X0.8414
X0.8493
X0.8572
X0.8651
X0.8729
X0.8808
X0.8887
X0.8966
X0.9044
X0.9123
X0.9202
X0.928
X0.9359
X0.9438
X0.9517
X0.9595
X0.9674
X0.9753
X0.9832
X0.991
X0.9989
X1.0068
X1.0147
X1.0225
X1.0304
X1.0383
X1.0462
X1.054
X1.0619
X1.0698
X1.0777
X1.0855
X1.0934
X1.1013
X1.1091
X1.117
X1.1249
X1.1328
X1.1406
X1.1485
X1.1564
X1.1643
X1.1721
X1.18
X1.1879
X1.1958
X1.2036
X1.2115
X1.2194
X1.2273
X1.2351
X1.243
X1.2509
X1.2588
X1.2666
X1.2745
X1.2824
X1.2903
X1.2981
X1.306
X1.3139
X1.3217
X1.3296
X1.3375
X1.3454
X1.3532
X1.3611
X1.369
X1.3769
X1.3847
X1.3926
X1.4005
X1.4084
X1.4162
X1.4241
X1.432
X1.4399
X1.4477
X1.4556
X1.4635
X1.4714
X1.4792
X1.4871
X1.495
X1.5029
X1.5107
X1.5186
X1.5265
X1.5343
X1.5422
X1.5501
X1.558
X1.5658
X1.5737
X1.5816
X1.5895
X1.5973
X1.6052
X1.6131
X1.621
X1.6249
X1.631Y3.3747
X1.6371Y3.3738
X1.6431Y3.3723
X1.6488Y3.3702
X1.6544Y3.3676
X1.6596Y3.3645
X1.6646Y3.3608
X1.6691Y3.3567
Y3.3566
X1.6733Y3.3521
X1.6769Y3.3472
X1.6801Y3.3419
X1.6827Y3.3364
X1.6848Y3.3306
X1.6863Y3.3246
X1.6872Y3.3186
X1.6875Y3.3124
Y3.3046
Y3.2967
Y3.2888
Y3.281
Y3.2731
Y3.2652
Y3.2573
Y3.2495
Y3.2416
Y3.2337
Y3.2258
Y3.218
Y3.2101
Y3.2022
Y3.1943
Y3.1865
Y3.1786
Y3.1707
Y3.1628
Y3.155
Y3.1471
Y3.1392
Y3.1313
Y3.1235
Y3.1156
Y3.1077
Y3.0998
Y3.092
Y3.0841
Y3.0762
Y3.0684
Y3.0605
Y3.0526
Y3.0447
Y3.0369
Y3.029
Y3.0211
Y3.0132
Y3.0054
Y2.9975
Y2.9896
Y2.9817
Y2.9739
Y2.966
Y2.9581
Y2.9502
Y2.9424
Y2.9345
Y2.9266
Y2.9187
Y2.9109
Y2.903
Y2.8951
Y2.8873
Y2.8794
Y2.8715
Y2.8636
Y2.8558
Y2.8479
Y2.84
Y2.8321
Y2.8243
Y2.8164
Y2.8085
Y2.8006
Y2.7928
Y2.7849
Y2.777
Y2.7691
Y2.7613
Y2.7534
Y2.7455
Y2.7376
Y2.7298
Y2.7219
Y2.714
Y2.7061
Y2.6983
Y2.6904
Y2.6874
X1.6873Y2.6836
X1.6867Y2.6775
X1.6854Y2.6715
X1.6835Y2.6657
X1.6811Y2.66
X1.6782Y2.6547
X1.6747Y2.6496
X1.6707Y2.6449
X1.6664Y2.6406
X1.6663
X1.6613Y2.6366
X1.6558Y2.6331
X1.65Y2.6302
X1.644Y2.6279
X1.6378Y2.6262
X1.6314Y2.6252
X1.6249Y2.6249
G0Z0.3937
X0.5441Y3.7682
G1Z-0.125F19.68
X0.5395Y3.7641F39.37
X0.5346Y3.7604
X0.5294Y3.7573
X0.5238Y3.7547
X0.518Y3.7526
X0.5121Y3.7511
X0.506Y3.7502
X0.4999Y3.7499
X0.492
X0.4841
X0.4763
X0.4684
X0.4605
X0.4527
X0.4448
X0.4369
X0.429
X0.4212
X0.4133
X0.4054
X0.3975
X0.3897
X0.3818
X0.3739
X0.366
X0.3582
X0.3503
X0.3424
X0.3345
X0.3267
X0.3188
X0.3109
X0.303
X0.2952
X0.2873
X0.2794
X0.2716
X0.2637
X0.2558
X0.2479
X0.2401
X0.2322
X0.2243
X0.2164
X0.2086
X0.2007
X0.1928
X0.1849
X0.1771
X0.1692
X0.1613
X0.1534
X0.1456
X0.1377
X0.1298
X0.1219
X0.1141
X0.1062
X0.0983
X0.0904
X0.0826
X0.0747
X0.0668
X0.059
X0.0511
X0.0432
X0.0353
X0.0275
X0.0196
X0.0117
X0.0038
X-0.0039
X-0.0118
X-0.0197
X-0.0276
X-0.0354
X-0.0433
X-0.0512
X-0.0591
X-0.0669
X-0.0748
X-0.0827
X-0.0906
X-0.0984
X-0.1063
X-0.1142
X-0.1221
X-0.1299
X-0.1378
X-0.1457
X-0.1535
X-0.1614
X-0.1693
X-0.1772
X-0.185
X-0.1929
X-0.2008
X-0.2087
X-0.2165
X-0.2244
X-0.2323
X-0.2402
X-0.248
X-0.2559
X-0.2638
X-0.2717
X-0.2795
X-0.2874
X-0.2953
X-0.3032
X-0.311
X-0.3189
X-0.3268
X-0.3346
X-0.3425
X-0.3504
X-0.3583
X-0.3661
X-0.374
X-0.3819
X-0.3898
X-0.3976
X-0.4055
X-0.4134
X-0.4213
X-0.4291
X-0.437
X-0.4449
X-0.4528
X-0.4606
X-0.4685
X-0.4764
X-0.4843
X-0.4921
X-0.5
X-0.5079
X-0.5158
X-0.5236
X-0.5315
X-0.5394
X-0.5472
X-0.5551
X-0.563
X-0.5709
X-0.5787
X-0.5866
X-0.5945
X-0.6024
X-0.6102
X-0.6181
X-0.626
X-0.6339
X-0.6417
X-0.6496
X-0.6575
X-0.6654
X-0.6732
X-0.6811
X-0.689
X-0.6969
X-0.7047
X-0.7126
X-0.7205
X-0.7284
X-0.7362
X-0.7441
X-0.752
X-0.7598
X-0.7677
X-0.7756
X-0.7835
X-0.7913
X-0.7992
X-0.8071
X-0.815
X-0.8228
X-0.8307
X-0.8386
X-0.8465
X-0.8543
X-0.8622
X-0.8701
X-0.878
X-0.8858
X-0.8937
X-0.9016
X-0.9095
X-0.9173
X-0.9252
X-0.9331
X-0.9409
X-0.9488
X-0.9567
X-0.9646
X-0.9724
X-0.9803
X-0.9882
X-0.9961
X-1.0039
X-1.0118
X-1.0197
X-1.0276
X-1.0354
X-1.0433
X-1.0512
X-1.0591
X-1.0669
X-1.0748
X-1.0827
X-1.0906
X-1.0984
X-1.1063
X-1.1142
X-1.1221
X-1.1299
X-1.1378
X-1.1457
X-1.1535
X-1.1614
X-1.1693
X-1.1772
X-1.185
X-1.1929
X-1.2008
X-1.2087
X-1.2165
X-1.2244
X-1.2323
X-1.2402
X-1.248
X-1.2559
X-1.2638
X-1.2717
X-1.2795
X-1.2874
X-1.2953
X-1.3032
X-1.311
X-1.3124
Y3.742
Y3.7342
Y3.7263
Y3.7184
Y3.7105
Y3.7027
Y3.6948
Y3.6869
Y3.679
Y3.6712
Y3.6633
Y3.6554
Y3.6475
Y3.6397
Y3.6318
Y3.6239
Y3.616
Y3.6082
Y3.6003
Y3.5924
Y3.5846
Y3.5767
Y3.5688
Y3.5609
Y3.5531
Y3.5452
Y3.5373
Y3.5294
Y3.5216
Y3.5137
Y3.5058
Y3.4979
Y3.4901
Y3.4822
Y3.4743
Y3.4664
Y3.4586
Y3.4507
Y3.4428
Y3.4349
Y3.4271
Y3.4192
Y3.4113
Y3.4035
Y3.3956
Y3.3877
Y3.3798
Y3.372
Y3.3641
Y3.3562
Y3.3483
Y3.3405
Y3.3326
Y3.3247
Y3.3168
Y3.309
Y3.3011
Y3.2932
Y3.2853
Y3.2775
Y3.2696
Y3.2617
Y3.2538
Y3.246
Y3.2381
Y3.2302
Y3.2223
Y3.2145
Y3.2066
Y3.1987
Y3.1909
Y3.183
Y3.1751
Y3.1672
Y3.1594
Y3.1515
Y3.1436
Y3.1357
Y3.1279
Y3.12
Y3.1121
Y3.1042
Y3.0964
Y3.0885
Y3.0806
Y3.0727
Y3.0649
Y3.057
Y3.0491
Y3.0412
Y3.0334
Y3.0255
Y3.0176
Y3.0097
Y3.0019
Y2.994
Y2.9861
Y2.9783
Y2.9704
Y2.9625
Y2.9546
Y2.9468
Y2.9389
Y2.931
Y2.9231
Y2.9153
Y2.9074
Y2.8995
Y2.8916
Y2.8838
Y2.8759
Y2.868
Y2.8601
Y2.8523
Y2.8444
Y2.8365
Y2.8286
Y2.8208
Y2.8129
Y2.805
Y2.7972
Y2.7893
Y2.7814
Y2.7735
Y2.7657
Y2.7578
Y2.7499
Y2.742
Y2.7342
Y2.7263
Y2.7184
Y2.7105
Y2.7027
Y2.6948
Y2.6869
Y2.679
Y2.6712
Y2.6633
Y2.6554
Y2.6475
Y2.6397
Y2.6318
Y2.6239
Y2.616
Y2.6082
Y2.6003
Y2.5924
Y2.5846
Y2.5767
Y2.5688
Y2.5609
Y2.5531
Y2.5452
Y2.5373
Y2.5294
Y2.5216
Y2.5137
Y2.5058
Y2.4979
Y2.4901
Y2.4822
Y2.4743
Y2.4664
Y2.4586
Y2.4507
Y2.4428
Y2.4349
Y2.4271
Y2.4192
Y2.4113
Y2.4035
Y2.3956
Y2.3877
Y2.3798
Y2.372
Y2.3641
Y2.3562
Y2.3483
Y2.3405
Y2.3326
Y2.3247
Y2.3168
Y2.309
Y2.3011
Y2.2932
Y2.2853
Y2.2775
Y2.2696
Y2.2617
Y2.2538
Y2.246
Y2.2381
Y2.2302
Y2.2223
Y2.2145
Y2.2066
Y2.1987
Y2.1909
Y2.183
Y2.1751
Y2.1672
Y2.1594
Y2.1515
Y2.1436
Y2.1357
Y2.1279
Y2.12
Y2.1121
Y2.1042
Y2.0964
Y2.0885
Y2.0806
Y2.0727
Y2.0649
Y2.057
Y2.0491
Y2.0412
Y2.0334
Y2.0255
Y2.0176
Y2.0097
Y2.0019
Y1.994
Y1.9861
Y1.9783
Y1.9704
Y1.9625
Y1.9546
Y1.9468
Y1.9389
Y1.931
Y1.9231
Y1.9153
Y1.9074
Y1.8995
Y1.8916
Y1.8838
Y1.8759
Y1.868
Y1.8601
Y1.8523
Y1.8444
Y1.8365
Y1.8286
Y1.8208
Y1.8129
Y1.805
Y1.7972
Y1.7893
Y1.7814
Y1.7735
Y1.7657
Y1.7578
Y1.7499
Y1.742
Y1.7342
Y1.7263
Y1.7184
Y1.7105
Y1.7027
Y1.6948
Y1.6869
Y1.679
Y1.6712
Y1.6633
Y1.6554
Y1.6475
Y1.6397
Y1.6318
Y1.6239
Y1.616
Y1.6082
Y1.6003
Y1.5924
Y1.5846
Y1.5767
Y1.5688
Y1.5609
Y1.5531
Y1.5452
Y1.5373
Y1.5294
Y1.5216
Y1.5137
Y1.5058
Y1.4979
Y1.4901
Y1.4822
Y1.4743
Y1.4664
Y1.4586
Y1.4507
Y1.4428
Y1.4349
Y1.4271
Y1.4192
Y1.4113
Y1.4035
Y1.3956
Y1.3877
Y1.3798
Y1.372
Y1.3641
Y1.3562
Y1.3483
Y1.3405
Y1.3326
Y1.3247
Y1.3168
Y1.309
Y1.3011
Y1.2932
Y1.2853
Y1.2775
Y1.2696
Y1.2617
Y1.2538
Y1.246
Y1.2381
Y1.2302
Y1.2223
Y1.2145
Y1.2066
Y1.1987
Y1.1909
Y1.183
Y1.1751
Y1.1672
Y1.1594
Y1.1515
Y1.1436
Y1.1357
Y1.1279
Y1.12
Y1.1121
Y1.1042
Y1.0964
Y1.0885
Y1.0806
Y1.0727
Y1.0649
Y1.057
Y1.0491
Y1.0412
Y1.0334
Y1.0255
Y1.0176
Y1.0097
Y1.0019
Y0.994
Y0.9861
Y0.9783
Y0.9704
Y0.9625
Y0.9546
Y0.9468
Y0.9389
Y0.931
Y0.9231
Y0.9153
Y0.9074
Y0.8995
Y0.8916
Y0.8838
Y0.8759
Y0.868
Y0.8601
Y0.8523
Y0.8444
Y0.8365
Y0.8286
Y0.8208
Y0.8129
Y0.805
Y0.7972
Y0.7893
Y0.7814
Y0.7735
Y0.7657
Y0.7578
Y0.7499
Y0.742
Y0.7342
Y0.7263
Y0.7184
Y0.7105
Y0.7027
Y0.6948
Y0.6869
Y0.679
Y0.6712
Y0.6633
Y0.6554
Y0.6475
Y0.6397
Y0.6318
Y0.6239
Y0.616
Y0.6082
Y0.6003
Y0.5924
Y0.5846
Y0.5767
Y0.5688
Y0.5609
Y0.5531
Y0.5452
Y0.5373
Y0.5294
Y0.5216
Y0.5137
Y0.5058
Y0.4979
Y0.4901
Y0.4822
Y0.4743
Y0.4664
Y0.4586
Y0.4507
Y0.4428
Y0.4349
Y0.4271
Y0.4192
Y0.4113
Y0.4035
Y0.3956
Y0.3877
Y0.3798
Y0.372
Y0.3641
Y0.3562
Y0.3483
Y0.3405
Y0.3326
Y0.3247
Y0.3168
Y0.309
Y0.3011
Y0.2932
Y0.2853
Y0.2775
Y0.2696
Y0.2617
Y0.2538
Y0.246
Y0.2381
Y0.2302
Y0.2223
Y0.2145
Y0.2066
Y0.1987
Y0.1909
Y0.183
Y0.1751
Y0.1672
Y0.1594
Y0.1515
Y0.1436
Y0.1357
Y0.1279
Y0.12
Y0.1121
Y0.1042
Y0.0964
Y0.0885
Y0.0806
Y0.0727
Y0.0649
Y0.057
Y0.0491
Y0.0412
Y0.0334
Y0.0255
Y0.0176
Y0.0098
Y0.0019
Y-0.0059
Y-0.0138
Y-0.0216
Y-0.0295
Y-0.0374
Y-0.0453
Y-0.0531
Y-0.061
Y-0.0689
Y-0.0768
Y-0.0846
Y-0.0925
Y-0.1004
Y-0.1083
Y-0.1161
Y-0.124
Y-0.1319
Y-0.1398
Y-0.1476
Y-0.1555
Y-0.1634
Y-0.1713
Y-0.1791
Y-0.187
Y-0.1949
Y-0.2027
Y-0.2106
Y-0.2185
Y-0.2264
Y-0.2342
Y-0.2421
Y-0.25
Y-0.2579
Y-0.2657
Y-0.2736
Y-0.2815
Y-0.2894
Y-0.2972
Y-0.3051
Y-0.313
Y-0.3209
Y-0.3287
Y-0.3366
Y-0.3445
Y-0.3524
Y-0.3602
Y-0.3681
Y-0.376
Y-0.3839
Y-0.3917
Y-0.3996
Y-0.4075
Y-0.4153
Y-0.4232
Y-0.4311
Y-0.439
Y-0.4468
Y-0.4547
Y-0.4626
Y-0.4705
Y-0.4783
Y-0.4862
Y-0.4941
Y-0.502
Y-0.5098
Y-0.5177
Y-0.5256
Y-0.5335
Y-0.5413
Y-0.5492
Y-0.5571
Y-0.565
Y-0.5728
Y-0.5807
Y-0.5886
Y-0.5965
Y-0.6043
Y-0.6122
Y-0.6201
Y-0.6279
Y-0.6358
Y-0.6437
Y-0.6516
Y-0.6594
Y-0.6673
Y-0.6752
Y-0.6831
Y-0.6909
Y-0.6988
Y-0.7067
Y-0.7146
Y-0.7224
Y-0.7303
Y-0.7382
Y-0.7461
Y-0.7539
Y-0.7618
Y-0.7697
Y-0.7776
Y-0.7854
Y-0.7933
Y-0.8012
Y-0.809
Y-0.8169
Y-0.8248
Y-0.8327
Y-0.8405
Y-0.8484
Y-0.8563
Y-0.8642
Y-0.872
Y-0.8799
Y-0.8878
Y-0.8957
Y-0.9035
Y-0.9114
Y-0.9193
Y-0.9272
Y-0.935
Y-0.9429
Y-0.9508
Y-0.9587
Y-0.9665
Y-0.9744
Y-0.9823
Y-0.9902
Y-0.998
Y-1.0059
Y-1.0138
Y-1.0216
Y-1.0295
Y-1.0374
Y-1.0453
Y-1.0531
Y-1.061
Y-1.0625
X-1.3127Y-1.0686
X-1.3136Y-1.0746
X-1.3151Y-1.0806
X-1.3172Y-1.0864
X-1.3198Y-1.0919
X-1.323Y-1.0972
X-1.3266Y-1.1021
X-1.3308Y-1.1066
Y-1.1067
X-1.3353Y-1.1108
X-1.3403Y-1.1145
X-1.3455Y-1.1176
X-1.3511Y-1.1202
X-1.3568Y-1.1223
X-1.3628Y-1.1238
X-1.3689Y-1.1247
X-1.375Y-1.125
X-1.3829
X-1.3907
X-1.3986
X-1.4065
X-1.4144
X-1.4222
X-1.4301
X-1.438
X-1.4459
X-1.4537
X-1.4616
X-1.4695
X-1.4773
X-1.4852
X-1.4931
X-1.501
X-1.5088
X-1.5167
X-1.5246
X-1.5325
X-1.5403
X-1.5482
X-1.5561
X-1.564
X-1.5718
X-1.5797
X-1.5876
X-1.5955
X-1.6033
X-1.6112
X-1.6191
X-1.627
X-1.6348
X-1.6427
X-1.6506
X-1.6585
X-1.6663
X-1.6742
X-1.6821
X-1.6899
X-1.6978
X-1.7057
X-1.7136
X-1.7214
X-1.7293
X-1.7372
X-1.7451
X-1.7529
X-1.7608
X-1.7687
X-1.7766
X-1.7844
X-1.7923
X-1.8002
X-1.8081
X-1.8159
X-1.8238
X-1.8317
X-1.8396
X-1.8474
X-1.8553
X-1.8632
X-1.8711
X-1.8789
X-1.8868
X-1.8947
X-1.9025
X-1.9104
X-1.9183
X-1.9262
X-1.934
X-1.9419
X-1.9498
X-1.9577
X-1.9655
X-1.9734
X-1.9813
X-1.9892
X-1.997
X-2
X-2.0004
X-2.0008
X-2.0029Y-1.1249
X-2.0059Y-1.1247
X-2.0065Y-1.1246
X-2.0071
X-2.0091Y-1.1243
X-2.0117Y-1.1239
X-2.0125Y-1.1237
X-2.0133Y-1.1236
X-2.0152Y-1.1231
X-2.0175Y-1.1225
X-2.0184Y-1.1222
X-2.0194Y-1.1219
X-2.021Y-1.1213
X-2.023Y-1.1206
X-2.0242Y-1.1201
X-2.0252Y-1.1197
X-2.0267Y-1.1189
X-2.0284Y-1.1182
X-2.0297Y-1.1175
X-2.0308Y-1.1169
X-2.0321Y-1.1161
X-2.0335Y-1.1152
X-2.0349Y-1.1143
X-2.0361Y-1.1135
X-2.0372Y-1.1127
X-2.0383Y-1.1118
X-2.0398Y-1.1106
X-2.0411Y-1.1096
X-2.0419Y-1.1088
X-2.0428Y-1.108
X-2.0443Y-1.1065
X-2.0456Y-1.1053
Y-1.1052
X-2.0463Y-1.1044
X-2.0469Y-1.1038
Y-1.1037
X-2.0494Y-1.1007
X-2.0528Y-1.0959
X-2.0557Y-1.0908
X-2.0582Y-1.0854
X-2.0601Y-1.0799
X-2.0614Y-1.0742
X-2.0623Y-1.0683
X-2.0625Y-1.0625
Y-1.0546
Y-1.0467
Y-1.0388
Y-1.031
Y-1.0231
Y-1.0152
Y-1.0073
Y-0.9995
Y-0.9916
Y-0.9837
Y-0.9758
Y-0.968
Y-0.9601
Y-0.9522
Y-0.9443
Y-0.9365
Y-0.9286
Y-0.9207
Y-0.9128
Y-0.905
Y-0.8971
Y-0.8892
Y-0.8814
Y-0.8735
Y-0.8656
Y-0.8577
Y-0.8499
Y-0.842
Y-0.8341
Y-0.8262
Y-0.8184
Y-0.8105
Y-0.8026
Y-0.7947
Y-0.7869
Y-0.779
Y-0.7711
Y-0.7632
Y-0.7554
Y-0.7475
Y-0.7396
Y-0.7317
Y-0.7239
Y-0.716
Y-0.7081
Y-0.7002
Y-0.6924
Y-0.6845
Y-0.6766
Y-0.6688
Y-0.6609
Y-0.653
Y-0.6451
Y-0.6373
Y-0.6294
Y-0.6215
Y-0.6136
Y-0.6058
Y-0.5979
Y-0.59
Y-0.5821
Y-0.5743
Y-0.5664
Y-0.5585
Y-0.5506
Y-0.5428
Y-0.5349
Y-0.527
Y-0.5191
Y-0.5113
Y-0.5034
Y-0.4955
Y-0.4876
Y-0.4798
Y-0.4719
Y-0.464
Y-0.4562
Y-0.4483
Y-0.4404
Y-0.4325
Y-0.4247
Y-0.4168
Y-0.4089
Y-0.401
Y-0.3932
Y-0.3853
Y-0.3774
Y-0.3695
Y-0.3617
Y-0.3538
Y-0.3459
Y-0.338
Y-0.3302
Y-0.3223
Y-0.3144
Y-0.3065
Y-0.2987
Y-0.2908
Y-0.2829
Y-0.2751
Y-0.2672
Y-0.2593
Y-0.2514
Y-0.2436
Y-0.2357
Y-0.2278
Y-0.2199
Y-0.2121
Y-0.2042
Y-0.1963
Y-0.1884
Y-0.1806
Y-0.1727
Y-0.1648
Y-0.1569
Y-0.1491
Y-0.1412
Y-0.1333
Y-0.1254
Y-0.1176
Y-0.1097
Y-0.1018
Y-0.0939
Y-0.0861
Y-0.0782
Y-0.0703
Y-0.0625
Y-0.0546
Y-0.0467
Y-0.0388
Y-0.031
Y-0.0231
Y-0.0152
Y-0.0073
Y0.0004
Y0.0083
Y0.0162
Y0.0241
Y0.0319
Y0.0398
Y0.0477
Y0.0556
Y0.0634
Y0.0713
Y0.0792
Y0.0871
Y0.0949
Y0.1028
Y0.1107
Y0.1186
Y0.1264
Y0.1343
Y0.1422
Y0.15
Y0.1579
Y0.1658
Y0.1737
Y0.1815
Y0.1894
Y0.1973
Y0.2052
Y0.213
Y0.2209
Y0.2288
Y0.2367
Y0.2445
Y0.2524
Y0.2603
Y0.2682
Y0.276
Y0.2839
Y0.2918
Y0.2997
Y0.3075
Y0.3154
Y0.3233
Y0.3311
Y0.339
Y0.3469
Y0.3548
Y0.3626
Y0.3705
Y0.3784
Y0.3863
Y0.3941
Y0.402
Y0.4099
Y0.4178
Y0.4256
Y0.4335
Y0.4414
Y0.4493
Y0.4571
Y0.465
Y0.4729
Y0.4808
Y0.4886
Y0.4965
Y0.5044
Y0.5123
Y0.5201
Y0.528
Y0.5359
Y0.5437
Y0.5516
Y0.5595
Y0.5674
Y0.5752
Y0.5831
Y0.591
Y0.5989
Y0.6067
Y0.6146
Y0.6225
Y0.6304
Y0.6382
Y0.6461
Y0.654
Y0.6619
Y0.6697
Y0.6776
Y0.6855
Y0.6934
Y0.7012
Y0.7091
Y0.717
Y0.7248
Y0.7327
Y0.7406
Y0.7485
Y0.7563
Y0.7642
Y0.7721
Y0.78
Y0.7878
Y0.7957
Y0.8036
Y0.8115
Y0.8193
Y0.8272
Y0.8351
Y0.843
Y0.8508
Y0.8587
Y0.8666
Y0.8745
Y0.8823
Y0.8902
Y0.8981
Y0.906
Y0.9138
Y0.9217
Y0.9296
Y0.9374
Y0.9453
Y0.9532
Y0.9611
Y0.9689
Y0.9768
Y0.9847
Y0.9926
Y1.0004
Y1.0083
Y1.0162
Y1.0241
Y1.0319
Y1.0398
Y1.0477
Y1.0556
Y1.0634
Y1.0713
Y1.0792
Y1.0871
Y1.0949
Y1.1028
Y1.1107
Y1.1186
Y1.1264
Y1.1343
Y1.1422
Y1.15
Y1.1579
Y1.1658
Y1.1737
Y1.1815
Y1.1894
Y1.1973
Y1.2052
Y1.213
Y1.2209
Y1.2288
Y1.2367
Y1.2445
Y1.2524
Y1.2603
Y1.2682
Y1.276
Y1.2839
Y1.2918
Y1.2997
Y1.3075
Y1.3154
Y1.3233
Y1.3311
Y1.339
Y1.3469
Y1.3548
Y1.3626
Y1.3705
Y1.3784
Y1.3863
Y1.3941
Y1.402
Y1.4099
Y1.4178
Y1.4256
Y1.4335
Y1.4414
Y1.4493
Y1.4571
Y1.465
Y1.4729
Y1.4808
Y1.4886
Y1.4965
Y1.5044
Y1.5123
Y1.5201
Y1.528
Y1.5359
Y1.5437
Y1.5516
Y1.5595
Y1.5674
Y1.5752
Y1.5831
Y1.591
Y1.5989
Y1.6067
Y1.6146
Y1.6225
Y1.6304
Y1.6382
Y1.6461
Y1.654
Y1.6619
Y1.6697
Y1.6776
Y1.6855
Y1.6934
Y1.7012
Y1.7091
Y1.717
Y1.7248
Y1.7327
Y1.7406
Y1.7485
Y1.7563
Y1.7642
Y1.7721
Y1.78
Y1.7878
Y1.7957
Y1.8036
Y1.8115
Y1.8193
Y1.8272
Y1.8351
Y1.843
Y1.8508
Y1.8587
Y1.8666
Y1.8745
Y1.8823
Y1.8902
Y1.8981
Y1.906
Y1.9138
Y1.9217
Y1.9296
Y1.9374
Y1.9453
Y1.9532
Y1.9611
Y1.9689
Y1.9768
Y1.9847
Y1.9926
Y2.0004
Y2.0083
Y2.0162
Y2.0241
Y2.0319
Y2.0398
Y2.0477
Y2.0556
Y2.0634
Y2.0713
Y2.0792
Y2.0871
Y2.0949
Y2.1028
Y2.1107
Y2.1186
Y2.1264
Y2.1343
Y2.1422
Y2.15
Y2.1579
Y2.1658
Y2.1737
Y2.1815
Y2.1894
Y2.1973
Y2.2052
Y2.213
Y2.2209
Y2.2288
Y2.2367
Y2.2445
Y2.2524
Y2.2603
Y2.2682
Y2.276
Y2.2839
Y2.2918
Y2.2997
Y2.3075
Y2.3154
Y2.3233
Y2.3311
Y2.339
Y2.3469
Y2.3548
Y2.3626
Y2.3705
Y2.3784
Y2.3863
Y2.3941
Y2.402
Y2.4099
Y2.4178
Y2.4256
Y2.4335
Y2.4414
Y2.4493
Y2.4571
Y2.465
Y2.4729
Y2.4808
Y2.4886
Y2.4965
Y2.5044
Y2.5123
Y2.5201
Y2.528
Y2.5359
Y2.5437
Y2.5516
Y2.5595
Y2.5674
Y2.5752
Y2.5831
Y2.591
Y2.5989
Y2.6067
Y2.6146
Y2.6225
Y2.6304
Y2.6382
Y2.6461
Y2.654
Y2.6619
Y2.6697
Y2.6776
Y2.6855
Y2.6934
Y2.7012
Y2.7091
Y2.717
Y2.7248
Y2.7327
Y2.7406
Y2.7485
Y2.7563
Y2.7642
Y2.7721
Y2.78
Y2.7878
Y2.7957
Y2.8036
Y2.8115
Y2.8193
Y2.8272
Y2.8351
Y2.843
Y2.8508
Y2.8587
Y2.8666
Y2.8745
Y2.8823
Y2.8902
Y2.8981
Y2.906
Y2.9138
Y2.9217
Y2.9296
Y2.9374
Y2.9453
Y2.9532
Y2.9611
Y2.9689
Y2.9768
Y2.9847
Y2.9926
Y3.0004
Y3.0083
Y3.0162
Y3.0241
Y3.0319
Y3.0398
Y3.0477
Y3.0556
Y3.0634
Y3.0713
Y3.0792
Y3.0871
Y3.0949
Y3.1028
Y3.1107
Y3.1186
Y3.1264
Y3.1343
Y3.1422
Y3.15
Y3.1579
Y3.1658
Y3.1737
Y3.1815
Y3.1894
Y3.1973
Y3.2052
Y3.213
Y3.2209
Y3.2288
Y3.2367
Y3.2445
Y3.2524
Y3.2603
Y3.2682
Y3.276
Y3.2839
Y3.2918
Y3.2997
Y3.3075
Y3.3154
Y3.3233
Y3.3311
Y3.339
Y3.3469
Y3.3548
Y3.3626
Y3.3705
Y3.3784
Y3.3863
Y3.3941
Y3.402
Y3.4099
Y3.4178
Y3.4256
Y3.4335
Y3.4414
Y3.4493
Y3.4571
Y3.465
Y3.4729
Y3.4808
Y3.4886
Y3.4965
Y3.5044
Y3.5123
Y3.5201
Y3.528
Y3.5359
Y3.5437
Y3.5516
Y3.5595
Y3.5674
Y3.5752
Y3.5831
Y3.591
Y3.5989
Y3.6067
Y3.6146
Y3.6225
Y3.6304
Y3.6382
Y3.6461
Y3.654
Y3.6619
Y3.6697
Y3.6776
Y3.6855
Y3.6934
Y3.7012
Y3.7091
Y3.717
Y3.7248
Y3.7327
Y3.7406
Y3.7485
Y3.7563
Y3.7642
Y3.7721
Y3.78
Y3.7878
Y3.7957
Y3.8036
Y3.8115
Y3.8193
Y3.8272
Y3.8351
Y3.843
Y3.8508
Y3.8587
Y3.8666
Y3.8745
Y3.8823
Y3.8902
Y3.8981
Y3.906
Y3.9138
Y3.9217
Y3.9296
Y3.9374
Y3.9453
Y3.9532
Y3.9611
Y3.9689
Y3.9768
Y3.9847
Y3.9926
Y4.0004
Y4.0083
Y4.0162
Y4.0241
Y4.0319
Y4.0398
Y4.0477
Y4.0556
Y4.0634
Y4.0713
Y4.0792
Y4.0871
Y4.0949
Y4.1028
Y4.1107
Y4.1186
Y4.1264
Y4.1343
Y4.1422
Y4.15
Y4.1579
Y4.1658
Y4.1737
Y4.1815
Y4.1894
Y4.1973
Y4.2052
Y4.213
Y4.2209
Y4.2288
Y4.2367
Y4.2445
Y4.2524
Y4.2603
Y4.2682
Y4.276
Y4.2839
Y4.2918
Y4.2997
Y4.3075
Y4.3154
Y4.3233
Y4.3311
Y4.339
Y4.3469
Y4.3548
Y4.3626
Y4.3705
Y4.3784
Y4.3863
Y4.3941
Y4.402
Y4.4099
Y4.4178
Y4.4256
Y4.4335
Y4.4375
X-2.0622Y4.4436
X-2.0613Y4.4497
X-2.0598Y4.4556
X-2.0578Y4.4614
X-2.0552Y4.4669
X-2.052Y4.4722
X-2.0484Y4.4771
X-2.0442Y4.4817
X-2.0397Y4.4858
X-2.0348Y4.4894
X-2.0347Y4.4895
X-2.0295Y4.4926
X-2.0239Y4.4952
X-2.0181Y4.4973
X-2.0122Y4.4988
X-2.0061Y4.4997
X-2Y4.5
X-1.9921
X-1.9843
X-1.9764
X-1.9685
X-1.9606
X-1.9528
X-1.9449
X-1.937
X-1.9291
X-1.9213
X-1.9134
X-1.9055
X-1.8976
X-1.8898
X-1.8819
X-1.874
X-1.8661
X-1.8583
X-1.8504
X-1.8425
X-1.8346
X-1.8268
X-1.8189
X-1.811
X-1.8032
X-1.7953
X-1.7874
X-1.7795
X-1.7717
X-1.7638
X-1.7559
X-1.748
X-1.7402
X-1.7323
X-1.7244
X-1.7165
X-1.7087
X-1.7008
X-1.6929
X-1.685
X-1.6772
X-1.6693
X-1.6614
X-1.6535
X-1.6457
X-1.6378
X-1.6299
X-1.622
X-1.6142
X-1.6063
X-1.5984
X-1.5906
X-1.5827
X-1.5748
X-1.5669
X-1.5591
X-1.5512
X-1.5433
X-1.5354
X-1.5276
X-1.5197
X-1.5118
X-1.5039
X-1.4961
X-1.4882
X-1.4803
X-1.4724
X-1.4646
X-1.4567
X-1.4488
X-1.4409
X-1.4331
X-1.4252
X-1.4173
X-1.4094
X-1.4016
X-1.3937
X-1.3858
X-1.378
X-1.3701
X-1.3622
X-1.3543
X-1.3465
X-1.3386
X-1.3307
X-1.3228
X-1.315
X-1.3071
X-1.2992
X-1.2913
X-1.2835
X-1.2756
X-1.2677
X-1.2598
X-1.252
X-1.2441
X-1.2362
X-1.2283
X-1.2205
X-1.2126
X-1.2047
X-1.1969
X-1.189
X-1.1811
X-1.1732
X-1.1654
X-1.1575
X-1.1496
X-1.1417
X-1.1339
X-1.126
X-1.1181
X-1.1102
X-1.1024
X-1.0945
X-1.0866
X-1.0787
X-1.0709
X-1.063
X-1.0551
X-1.0472
X-1.0394
X-1.0315
X-1.0236
X-1.0157
X-1.0079
X-1
X-0.9921
X-0.9843
X-0.9764
X-0.9685
X-0.9606
X-0.9528
X-0.9449
X-0.937
X-0.9291
X-0.9213
X-0.9134
X-0.9055
X-0.8976
X-0.8898
X-0.8819
X-0.874
X-0.8661
X-0.8583
X-0.8504
X-0.8425
X-0.8346
X-0.8268
X-0.8189
X-0.811
X-0.8032
X-0.7953
X-0.7874
X-0.7795
X-0.7717
X-0.7638
X-0.7559
X-0.748
X-0.7402
X-0.7323
X-0.7244
X-0.7165
X-0.7087
X-0.7008
X-0.6929
X-0.685
X-0.6772
X-0.6693
X-0.6614
X-0.6535
X-0.6457
X-0.6378
X-0.6299
X-0.622
X-0.6142
X-0.6063
X-0.5984
X-0.5906
X-0.5827
X-0.5748
X-0.5669
X-0.5591
X-0.5512
X-0.5433
X-0.5354
X-0.5276
X-0.5197
X-0.5118
X-0.5039
X-0.4961
X-0.4882
X-0.4803
X-0.4724
X-0.4646
X-0.4567
X-0.4488
X-0.4409
X-0.4331
X-0.4252
X-0.4173
X-0.4094
X-0.4016
X-0.3937
X-0.3858
X-0.378
X-0.3701
X-0.3622
X-0.3543
X-0.3465
X-0.3386
X-0.3307
X-0.3228
X-0.315
X-0.3071
X-0.2992
X-0.2913
X-0.2835
X-0.2756
X-0.2677
X-0.2598
X-0.252
X-0.2441
X-0.2362
X-0.2283
X-0.2205
X-0.2126
X-0.2047
X-0.1969
X-0.189
X-0.1811
X-0.1732
X-0.1654
X-0.1575
X-0.1496
X-0.1417
X-0.1339
X-0.126
X-0.1181
X-0.1102
X-0.1024
X-0.0945
X-0.0866
X-0.0787
X-0.0709
X-0.063
X-0.0551
X-0.0472
X-0.0394
X-0.0315
X-0.0236
X-0.0157
X-0.0079
X-0
X0.0078
X0.0156
X0.0235
X0.0314
X0.0393
X0.0471
X0.055
X0.0629
X0.0708
X0.0786
X0.0865
X0.0944
X0.1023
X0.1101
X0.118
X0.1259
X0.1338
X0.1416
X0.1495
X0.1574
X0.1653
X0.1731
X0.181
X0.1889
X0.1968
X0.2046
X0.2125
X0.2204
X0.2282
X0.2361
X0.244
X0.2519
X0.2597
X0.2676
X0.2755
X0.2834
X0.2912
X0.2991
X0.307
X0.3149
X0.3227
X0.3306
X0.3385
X0.3464
X0.3542
X0.3621
X0.37
X0.3779
X0.3857
X0.3936
X0.4015
X0.4093
X0.4172
X0.4251
X0.433
X0.4408
X0.4487
X0.4566
X0.4645
X0.4723
X0.4802
X0.4881
X0.496
X0.4999
X0.5062Y4.4997
X0.5124Y4.4987
X0.5185Y4.4972
X0.5244Y4.495
X0.5301Y4.4922
X0.5354Y4.4889
X0.5404Y4.4851
X0.5449Y4.4809
X0.5489Y4.4762
X0.5525Y4.4713
X0.5556Y4.4659
X0.5581Y4.4603
X0.5601Y4.4545
X0.5614Y4.4486
X0.5622Y4.4425
X0.5624Y4.4375
Y4.4296
Y4.4217
Y4.4138
Y4.406
Y4.3981
Y4.3902
Y4.3823
Y4.3745
Y4.3666
Y4.3587
Y4.3508
Y4.343
Y4.3351
Y4.3272
Y4.3193
Y4.3115
Y4.3036
Y4.2957
Y4.2878
Y4.28
Y4.2721
Y4.2642
Y4.2563
Y4.2485
Y4.2406
Y4.2327
Y4.2249
Y4.217
Y4.2091
Y4.2012
Y4.1934
Y4.1855
Y4.1776
Y4.1697
Y4.1619
Y4.154
Y4.1461
Y4.1382
Y4.1304
Y4.1225
Y4.1146
Y4.1067
Y4.0989
Y4.091
Y4.0831
Y4.0752
Y4.0674
Y4.0595
Y4.0516
Y4.0437
Y4.0359
Y4.028
Y4.0201
Y4.0123
Y4.0044
Y3.9965
Y3.9886
Y3.9808
Y3.9729
Y3.965
Y3.9571
Y3.9493
Y3.9414
Y3.9335
Y3.9256
Y3.9178
Y3.9099
Y3.902
Y3.8941
Y3.8863
Y3.8784
Y3.8705
Y3.8626
Y3.8548
Y3.8469
Y3.839
Y3.8312
Y3.8233
Y3.8154
Y3.8124
X0.5621Y3.8063
X0.5612Y3.8003
X0.5597Y3.7943
X0.5577Y3.7885
X0.5551Y3.783
X0.5519Y3.7777
X0.5482Y3.7728
X0.5441Y3.7683
Y3.7682
G0Z0.3937
X1.3124Y1.0624
G1Z-0.25F19.68
X1.3127Y1.0684F39.37
X1.3135Y1.0742
X1.3149Y1.08
X1.3168Y1.0855
X1.3192Y1.0909
X1.3222Y1.0961
X1.3256Y1.1009
X1.3294Y1.1054
X1.3295
X1.3339Y1.1097
X1.3387Y1.1135
X1.3439Y1.1168
X1.3494Y1.1195
X1.3551Y1.1218
X1.361Y1.1234
X1.367Y1.1245
X1.3731Y1.125
X1.3749
X1.3828
X1.3907
X1.3985
X1.4064
X1.4143
X1.4222
X1.43
X1.4379
X1.4458
X1.4537
X1.4615
X1.4694
X1.4773
X1.4851
X1.493
X1.5009
X1.5088
X1.5166
X1.5245
X1.5324
X1.5403
X1.5481
X1.556
X1.5639
X1.5718
X1.5796
X1.5875
X1.5954
X1.6033
X1.6111
X1.619
X1.6269
X1.6348
X1.6426
X1.6505
X1.6584
X1.6663
X1.6741
X1.682
X1.6899
X1.6977
X1.7056
X1.7135
X1.7214
X1.7292
X1.7371
X1.745
X1.7529
X1.7607
X1.7686
X1.7765
X1.7844
X1.7922
X1.8001
X1.808
X1.8159
X1.8237
X1.8316
X1.8395
X1.8474
X1.8552
X1.8631
X1.871
X1.8788
X1.8867
X1.8946
X1.9025
X1.9103
X1.9182
X1.9261
X1.934
X1.9418
X1.9497
X1.9576
X1.9655
X1.9733
X1.9812
X1.9891
X1.997
X1.9999
X2.006Y1.1247
X2.0121Y1.1238
X2.018Y1.1223
X2.0238Y1.1202
X2.0294Y1.1176
X2.0346Y1.1145
X2.0396Y1.1108
X2.0441Y1.1067
Y1.1066
X2.0483Y1.1021
X2.0519Y1.0972
X2.0551Y1.0919
X2.0577Y1.0864
X2.0598Y1.0806
X2.0612Y1.0746
X2.0621Y1.0686
X2.0624Y1.0624
Y1.0546
Y1.0467
Y1.0388
Y1.031
Y1.0231
Y1.0152
Y1.0073
Y0.9995
Y0.9916
Y0.9837
Y0.9758
Y0.968
Y0.9601
Y0.9522
Y0.9443
Y0.9365
Y0.9286
Y0.9207
Y0.9128
Y0.905
Y0.8971
Y0.8892
Y0.8813
Y0.8735
Y0.8656
Y0.8577
Y0.8498
Y0.842
Y0.8341
Y0.8262
Y0.8184
Y0.8105
Y0.8026
Y0.7947
Y0.7869
Y0.779
Y0.7711
Y0.7632
Y0.7554
Y0.7475
Y0.7396
Y0.7317
Y0.7239
Y0.716
Y0.7081
Y0.7002
Y0.6924
Y0.6845
Y0.6766
Y0.6687
Y0.6609
Y0.653
Y0.6451
Y0.6373
Y0.6294
Y0.6215
Y0.6136
Y0.6058
Y0.5979
Y0.59
Y0.5821
Y0.5743
Y0.5664
Y0.5585
Y0.5506
Y0.5428
Y0.5349
Y0.527
Y0.5191
Y0.5113
Y0.5034
Y0.4955
Y0.4876
Y0.4798
Y0.4719
Y0.464
Y0.4561
Y0.4483
Y0.4404
Y0.4325
Y0.4247
Y0.4168
Y0.4089
Y0.401
Y0.3932
Y0.3853
Y0.3774
Y0.3695
Y0.3617
Y0.3538
Y0.3459
Y0.338
Y0.3302
Y0.3223
Y0.3144
Y0.3065
Y0.2987
Y0.2908
Y0.2829
Y0.275
Y0.2672
Y0.2593
Y0.2514
Y0.2436
Y0.2357
Y0.2278
Y0.2199
Y0.2121
Y0.2042
Y0.1963
Y0.1884
Y0.1806
Y0.1727
Y0.1648
Y0.1569
Y0.1491
Y0.1412
Y0.1333
Y0.1254
Y0.1176
Y0.1097
Y0.1018
Y0.0939
Y0.0861
Y0.0782
Y0.0703
Y0.0624
Y0.0546
Y0.0467
Y0.0388
Y0.031
Y0.0231
Y0.0152
Y0.0073
Y-0.0004
Y-0.0083
Y-0.0162
Y-0.0241
Y-0.0319
Y-0.0398
Y-0.0477
Y-0.0556
Y-0.0634
Y-0.0713
Y-0.0792
Y-0.0871
Y-0.0949
Y-0.1028
Y-0.1107
Y-0.1186
Y-0.1264
Y-0.1343
Y-0.1422
Y-0.1501
Y-0.1579
Y-0.1658
Y-0.1737
Y-0.1815
Y-0.1894
Y-0.1973
Y-0.2052
Y-0.213
Y-0.2209
Y-0.2288
Y-0.2367
Y-0.2445
Y-0.2524
Y-0.2603
Y-0.2682
Y-0.276
Y-0.2839
Y-0.2918
Y-0.2997
Y-0.3075
Y-0.3154
Y-0.3233
Y-0.3312
Y-0.339
Y-0.3469
Y-0.3548
Y-0.3626
Y-0.3705
Y-0.3784
Y-0.3863
Y-0.3941
Y-0.402
Y-0.4099
Y-0.4178
Y-0.4256
Y-0.4335
Y-0.4414
Y-0.4493
Y-0.4571
Y-0.465
Y-0.4729
Y-0.4808
Y-0.4886
Y-0.4965
Y-0.5044
Y-0.5123
Y-0.5201
Y-0.528
Y-0.5359
Y-0.5438
Y-0.5516
Y-0.5595
Y-0.5674
Y-0.5752
Y-0.5831
Y-0.591
Y-0.5989
Y-0.6067
Y-0.6146
Y-0.6225
Y-0.6304
Y-0.6382
Y-0.6461
Y-0.654
Y-0.6619
Y-0.6697
Y-0.6776
Y-0.6855
Y-0.6934
Y-0.7012
Y-0.7091
Y-0.717
Y-0.7249
Y-0.7327
Y-0.7406
Y-0.7485
Y-0.7564
Y-0.7642
Y-0.7721
Y-0.78
Y-0.7878
Y-0.7957
Y-0.8036
Y-0.8115
Y-0.8193
Y-0.8272
Y-0.8351
Y-0.843
Y-0.8508
Y-0.8587
Y-0.8666
Y-0.8745
Y-0.8823
Y-0.8902
Y-0.8981
Y-0.906
Y-0.9138
Y-0.9217
Y-0.9296
Y-0.9375
Y-0.9453
Y-0.9532
Y-0.9611
Y-0.9689
Y-0.9768
Y-0.9847
Y-0.9926
Y-1.0004
Y-1.0083
Y-1.0162
Y-1.0241
Y-1.0319
Y-1.0398
Y-1.0477
Y-1.0556
Y-1.0634
Y-1.0713
Y-1.0792
Y-1.0871
Y-1.0949
Y-1.1028
Y-1.1107
Y-1.1186
Y-1.1264
Y-1.1343
Y-1.1422
Y-1.1501
Y-1.1579
Y-1.1658
Y-1.1737
Y-1.1815
Y-1.1894
Y-1.1973
Y-1.2052
Y-1.213
Y-1.2209
Y-1.2288
Y-1.2367
Y-1.2445
Y-1.2524
Y-1.2603
Y-1.2682
Y-1.276
Y-1.2839
Y-1.2918
Y-1.2997
Y-1.3075
Y-1.3154
Y-1.3233
Y-1.3312
Y-1.339
Y-1.3469
Y-1.3548
Y-1.3626
Y-1.3705
Y-1.3784
Y-1.3863
Y-1.3941
Y-1.402
Y-1.4099
Y-1.4178
Y-1.4256
Y-1.4335
Y-1.4414
Y-1.4493
Y-1.4571
Y-1.465
Y-1.4729
Y-1.4808
Y-1.4886
Y-1.4965
Y-1.5044
Y-1.5123
Y-1.5201
Y-1.528
Y-1.5359
Y-1.5438
Y-1.5516
Y-1.5595
Y-1.5674
Y-1.5752
Y-1.5831
Y-1.591
Y-1.5989
Y-1.6067
Y-1.6146
Y-1.6225
Y-1.6304
Y-1.6382
Y-1.6461
Y-1.654
Y-1.6619
Y-1.6697
Y-1.6776
Y-1.6855
Y-1.6934
Y-1.7012
Y-1.7091
Y-1.717
Y-1.7249
Y-1.7327
Y-1.7406
Y-1.7485
Y-1.7564
Y-1.7642
Y-1.7721
Y-1.78
Y-1.7878
Y-1.7957
Y-1.8036
Y-1.8115
Y-1.8193
Y-1.8272
Y-1.8351
Y-1.843
Y-1.8508
Y-1.8587
Y-1.8666
Y-1.8745
Y-1.8823
Y-1.8902
Y-1.8981
Y-1.906
Y-1.9138
Y-1.9217
Y-1.9296
Y-1.9375
Y-1.9453
Y-1.9532
Y-1.9611
Y-1.9689
Y-1.9768
Y-1.9847
Y-1.9926
Y-2.0004
Y-2.0083
Y-2.0162
Y-2.0241
Y-2.0319
Y-2.0398
Y-2.0477
Y-2.0556
Y-2.0634
Y-2.0713
Y-2.0792
Y-2.0871
Y-2.0949
Y-2.1028
Y-2.1107
Y-2.1186
Y-2.1264
Y-2.1343
Y-2.1422
Y-2.1501
Y-2.1579
Y-2.1658
Y-2.1737
Y-2.1815
Y-2.1894
Y-2.1973
Y-2.2052
Y-2.213
Y-2.2209
Y-2.2288
Y-2.2367
Y-2.2445
Y-2.2524
Y-2.2603
Y-2.2682
Y-2.276
Y-2.2839
Y-2.2918
Y-2.2997
Y-2.3075
Y-2.3154
Y-2.3233
Y-2.3312
Y-2.339
Y-2.3469
Y-2.3548
Y-2.3626
Y-2.3705
Y-2.3784
Y-2.3863
Y-2.3941
Y-2.402
Y-2.4099
Y-2.4178
Y-2.4256
Y-2.4335
Y-2.4414
Y-2.4493
Y-2.4571
Y-2.465
Y-2.4729
Y-2.4808
Y-2.4886
Y-2.4965
Y-2.5044
Y-2.5123
Y-2.5201
Y-2.528
Y-2.5359
Y-2.5438
Y-2.5516
Y-2.5595
Y-2.5674
Y-2.5752
Y-2.5831
Y-2.591
Y-2.5989
Y-2.6067
Y-2.6146
Y-2.6225
Y-2.6304
Y-2.6382
Y-2.6461
Y-2.654
Y-2.6619
Y-2.6697
Y-2.6776
Y-2.6855
Y-2.6934
Y-2.7012
Y-2.7091
Y-2.717
Y-2.7249
Y-2.7327
Y-2.7406
Y-2.7485
Y-2.7564
Y-2.7642
Y-2.7721
Y-2.78
Y-2.7878
Y-2.7957
Y-2.8036
Y-2.8115
Y-2.8193
Y-2.8272
Y-2.8351
Y-2.843
Y-2.8508
Y-2.8587
Y-2.8666
Y-2.8745
Y-2.8823
Y-2.8902
Y-2.8981
Y-2.906
Y-2.9138
Y-2.9217
Y-2.9296
Y-2.9375
Y-2.9453
Y-2.9532
Y-2.9611
Y-2.9689
Y-2.9768
Y-2.9847
Y-2.9926
Y-3.0004
Y-3.0083
Y-3.0162
Y-3.0241
Y-3.0319
Y-3.0398
Y-3.0477
Y-3.0556
Y-3.0634
Y-3.0713
Y-3.0792
Y-3.0871
Y-3.0949
Y-3.1028
Y-3.1107
Y-3.1186
Y-3.1264
Y-3.1343
Y-3.1422
Y-3.1501
Y-3.1579
Y-3.1658
Y-3.1737
Y-3.1815
Y-3.1894
Y-3.1973
Y-3.2052
Y-3.213
Y-3.2209
Y-3.2288
Y-3.2367
Y-3.2445
Y-3.2524
Y-3.2603
Y-3.2682
Y-3.276
Y-3.2839
Y-3.2918
Y-3.2997
Y-3.3075
Y-3.3154
Y-3.3233
Y-3.3312
Y-3.339
Y-3.3469
Y-3.3548
Y-3.3626
Y-3.3705
Y-3.3784
Y-3.3863
Y-3.3941
Y-3.402
Y-3.4099
Y-3.4178
Y-3.4256
Y-3.4335
Y-3.4414
Y-3.4493
Y-3.4571
Y-3.465
Y-3.4729
Y-3.4808
Y-3.4886
Y-3.4965
Y-3.5044
Y-3.5123
Y-3.5201
Y-3.528
Y-3.5359
Y-3.5438
Y-3.5516
Y-3.5595
Y-3.5674
Y-3.5752
Y-3.5831
Y-3.591
Y-3.5989
Y-3.6067
Y-3.6146
Y-3.6225
Y-3.6304
Y-3.6382
Y-3.6461
Y-3.654
Y-3.6619
Y-3.6697
Y-3.6776
Y-3.6855
Y-3.6934
Y-3.7012
Y-3.7091
Y-3.717
Y-3.7249
Y-3.7327
Y-3.7406
Y-3.7485
Y-3.7564
Y-3.7642
Y-3.7721
Y-3.78
Y-3.7878
Y-3.7957
Y-3.8036
Y-3.8115
Y-3.8193
Y-3.8272
Y-3.8351
Y-3.843
Y-3.8508
Y-3.8587
Y-3.8666
Y-3.8745
Y-3.8823
Y-3.8902
Y-3.8981
Y-3.906
Y-3.9138
Y-3.9217
Y-3.9296
Y-3.9375
Y-3.9453
Y-3.9532
Y-3.9611
Y-3.9689
Y-3.9768
Y-3.9847
Y-3.9926
Y-4.0004
Y-4.0083
Y-4.0162
Y-4.0241
Y-4.0319
Y-4.0398
Y-4.0477
Y-4.0556
Y-4.0634
Y-4.0713
Y-4.0792
Y-4.0871
Y-4.0949
Y-4.1028
Y-4.1107
Y-4.1186
Y-4.1264
Y-4.1343
Y-4.1422
Y-4.1501
Y-4.1579
Y-4.1658
Y-4.1737
Y-4.1815
Y-4.1894
Y-4.1973
Y-4.2052
Y-4.213
Y-4.2209
Y-4.2288
Y-4.2367
Y-4.2445
Y-4.2524
Y-4.2603
Y-4.2682
Y-4.276
Y-4.2839
Y-4.2918
Y-4.2997
Y-4.3075
Y-4.3154
Y-4.3233
Y-4.3312
Y-4.339
Y-4.3469
Y-4.3548
Y-4.3626
Y-4.3705
Y-4.3784
Y-4.3863
Y-4.3941
Y-4.402
Y-4.4099
Y-4.4178
Y-4.4256
Y-4.4335
Y-4.4375
X2.0622Y-4.4433
X2.0614Y-4.4491
X2.06Y-4.4547
X2.0581Y-4.4603
X2.0557Y-4.4656
X2.0529Y-4.4707
X2.0495Y-4.4756
X2.0457Y-4.4801
X2.0414Y-4.4842
X2.0368Y-4.4879
X2.0319Y-4.4912
X2.0267Y-4.494
X2.0212Y-4.4962
X2.0156Y-4.498
X2.0087Y-4.4994
X2.0017Y-4.5
X1.9999
X1.992
X1.9842
X1.9763
X1.9684
X1.9605
X1.9527
X1.9448
X1.9369
X1.929
X1.9212
X1.9133
X1.9054
X1.8975
X1.8897
X1.8818
X1.8739
X1.866
X1.8582
X1.8503
X1.8424
X1.8346
X1.8267
X1.8188
X1.8109
X1.8031
X1.7952
X1.7873
X1.7794
X1.7716
X1.7637
X1.7558
X1.7479
X1.7401
X1.7322
X1.7243
X1.7164
X1.7086
X1.7007
X1.6928
X1.6849
X1.6771
X1.6692
X1.6613
X1.6535
X1.6456
X1.6377
X1.6298
X1.622
X1.6141
X1.6062
X1.5983
X1.5905
X1.5826
X1.5747
X1.5668
X1.559
X1.5511
X1.5432
X1.5353
X1.5275
X1.5196
X1.5117
X1.5038
X1.496
X1.4881
X1.4802
X1.4723
X1.4645
X1.4566
X1.4487
X1.4409
X1.433
X1.4251
X1.4172
X1.4094
X1.4015
X1.3936
X1.3857
X1.3779
X1.37
X1.3621
X1.3542
X1.3464
X1.3385
X1.3306
X1.3227
X1.3149
X1.307
X1.2991
X1.2912
X1.2834
X1.2755
X1.2676
X1.2597
X1.2519
X1.244
X1.2361
X1.2283
X1.2204
X1.2125
X1.2046
X1.1968
X1.1889
X1.181
X1.1731
X1.1653
X1.1574
X1.1495
X1.1416
X1.1338
X1.1259
X1.118
X1.1101
X1.1023
X1.0944
X1.0865
X1.0786
X1.0708
X1.0629
X1.055
X1.0472
X1.0393
X1.0314
X1.0235
X1.0157
X1.0078
X0.9999
X0.992
X0.9842
X0.9763
X0.9684
X0.9605
X0.9527
X0.9448
X0.9369
X0.929
X0.9212
X0.9133
X0.9054
X0.8975
X0.8897
X0.8818
X0.8739
X0.866
X0.8582
X0.8503
X0.8424
X0.8346
X0.8267
X0.8188
X0.8109
X0.8031
X0.7952
X0.7873
X0.7794
X0.7716
X0.7637
X0.7558
X0.7479
X0.7401
X0.7322
X0.7243
X0.7164
X0.7086
X0.7007
X0.6928
X0.6849
X0.6771
X0.6692
X0.6613
X0.6535
X0.6456
X0.6377
X0.6298
X0.622
X0.6141
X0.6062
X0.5983
X0.5905
X0.5826
X0.5747
X0.5668
X0.559
X0.5511
X0.5432
X0.5353
X0.5275
X0.5196
X0.5117
X0.5038
X0.496
X0.4881
X0.4802
X0.4723
X0.4645
X0.4566
X0.4487
X0.4409
X0.433
X0.4251
X0.4172
X0.4094
X0.4015
X0.3936
X0.3857
X0.3779
X0.37
X0.3621
X0.3542
X0.3464
X0.3385
X0.3306
X0.3227
X0.3149
X0.307
X0.2991
X0.2912
X0.2834
X0.2755
X0.2676
X0.2597
X0.2519
X0.244
X0.2361
X0.2283
X0.2204
X0.2125
X0.2046
X0.1968
X0.1889
X0.181
X0.1731
X0.1653
X0.1574
X0.1495
X0.1416
X0.1338
X0.1259
X0.118
X0.1101
X0.1023
X0.0944
X0.0865
X0.0786
X0.0708
X0.0629
X0.055
X0.0472
X0.0393
X0.0314
X0.0235
X0.0157
X0.0078
X0
X-0.0079
X-0.0157
X-0.0236
X-0.0315
X-0.0394
X-0.0472
X-0.0551
X-0.063
X-0.0709
X-0.0787
X-0.0866
X-0.0945
X-0.1024
X-0.1102
X-0.1181
X-0.126
X-0.1339
X-0.1417
X-0.1496
X-0.1575
X-0.1653
X-0.1732
X-0.1811
X-0.189
X-0.1968
X-0.2047
X-0.2126
X-0.2205
X-0.2283
X-0.2362
X-0.2441
X-0.252
X-0.2598
X-0.2677
X-0.2756
X-0.2835
X-0.2913
X-0.2992
X-0.3071
X-0.315
X-0.3228
X-0.3307
X-0.3386
X-0.3465
X-0.3543
X-0.3622
X-0.3701
X-0.3779
X-0.3858
X-0.3937
X-0.4016
X-0.4094
X-0.4173
X-0.4252
X-0.4331
X-0.4409
X-0.4488
X-0.4567
X-0.4646
X-0.4724
X-0.4803
X-0.4882
X-0.4961
X-0.5
X-0.5063Y-4.4997
X-0.5125Y-4.4987
X-0.5186Y-4.4972
X-0.5245Y-4.495
X-0.5301Y-4.4922
X-0.5355Y-4.4889
X-0.5405Y-4.4851
X-0.545Y-4.4809
X-0.549Y-4.4762
X-0.5526Y-4.4713
X-0.5557Y-4.4659
X-0.5582Y-4.4603
X-0.5602Y-4.4545
X-0.5615Y-4.4486
X-0.5623Y-4.4425
X-0.5625Y-4.4375
Y-4.4296
Y-4.4217
Y-4.4138
Y-4.406
Y-4.3981
Y-4.3902
Y-4.3823
Y-4.3745
Y-4.3666
Y-4.3587
Y-4.3508
Y-4.343
Y-4.3351
Y-4.3272
Y-4.3193
Y-4.3115
Y-4.3036
Y-4.2957
Y-4.2878
Y-4.28
Y-4.2721
Y-4.2642
Y-4.2563
Y-4.2485
Y-4.2406
Y-4.2327
Y-4.2249
Y-4.217
Y-4.2091
Y-4.2012
Y-4.1934
Y-4.1855
Y-4.1776
Y-4.1697
Y-4.1619
Y-4.154
Y-4.1461
Y-4.1382
Y-4.1304
Y-4.1225
Y-4.1146
Y-4.1067
Y-4.0989
Y-4.091
Y-4.0831
Y-4.0752
Y-4.0674
Y-4.0595
Y-4.0516
Y-4.0437
Y-4.0359
Y-4.028
Y-4.0201
Y-4.0123
Y-4.0044
Y-3.9965
Y-3.9886
Y-3.9808
Y-3.9729
Y-3.965
Y-3.9571
Y-3.9493
Y-3.9414
Y-3.9335
Y-3.9256
Y-3.9178
Y-3.9099
Y-3.902
Y-3.8941
Y-3.8863
Y-3.8784
Y-3.8705
Y-3.8626
Y-3.8548
Y-3.8469
Y-3.839
Y-3.8312
Y-3.8233
Y-3.8154
Y-3.8125
X-0.5622Y-3.8063
X-0.5613Y-3.8003
X-0.5598Y-3.7943
X-0.5578Y-3.7885
X-0.5552Y-3.783
X-0.552Y-3.7777
X-0.5483Y-3.7728
X-0.5442Y-3.7683
Y-3.7682
X-0.5396Y-3.7641
X-0.5347Y-3.7604
X-0.5295Y-3.7573
X-0.5239Y-3.7547
X-0.5181Y-3.7526
X-0.5122Y-3.7511
X-0.5061Y-3.7502
X-0.5Y-3.7499
X-0.4921
X-0.4842
X-0.4764
X-0.4685
X-0.4606
X-0.4527
X-0.4449
X-0.437
X-0.4291
X-0.4213
X-0.4134
X-0.4055
X-0.3976
X-0.3898
X-0.3819
X-0.374
X-0.3661
X-0.3583
X-0.3504
X-0.3425
X-0.3346
X-0.3268
X-0.3189
X-0.311
X-0.3031
X-0.2953
X-0.2874
X-0.2795
X-0.2716
X-0.2638
X-0.2559
X-0.248
X-0.2401
X-0.2323
X-0.2244
X-0.2165
X-0.2087
X-0.2008
X-0.1929
X-0.185
X-0.1772
X-0.1693
X-0.1614
X-0.1535
X-0.1457
X-0.1378
X-0.1299
X-0.122
X-0.1142
X-0.1063
X-0.0984
X-0.0905
X-0.0827
X-0.0748
X-0.0669
X-0.059
X-0.0512
X-0.0433
X-0.0354
X-0.0276
X-0.0197
X-0.0118
X-0.0039
X0.0038
X0.0117
X0.0196
X0.0275
X0.0353
X0.0432
X0.0511
X0.059
X0.0668
X0.0747
X0.0826
X0.0905
X0.0983
X0.1062
X0.1141
X0.122
X0.1298
X0.1377
X0.1456
X0.1535
X0.1613
X0.1692
X0.1771
X0.1849
X0.1928
X0.2007
X0.2086
X0.2164
X0.2243
X0.2322
X0.2401
X0.2479
X0.2558
X0.2637
X0.2716
X0.2794
X0.2873
X0.2952
X0.3031
X0.3109
X0.3188
X0.3267
X0.3346
X0.3424
X0.3503
X0.3582
X0.3661
X0.3739
X0.3818
X0.3897
X0.3975
X0.4054
X0.4133
X0.4212
X0.429
X0.4369
X0.4448
X0.4527
X0.4605
X0.4684
X0.4763
X0.4842
X0.492
X0.4999
X0.5078
X0.5157
X0.5235
X0.5314
X0.5393
X0.5472
X0.555
X0.5629
X0.5708
X0.5786
X0.5865
X0.5944
X0.6023
X0.6101
X0.618
X0.6259
X0.6338
X0.6416
X0.6495
X0.6574
X0.6653
X0.6731
X0.681
X0.6889
X0.6968
X0.7046
X0.7125
X0.7204
X0.7283
X0.7361
X0.744
X0.7519
X0.7598
X0.7676
X0.7755
X0.7834
X0.7912
X0.7991
X0.807
X0.8149
X0.8227
X0.8306
X0.8385
X0.8464
X0.8542
X0.8621
X0.87
X0.8779
X0.8857
X0.8936
X0.9015
X0.9094
X0.9172
X0.9251
X0.933
X0.9409
X0.9487
X0.9566
X0.9645
X0.9724
X0.9802
X0.9881
X0.996
X1.0038
X1.0117
X1.0196
X1.0275
X1.0353
X1.0432
X1.0511
X1.059
X1.0668
X1.0747
X1.0826
X1.0905
X1.0983
X1.1062
X1.1141
X1.122
X1.1298
X1.1377
X1.1456
X1.1535
X1.1613
X1.1692
X1.1771
X1.1849
X1.1928
X1.2007
X1.2086
X1.2164
X1.2243
X1.2322
X1.2401
X1.2479
X1.2558
X1.2637
X1.2716
X1.2794
X1.2873
X1.2952
X1.3031
X1.3109
X1.3124
Y-3.742
Y-3.7342
Y-3.7263
Y-3.7184
Y-3.7105
Y-3.7027
Y-3.6948
Y-3.6869
Y-3.679
Y-3.6712
Y-3.6633
Y-3.6554
Y-3.6475
Y-3.6397
Y-3.6318
Y-3.6239
Y-3.6161
Y-3.6082
Y-3.6003
Y-3.5924
Y-3.5846
Y-3.5767
Y-3.5688
Y-3.5609
Y-3.5531
Y-3.5452
Y-3.5373
Y-3.5294
Y-3.5216
Y-3.5137
Y-3.5058
Y-3.4979
Y-3.4901
Y-3.4822
Y-3.4743
Y-3.4664
Y-3.4586
Y-3.4507
Y-3.4428
Y-3.435
Y-3.4271
Y-3.4192
Y-3.4113
Y-3.4035
Y-3.3956
Y-3.3877
Y-3.3798
Y-3.372
Y-3.3641
Y-3.3562
Y-3.3483
Y-3.3405
Y-3.3326
Y-3.3247
Y-3.3168
Y-3.309
Y-3.3011
Y-3.2932
Y-3.2853
Y-3.2775
Y-3.2696
Y-3.2617
Y-3.2538
Y-3.246
Y-3.2381
Y-3.2302
Y-3.2224
Y-3.2145
Y-3.2066
Y-3.1987
Y-3.1909
Y-3.183
Y-3.1751
Y-3.1672
Y-3.1594
Y-3.1515
Y-3.1436
Y-3.1357
Y-3.1279
Y-3.12
Y-3.1121
Y-3.1042
Y-3.0964
Y-3.0885
Y-3.0806
Y-3.0727
Y-3.0649
Y-3.057
Y-3.0491
Y-3.0413
Y-3.0334
Y-3.0255
Y-3.0176
Y-3.0098
Y-3.0019
Y-2.994
Y-2.9861
Y-2.9783
Y-2.9704
Y-2.9625
Y-2.9546
Y-2.9468
Y-2.9389
Y-2.931
Y-2.9231
Y-2.9153
Y-2.9074
Y-2.8995
Y-2.8916
Y-2.8838
Y-2.8759
Y-2.868
Y-2.8601
Y-2.8523
Y-2.8444
Y-2.8365
Y-2.8287
Y-2.8208
Y-2.8129
Y-2.805
Y-2.7972
Y-2.7893
Y-2.7814
Y-2.7735
Y-2.7657
Y-2.7578
Y-2.7499
Y-2.742
Y-2.7342
Y-2.7263
Y-2.7184
Y-2.7105
Y-2.7027
Y-2.6948
Y-2.6869
Y-2.679
Y-2.6712
Y-2.6633
Y-2.6554
Y-2.6475
Y-2.6397
Y-2.6318
Y-2.6239
Y-2.6161
Y-2.6082
Y-2.6003
Y-2.5924
Y-2.5846
Y-2.5767
Y-2.5688
Y-2.5609
Y-2.5531
Y-2.5452
Y-2.5373
Y-2.5294
Y-2.5216
Y-2.5137
Y-2.5058
Y-2.4979
Y-2.4901
Y-2.4822
Y-2.4743
Y-2.4664
Y-2.4586
Y-2.4507
Y-2.4428
Y-2.435
Y-2.4271
Y-2.4192
Y-2.4113
Y-2.4035
Y-2.3956
Y-2.3877
Y-2.3798
Y-2.372
Y-2.3641
Y-2.3562
Y-2.3483
Y-2.3405
Y-2.3326
Y-2.3247
Y-2.3168
Y-2.309
Y-2.3011
Y-2.2932
Y-2.2853
Y-2.2775
Y-2.2696
Y-2.2617
Y-2.2538
Y-2.246
Y-2.2381
Y-2.2302
Y-2.2224
Y-2.2145
Y-2.2066
Y-2.1987
Y-2.1909
Y-2.183
Y-2.1751
Y-2.1672
Y-2.1594
Y-2.1515
Y-2.1436
Y-2.1357
Y-2.1279
Y-2.12
Y-2.1121
Y-2.1042
Y-2.0964
Y-2.0885
Y-2.0806
Y-2.0727
Y-2.0649
Y-2.057
Y-2.0491
Y-2.0413
Y-2.0334
Y-2.0255
Y-2.0176
Y-2.0098
Y-2.0019
Y-1.994
Y-1.9861
Y-1.9783
Y-1.9704
Y-1.9625
Y-1.9546
Y-1.9468
Y-1.9389
Y-1.931
Y-1.9231
Y-1.9153
Y-1.9074
Y-1.8995
Y-1.8916
Y-1.8838
Y-1.8759
Y-1.868
Y-1.8601
Y-1.8523
Y-1.8444
Y-1.8365
Y-1.8287
Y-1.8208
Y-1.8129
Y-1.805
Y-1.7972
Y-1.7893
Y-1.7814
Y-1.7735
Y-1.7657
Y-1.7578
Y-1.7499
Y-1.742
Y-1.7342
Y-1.7263
Y-1.7184
Y-1.7105
Y-1.7027
Y-1.6948
Y-1.6869
Y-1.679
Y-1.6712
Y-1.6633
Y-1.6554
Y-1.6475
Y-1.6397
Y-1.6318
Y-1.6239
Y-1.6161
Y-1.6082
Y-1.6003
Y-1.5924
Y-1.5846
Y-1.5767
Y-1.5688
Y-1.5609
Y-1.5531
Y-1.5452
Y-1.5373
Y-1.5294
Y-1.5216
Y-1.5137
Y-1.5058
Y-1.4979
Y-1.4901
Y-1.4822
Y-1.4743
Y-1.4664
Y-1.4586
Y-1.4507
Y-1.4428
Y-1.435
Y-1.4271
Y-1.4192
Y-1.4113
Y-1.4035
Y-1.3956
Y-1.3877
Y-1.3798
Y-1.372
Y-1.3641
Y-1.3562
Y-1.3483
Y-1.3405
Y-1.3326
Y-1.3247
Y-1.3168
Y-1.309
Y-1.3011
Y-1.2932
Y-1.2853
Y-1.2775
Y-1.2696
Y-1.2617
Y-1.2538
Y-1.246
Y-1.2381
Y-1.2302
Y-1.2224
Y-1.2145
Y-1.2066
Y-1.1987
Y-1.1909
Y-1.183
Y-1.1751
Y-1.1672
Y-1.1594
Y-1.1515
Y-1.1436
Y-1.1357
Y-1.1279
Y-1.12
Y-1.1121
Y-1.1042
Y-1.0964
Y-1.0885
Y-1.0806
Y-1.0727
Y-1.0649
Y-1.057
Y-1.0491
Y-1.0413
Y-1.0334
Y-1.0255
Y-1.0176
Y-1.0098
Y-1.0019
Y-0.994
Y-0.9861
Y-0.9783
Y-0.9704
Y-0.9625
Y-0.9546
Y-0.9468
Y-0.9389
Y-0.931
Y-0.9231
Y-0.9153
Y-0.9074
Y-0.8995
Y-0.8916
Y-0.8838
Y-0.8759
Y-0.868
Y-0.8601
Y-0.8523
Y-0.8444
Y-0.8365
Y-0.8287
Y-0.8208
Y-0.8129
Y-0.805
Y-0.7972
Y-0.7893
Y-0.7814
Y-0.7735
Y-0.7657
Y-0.7578
Y-0.7499
Y-0.742
Y-0.7342
Y-0.7263
Y-0.7184
Y-0.7105
Y-0.7027
Y-0.6948
Y-0.6869
Y-0.679
Y-0.6712
Y-0.6633
Y-0.6554
Y-0.6475
Y-0.6397
Y-0.6318
Y-0.6239
Y-0.6161
Y-0.6082
Y-0.6003
Y-0.5924
Y-0.5846
Y-0.5767
Y-0.5688
Y-0.5609
Y-0.5531
Y-0.5452
Y-0.5373
Y-0.5294
Y-0.5216
Y-0.5137
Y-0.5058
Y-0.4979
Y-0.4901
Y-0.4822
Y-0.4743
Y-0.4664
Y-0.4586
Y-0.4507
Y-0.4428
Y-0.435
Y-0.4271
Y-0.4192
Y-0.4113
Y-0.4035
Y-0.3956
Y-0.3877
Y-0.3798
Y-0.372
Y-0.3641
Y-0.3562
Y-0.3483
Y-0.3405
Y-0.3326
Y-0.3247
Y-0.3168
Y-0.309
Y-0.3011
Y-0.2932
Y-0.2853
Y-0.2775
Y-0.2696
Y-0.2617
Y-0.2538
Y-0.246
Y-0.2381
Y-0.2302
Y-0.2224
Y-0.2145
Y-0.2066
Y-0.1987
Y-0.1909
Y-0.183
Y-0.1751
Y-0.1672
Y-0.1594
Y-0.1515
Y-0.1436
Y-0.1357
Y-0.1279
Y-0.12
Y-0.1121
Y-0.1042
Y-0.0964
Y-0.0885
Y-0.0806
Y-0.0727
Y-0.0649
Y-0.057
Y-0.0491
Y-0.0413
Y-0.0334
Y-0.0255
Y-0.0176
Y-0.0098
Y-0.0019
Y0.0059
Y0.0138
Y0.0216
Y0.0295
Y0.0374
Y0.0453
Y0.0531
Y0.061
Y0.0689
Y0.0768
Y0.0846
Y0.0925
Y0.1004
Y0.1083
Y0.1161
Y0.124
Y0.1319
Y0.1398
Y0.1476
Y0.1555
Y0.1634
Y0.1712
Y0.1791
Y0.187
Y0.1949
Y0.2027
Y0.2106
Y0.2185
Y0.2264
Y0.2342
Y0.2421
Y0.25
Y0.2579
Y0.2657
Y0.2736
Y0.2815
Y0.2894
Y0.2972
Y0.3051
Y0.313
Y0.3209
Y0.3287
Y0.3366
Y0.3445
Y0.3524
Y0.3602
Y0.3681
Y0.376
Y0.3838
Y0.3917
Y0.3996
Y0.4075
Y0.4153
Y0.4232
Y0.4311
Y0.439
Y0.4468
Y0.4547
Y0.4626
Y0.4705
Y0.4783
Y0.4862
Y0.4941
Y0.502
Y0.5098
Y0.5177
Y0.5256
Y0.5335
Y0.5413
Y0.5492
Y0.5571
Y0.5649
Y0.5728
Y0.5807
Y0.5886
Y0.5964
Y0.6043
Y0.6122
Y0.6201
Y0.6279
Y0.6358
Y0.6437
Y0.6516
Y0.6594
Y0.6673
Y0.6752
Y0.6831
Y0.6909
Y0.6988
Y0.7067
Y0.7146
Y0.7224
Y0.7303
Y0.7382
Y0.7461
Y0.7539
Y0.7618
Y0.7697
Y0.7775
Y0.7854
Y0.7933
Y0.8012
Y0.809
Y0.8169
Y0.8248
Y0.8327
Y0.8405
Y0.8484
Y0.8563
Y0.8642
Y0.872
Y0.8799
Y0.8878
Y0.8957
Y0.9035
Y0.9114
Y0.9193
Y0.9272
Y0.935
Y0.9429
Y0.9508
Y0.9587
Y0.9665
Y0.9744
Y0.9823
Y0.9901
Y0.998
Y1.0059
Y1.0138
Y1.0216
Y1.0295
Y1.0374
Y1.0453
Y1.0531
Y1.061
Y1.0624
G0Z0.3937
X0.9374Y2.1875
G1Z-0.25F19.68
Y2.1796F39.37
Y2.1717
Y2.1638
Y2.156
Y2.1481
Y2.1402
Y2.1323
Y2.1245
Y2.1166
Y2.1087
Y2.1008
Y2.093
Y2.0851
Y2.0772
Y2.0693
Y2.0615
Y2.0536
Y2.0457
Y2.0378
Y2.03
Y2.0221
Y2.0142
Y2.0063
Y1.9985
Y1.9906
Y1.9827
Y1.9749
Y1.967
Y1.9591
Y1.9512
Y1.9434
Y1.9355
Y1.9276
Y1.9197
Y1.9119
Y1.904
Y1.8961
Y1.8882
Y1.8804
Y1.8725
Y1.8646
Y1.8567
Y1.8489
Y1.841
Y1.8331
Y1.8252
Y1.8174
Y1.8095
Y1.8016
Y1.7937
Y1.7859
Y1.778
Y1.7701
Y1.7623
Y1.7544
Y1.7465
Y1.7386
Y1.7308
Y1.7229
Y1.715
Y1.7071
Y1.6993
Y1.6914
Y1.6835
Y1.6756
Y1.6678
Y1.6599
Y1.652
Y1.6441
Y1.6363
Y1.6284
Y1.6205
Y1.6126
Y1.6048
Y1.5969
Y1.589
Y1.5812
Y1.5733
Y1.5654
Y1.5575
Y1.5497
Y1.5418
Y1.5339
Y1.526
Y1.5182
Y1.5103
Y1.5024
Y1.4945
Y1.4867
Y1.4788
Y1.4709
Y1.463
Y1.4552
Y1.4473
Y1.4394
Y1.4315
Y1.4237
Y1.4158
Y1.4079
Y1.4
Y1.3922
Y1.3843
Y1.3764
Y1.3686
Y1.3607
Y1.3528
Y1.3449
Y1.3371
Y1.3292
Y1.3213
Y1.3134
Y1.3056
Y1.2977
Y1.2898
Y1.2819
Y1.2741
Y1.2662
Y1.2583
Y1.2504
Y1.2426
Y1.2347
Y1.2268
Y1.2189
Y1.2111
Y1.2032
Y1.1953
Y1.1875
Y1.1796
Y1.1717
Y1.1638
Y1.156
Y1.1481
Y1.1402
Y1.1323
Y1.1245
Y1.1166
Y1.1087
Y1.1008
Y1.093
Y1.0851
Y1.0772
Y1.0693
Y1.0615
Y1.0536
Y1.0457
Y1.0378
Y1.03
Y1.0221
Y1.0142
Y1.0063
Y0.9985
Y0.9906
Y0.9827
Y0.9749
Y0.967
Y0.9591
Y0.9512
Y0.9434
Y0.9355
Y0.9276
Y0.9197
Y0.9119
Y0.904
Y0.8961
Y0.8882
Y0.8804
Y0.8725
Y0.8646
Y0.8567
Y0.8489
Y0.841
Y0.8331
Y0.8252
Y0.8174
Y0.8095
Y0.8016
Y0.7937
Y0.7859
Y0.778
Y0.7701
Y0.7623
Y0.7544
Y0.7465
Y0.7386
Y0.7308
Y0.7229
Y0.715
Y0.7071
Y0.6993
Y0.6914
Y0.6835
Y0.6756
Y0.6678
Y0.6599
Y0.652
Y0.6441
Y0.6363
Y0.6284
Y0.6205
Y0.6126
Y0.6048
Y0.5969
Y0.589
Y0.5812
Y0.5733
Y0.5654
Y0.5575
Y0.5497
Y0.5418
Y0.5339
Y0.526
Y0.5182
Y0.5103
Y0.5024
Y0.4945
Y0.4867
Y0.4788
Y0.4709
Y0.463
Y0.4552
Y0.4473
Y0.4394
Y0.4315
Y0.4237
Y0.4158
Y0.4079
Y0.4
Y0.3922
Y0.3843
Y0.3764
Y0.3686
Y0.3607
Y0.3528
Y0.3449
Y0.3371
Y0.3292
Y0.3213
Y0.3134
Y0.3056
Y0.2977
Y0.2898
Y0.2819
Y0.2741
Y0.2662
Y0.2583
Y0.2504
Y0.2426
Y0.2347
Y0.2268
Y0.2189
Y0.2111
Y0.2032
Y0.1953
Y0.1875
Y0.1796
Y0.1717
Y0.1638
Y0.156
Y0.1481
Y0.1402
Y0.1323
Y0.1245
Y0.1166
Y0.1087
Y0.1008
Y0.093
Y0.0851
Y0.0772
Y0.0693
Y0.0615
Y0.0536
Y0.0457
Y0.0378
Y0.03
Y0.0221
Y0.0142
Y0.0063
Y-0.0014
Y-0.0093
Y-0.0172
Y-0.025
Y-0.0329
Y-0.0408
Y-0.0487
Y-0.0565
Y-0.0644
Y-0.0723
Y-0.0802
Y-0.088
Y-0.0959
Y-0.1038
Y-0.1117
Y-0.1195
Y-0.1274
Y-0.1353
Y-0.1432
Y-0.151
Y-0.1589
Y-0.1668
Y-0.1747
Y-0.1825
Y-0.1904
Y-0.1983
Y-0.2062
Y-0.214
Y-0.2219
Y-0.2298
Y-0.2376
Y-0.2455
Y-0.2534
Y-0.2613
Y-0.2691
Y-0.277
Y-0.2849
Y-0.2928
Y-0.3006
Y-0.3085
Y-0.3164
Y-0.3243
Y-0.3321
Y-0.34
Y-0.3479
Y-0.3558
Y-0.3636
Y-0.3715
Y-0.3794
Y-0.3873
Y-0.3951
Y-0.403
Y-0.4109
Y-0.4187
Y-0.4266
Y-0.4345
Y-0.4424
Y-0.4502
Y-0.4581
Y-0.466
Y-0.4739
Y-0.4817
Y-0.4896
Y-0.4975
Y-0.5054
Y-0.5132
Y-0.5211
Y-0.529
Y-0.5369
Y-0.5447
Y-0.5526
Y-0.5605
Y-0.5684
Y-0.5762
Y-0.5841
Y-0.592
Y-0.5999
Y-0.6077
Y-0.6156
Y-0.6235
Y-0.6313
Y-0.6392
Y-0.6471
Y-0.655
Y-0.6628
Y-0.6707
Y-0.6786
Y-0.6865
Y-0.6943
Y-0.7022
Y-0.7101
Y-0.718
Y-0.7258
Y-0.7337
Y-0.7416
Y-0.7495
Y-0.7573
Y-0.7652
Y-0.7731
Y-0.781
Y-0.7888
Y-0.7967
Y-0.8046
Y-0.8125
Y-0.8203
Y-0.8282
Y-0.8361
Y-0.8439
Y-0.8518
Y-0.8597
Y-0.8676
Y-0.8754
Y-0.8833
Y-0.8912
Y-0.8991
Y-0.9069
Y-0.9148
Y-0.9227
Y-0.9306
Y-0.9384
Y-0.9463
Y-0.9542
Y-0.9621
Y-0.9699
Y-0.9778
Y-0.9857
Y-0.9936
Y-1.0014
Y-1.0093
Y-1.0172
Y-1.025
Y-1.0329
Y-1.0408
Y-1.0487
Y-1.0565
Y-1.0644
Y-1.0723
Y-1.0802
Y-1.088
Y-1.0959
Y-1.1038
Y-1.1117
Y-1.1195
Y-1.1274
Y-1.1353
Y-1.1432
Y-1.151
Y-1.1589
Y-1.1668
Y-1.1747
Y-1.1825
Y-1.1904
Y-1.1983
Y-1.2062
Y-1.214
Y-1.2219
Y-1.2298
Y-1.2376
Y-1.2455
Y-1.2534
Y-1.2613
Y-1.2691
Y-1.277
Y-1.2849
Y-1.2928
Y-1.3006
Y-1.3085
Y-1.3164
Y-1.3243
Y-1.3321
Y-1.34
Y-1.3479
Y-1.3558
Y-1.3636
Y-1.3715
Y-1.3794
Y-1.3873
Y-1.3951
Y-1.403
Y-1.4109
Y-1.4187
Y-1.4266
Y-1.4345
Y-1.4424
Y-1.4502
Y-1.4581
Y-1.466
Y-1.4739
Y-1.4817
Y-1.4896
Y-1.4975
Y-1.5054
Y-1.5132
Y-1.5211
Y-1.529
Y-1.5369
Y-1.5447
Y-1.5526
Y-1.5605
Y-1.5684
Y-1.5762
Y-1.5841
Y-1.592
Y-1.5999
Y-1.6077
Y-1.6156
Y-1.6235
Y-1.6313
Y-1.6392
Y-1.6471
Y-1.655
Y-1.6628
Y-1.6707
Y-1.6786
Y-1.6865
Y-1.6943
Y-1.7022
Y-1.7101
Y-1.718
Y-1.7258
Y-1.7337
Y-1.7416
Y-1.7495
Y-1.7573
Y-1.7652
Y-1.7731
Y-1.781
Y-1.7888
Y-1.7967
Y-1.8046
Y-1.8125
Y-1.8203
Y-1.8282
Y-1.8361
Y-1.8439
Y-1.8518
Y-1.8597
Y-1.8676
Y-1.8754
Y-1.8833
Y-1.8912
Y-1.8991
Y-1.9069
Y-1.9148
Y-1.9227
Y-1.9306
Y-1.9384
Y-1.9463
Y-1.9542
Y-1.9621
Y-1.9699
Y-1.9778
Y-1.9857
Y-1.9936
Y-2.0014
Y-2.0093
Y-2.0172
Y-2.025
Y-2.0329
Y-2.0408
Y-2.0487
Y-2.0565
Y-2.0644
Y-2.0723
Y-2.0802
Y-2.088
Y-2.0959
Y-2.1038
Y-2.1117
Y-2.1195
Y-2.1274
Y-2.1353
Y-2.1432
Y-2.151
Y-2.1589
Y-2.1668
Y-2.1747
Y-2.1825
Y-2.1904
Y-2.1983
Y-2.2062
Y-2.214
Y-2.2219
Y-2.2298
Y-2.2376
Y-2.2455
Y-2.2534
Y-2.2613
Y-2.2691
Y-2.277
Y-2.2849
Y-2.2928
Y-2.3006
Y-2.3085
Y-2.3164
Y-2.3243
Y-2.3321
Y-2.34
Y-2.3479
Y-2.3558
Y-2.3636
Y-2.3715
Y-2.3794
Y-2.3873
Y-2.3951
Y-2.403
Y-2.4109
Y-2.4187
Y-2.4266
Y-2.4345
Y-2.4424
Y-2.4502
Y-2.4581
Y-2.466
Y-2.4739
Y-2.4817
Y-2.4896
Y-2.4975
Y-2.5054
Y-2.5132
Y-2.5211
Y-2.529
Y-2.5369
Y-2.5447
Y-2.5526
Y-2.5605
Y-2.5684
Y-2.5762
Y-2.5841
Y-2.592
Y-2.5999
Y-2.6077
Y-2.6156
Y-2.6235
Y-2.6313
Y-2.6392
Y-2.6471
Y-2.655
Y-2.6628
Y-2.6707
Y-2.6786
Y-2.6865
Y-2.6943
Y-2.7022
Y-2.7101
Y-2.718
Y-2.7258
Y-2.7337
Y-2.7416
Y-2.7495
Y-2.7573
Y-2.7652
Y-2.7731
Y-2.781
Y-2.7888
Y-2.7967
Y-2.8046
Y-2.8125
Y-2.8203
Y-2.8282
Y-2.8361
Y-2.8439
Y-2.8518
Y-2.8597
Y-2.8676
Y-2.8754
Y-2.8833
Y-2.8912
Y-2.8991
Y-2.9069
Y-2.9148
Y-2.9227
Y-2.9306
Y-2.9384
Y-2.9463
Y-2.9542
Y-2.9621
Y-2.9699
Y-2.9778
Y-2.9857
Y-2.9936
Y-3.0014
Y-3.0093
Y-3.0172
Y-3.025
Y-3.0329
Y-3.0408
Y-3.0487
Y-3.0565
Y-3.0644
Y-3.0723
Y-3.0802
Y-3.088
Y-3.0959
Y-3.1038
Y-3.1117
Y-3.1195
Y-3.1274
Y-3.1353
Y-3.1432
Y-3.151
Y-3.1589
Y-3.1668
Y-3.1747
Y-3.1825
Y-3.1904
Y-3.1983
Y-3.2062
Y-3.214
Y-3.2219
Y-3.2298
Y-3.2376
Y-3.2455
Y-3.2534
Y-3.2613
Y-3.2691
Y-3.277
Y-3.2849
Y-3.2928
Y-3.3006
Y-3.3085
Y-3.3125
X0.9371Y-3.3186
X0.9362Y-3.3246
X0.9348Y-3.3306
X0.9327Y-3.3364
X0.9301Y-3.3419
X0.9269Y-3.3472
X0.9232Y-3.3521
X0.9191Y-3.3567
X0.9146Y-3.3608
X0.9096Y-3.3645
X0.9044Y-3.3676
X0.8988Y-3.3702
X0.8931Y-3.3723
X0.8871Y-3.3738
X0.881Y-3.3747
X0.8749Y-3.375
X0.867
X0.8592
X0.8513
X0.8434
X0.8355
X0.8277
X0.8198
X0.8119
X0.804
X0.7962
X0.7883
X0.7804
X0.7725
X0.7647
X0.7568
X0.7489
X0.7411
X0.7332
X0.7253
X0.7174
X0.7096
X0.7017
X0.6938
X0.6859
X0.6781
X0.6702
X0.6623
X0.6544
X0.6466
X0.6387
X0.6308
X0.6229
X0.6151
X0.6072
X0.5993
X0.5914
X0.5836
X0.5757
X0.5678
X0.5599
X0.5521
X0.5442
X0.5363
X0.5285
X0.5206
X0.5127
X0.5048
X0.497
X0.4891
X0.4812
X0.4733
X0.4655
X0.4576
X0.4497
X0.4418
X0.434
X0.4261
X0.4182
X0.4103
X0.4025
X0.3946
X0.3867
X0.3788
X0.371
