(Created with grbl post processor 2026/05/27 17:42)
G20
(G-code Generated with Fabex and NC library)
(Rapids: 196.85/min)
G17G90
(Tool: D = 0.1181''  type END flutes 2)
S15000M03
G00 Z0.2 F196.85

G0X0Y0Z0.2
X1.625Y0.6024
G1Z-0.0608F19.68
Y-10.7003F39.37
G0Z0.2
X0.1875Y-11.9485
G1Z-0.0608F19.68
Y0.6024F39.37
G0Z0.2
(Tool: D = 0.0625''  type END flutes 2)
S15000M03
G00 Z0.2 F196.85

X0.4652Y-0.2305
G1Z-0.0624F19.68
Y-6.3474F39.37
X0.9099Y-5.9347
X1.3488Y-6.3474
Y-0.2305
X0.9099Y-0.6433
X0.4652Y-0.2305
G0Z0.2
X0.5525Y-0.0258
G1Z-0.0624F19.68
X0.5294Y-0.0034F39.37
X0.9062Y0.3629
X1.283Y-0.0034
X0.9062Y-0.3697
X0.5525Y-0.0258
X0.5743Y-0.0034
X0.9062Y0.3193
X1.2382Y-0.0034
X0.9062Y-0.3261
X0.5743Y-0.0034
G0Z0.2
X0.9099Y-0.6869
G1Z-0.0624F19.68
X0.8881Y-0.6657F39.37
X0.4965Y-0.3047
Y-6.2732
X0.8881Y-5.9123
X0.9099Y-5.891
X0.9317Y-5.9123
X1.3175Y-6.2732
Y-0.3047
X0.9317Y-0.6657
X0.9099Y-0.6869
G0Z0.2
X1.0893Y-0.8343
G1Z-0.0624F19.68
Y-5.5601F39.37
X0.9099Y-5.3942
X0.7211Y-5.5601
Y-0.8343
X0.9099Y-1.0001
X1.0893Y-0.8343
G0Z0.2
X0.9062Y-6.2082
G1Z-0.0624F19.68
X0.5294Y-6.5746F39.37
X0.9062Y-6.941
X1.283Y-6.5746
X0.9062Y-6.2082
Y-6.2518
X0.5743Y-6.5746
X0.9062Y-6.8974
X1.2382Y-6.5746
X0.9062Y-6.2518
G0Z0.2
X0.9099Y-7.258
G1Z-0.0624F19.68
X0.8881Y-7.2367F39.37
X0.4965Y-6.8758
Y-9.0645
G0Z0.2
X1.3175
G1Z-0.0624F19.68
Y-6.8758F39.37
X0.9317Y-7.2367
X0.9099Y-7.258
G0Z0.2
X1.3488Y-9.0645
G1Z-0.0624F19.68
Y-6.8016F39.37
X0.9099Y-7.2143
X0.4652Y-6.8016
Y-9.0645
G0Z0.2
X0.7211Y-10.0029
G1Z-0.0624F19.68
Y-7.4053F39.37
X0.9099Y-7.5712
X1.0893Y-7.4053
Y-9.6376
G0Z0.2
X0.4652Y-0.2305
G1Z-0.125F19.68
Y-6.3474F39.37
X0.9099Y-5.9347
X1.3488Y-6.3474
Y-0.2305
X0.9099Y-0.6433
X0.4652Y-0.2305
G0Z0.2
X0.5525Y-0.0258
G1Z-0.125F19.68
X0.5294Y-0.0034F39.37
X0.9062Y0.3629
X1.283Y-0.0034
X0.9062Y-0.3697
X0.5525Y-0.0258
X0.5743Y-0.0034
X0.9062Y0.3193
X1.2382Y-0.0034
X0.9062Y-0.3261
X0.5743Y-0.0034
G0Z0.2
X0.9099Y-0.6869
G1Z-0.125F19.68
X0.8881Y-0.6657F39.37
X0.4965Y-0.3047
Y-6.2732
X0.8881Y-5.9123
X0.9099Y-5.891
X0.9317Y-5.9123
X1.3175Y-6.2732
Y-0.3047
X0.9317Y-0.6657
X0.9099Y-0.6869
G0Z0.2
X1.0893Y-0.8343
G1Z-0.125F19.68
Y-5.5601F39.37
X0.9099Y-5.3942
X0.7211Y-5.5601
Y-0.8343
X0.9099Y-1.0001
X1.0893Y-0.8343
G0Z0.2
X0.9062Y-6.2082
G1Z-0.125F19.68
X0.5294Y-6.5746F39.37
X0.9062Y-6.941
X1.283Y-6.5746
X0.9062Y-6.2082
Y-6.2518
X0.5743Y-6.5746
X0.9062Y-6.8974
X1.2382Y-6.5746
X0.9062Y-6.2518
G0Z0.2
X0.9099Y-7.258
G1Z-0.125F19.68
X0.8881Y-7.2367F39.37
X0.4965Y-6.8758
Y-9.0645
G0Z0.2
X1.3175
G1Z-0.125F19.68
Y-6.8758F39.37
X0.9317Y-7.2367
X0.9099Y-7.258
G0Z0.2
X1.3488Y-9.0645
G1Z-0.125F19.68
Y-6.8016F39.37
X0.9099Y-7.2143
X0.4652Y-6.8016
Y-9.0645
G0Z0.2
X0.7211Y-10.0029
G1Z-0.125F19.68
Y-7.4053F39.37
X0.9099Y-7.5712
X1.0893Y-7.4053
Y-9.6376
G0Z0.2
 
