(Created with grbl post processor 2026/05/28 14:41)
G20
(G-code Generated with Fabex and NC library)
(Rapids: 196.85/min)
G17G90
(Tool: D = 0.1181''  type END flutes 2)
S15000M03
G00 Z0.2 F196.85

G0X0Y0Z0.2
X1.4375Y11.5788
G1Z0.0312F19.68
Y-0.5294F39.37
X1.3125
Y11.5788
X1.1875
Y-0.5294
X1.0625
Y11.5788
X0.9375
Y-0.5294
X0.8125
Y11.5788
X0.6875
Y-0.5294
X0.5626
Y11.5788
G0Z0.2
X1.4375
G1Z0F19.68
Y-0.5294F39.37
X1.3125
Y11.5788
X1.1875
Y-0.5294
X1.0625
Y11.5788
X0.9375
Y-0.5294
X0.8125
Y11.5788
X0.6875
Y-0.5294
X0.5626
Y11.5788
G0Z0.2
X1.4375
G1Z-0.0312F19.68
Y-0.5294F39.37
X1.3125
Y11.5788
X1.1875
Y-0.5294
X1.0625
Y11.5788
X0.9375
Y-0.5294
X0.8125
Y11.5788
X0.6875
Y-0.5294
X0.5626
Y11.5788
G0Z0.2
X1.4375
G1Z-0.0624F19.68
Y-0.5294F39.37
X1.3125
Y11.5788
X1.1875
Y-0.5294
X1.0625
Y11.5788
X0.9375
Y-0.5294
X0.8125
Y11.5788
X0.6875
Y-0.5294
X0.5626
Y11.5788
G0Z0.2
 
