(Created with grbl post processor 2026/05/27 17:42)
G20
(G-code Generated with Fabex and NC library)
(Rapids: 196.85/min)
G17G90
(Tool: D = 0.1181''  type END flutes 2)
S15000M03
G00 Z0.2 F196.85

G0X0Y0Z0.2
X1.625Y-0.6092
G1Z-0.0608F19.68
Y10.6935F39.37
G0Z0.2
X0.1875Y11.9417
G1Z-0.0608F19.68
Y-0.6092F39.37
G0Z0.2
(Tool: D = 0.0625''  type END flutes 2)
S15000M03
G00 Z0.2 F196.85

X0.4652Y0.2237
G1Z-0.0624F19.68
Y6.3406F39.37
X0.9099Y5.9279
X1.3488Y6.3406
Y0.2237
X0.9099Y0.6365
X0.4652Y0.2237
G0Z0.2
X0.9099Y0.6801
G1Z-0.0624F19.68
X0.8881Y0.6589F39.37
X0.4965Y0.2979
Y6.2664
X0.8881Y5.9055
X0.9099Y5.8842
X0.9317Y5.9055
X1.3175Y6.2664
Y0.2979
X0.9317Y0.6589
X0.9099Y0.6801
G0Z0.2
X1.0893Y0.8275
G1Z-0.0624F19.68
Y5.5533F39.37
X0.9099Y5.3874
X0.7211Y5.5533
Y0.8275
X0.9099Y0.9933
X1.0893Y0.8275
G0Z0.2
X0.9062Y6.2014
G1Z-0.0624F19.68
X0.5294Y6.5678F39.37
X0.9062Y6.9342
X1.283Y6.5678
X0.9062Y6.2014
Y6.245
X0.5743Y6.5678
X0.9062Y6.8906
X1.2382Y6.5678
X0.9062Y6.245
G0Z0.2
X0.9099Y7.2512
G1Z-0.0624F19.68
X0.8881Y7.2299F39.37
X0.4965Y6.869
Y9.0577
G0Z0.2
X1.3175
G1Z-0.0624F19.68
Y6.869F39.37
X0.9317Y7.2299
X0.9099Y7.2512
G0Z0.2
X1.3488Y9.0577
G1Z-0.0624F19.68
Y6.7948F39.37
X0.9099Y7.2075
X0.4652Y6.7948
Y9.0577
G0Z0.2
X0.7211Y9.996
G1Z-0.0624F19.68
Y7.3985F39.37
X0.9099Y7.5644
X1.0893Y7.3985
Y9.6307
G0Z0.2
X0.4652Y0.2237
G1Z-0.125F19.68
Y6.3406F39.37
X0.9099Y5.9279
X1.3488Y6.3406
Y0.2237
X0.9099Y0.6365
X0.4652Y0.2237
G0Z0.2
X0.9099Y0.6801
G1Z-0.125F19.68
X0.8881Y0.6589F39.37
X0.4965Y0.2979
Y6.2664
X0.8881Y5.9055
X0.9099Y5.8842
X0.9317Y5.9055
X1.3175Y6.2664
Y0.2979
X0.9317Y0.6589
X0.9099Y0.6801
G0Z0.2
X1.0893Y0.8275
G1Z-0.125F19.68
Y5.5533F39.37
X0.9099Y5.3874
X0.7211Y5.5533
Y0.8275
X0.9099Y0.9933
X1.0893Y0.8275
G0Z0.2
X0.9062Y6.2014
G1Z-0.125F19.68
X0.5294Y6.5678F39.37
X0.9062Y6.9342
X1.283Y6.5678
X0.9062Y6.2014
Y6.245
X0.5743Y6.5678
X0.9062Y6.8906
X1.2382Y6.5678
X0.9062Y6.245
G0Z0.2
X0.9099Y7.2512
G1Z-0.125F19.68
X0.8881Y7.2299F39.37
X0.4965Y6.869
Y9.0577
G0Z0.2
X1.3175
G1Z-0.125F19.68
Y6.869F39.37
X0.9317Y7.2299
X0.9099Y7.2512
G0Z0.2
X1.3488Y9.0577
G1Z-0.125F19.68
Y6.7948F39.37
X0.9099Y7.2075
X0.4652Y6.7948
Y9.0577
G0Z0.2
X0.7211Y9.996
G1Z-0.125F19.68
Y7.3985F39.37
X0.9099Y7.5644
X1.0893Y7.3985
Y9.6307
G0Z0.2
 
