(Created with grbl post processor 2026/05/27 17:42)
G20
(G-code Generated with Fabex and NC library)
(Rapids: 196.85/min)
G17G90
(Tool: D = 0.1181''  type END flutes 2)
S15000M03
G00 Z0.2 F196.85

G0X0Y0Z0.2
X1.4375Y-11.5856
G1Z-0.0312F19.68
Y0.5226F39.37
X1.3125
Y-11.5856
X1.1875
Y0.5226
X1.0625
Y-11.5856
X0.9375
Y0.5226
X0.8125
Y-11.5856
X0.6875
Y0.5226
X0.5626
Y-11.5856
G0Z0.2
X1.4375
G1Z-0.0624F19.68
Y0.5226F39.37
X1.3125
Y-11.5856
X1.1875
Y0.5226
X1.0625
Y-11.5856
X0.9375
Y0.5226
X0.8125
Y-11.5856
X0.6875
Y0.5226
X0.5626
Y-11.5856
G0Z0.2
 
