(Created with grbl post processor 2026/05/26 17:17)
G20
(G-code Generated with Fabex and NC library)
(Rapids: 196.85/min)
G17G90
(Tool: D = 0.125''  type END flutes 2)
S15000M03
G00 Z0.39 F196.85

G0X0Y0Z0.3937
X10.1875Y-3.375
G1Z-0.125F19.68
X10.1796F39.37
X10.1717
X10.1638
X10.156
X10.1481
X10.1402
X10.1323
X10.1245
X10.1166
X10.1087
X10.1008
X10.093
X10.0851
X10.0772
X10.0693
X10.0615
X10.0536
X10.0457
X10.0378
X10.03
X10.0221
X10.0142
X10.0063
X9.9985
X9.9906
X9.9827
X9.9749
X9.967
X9.9591
X9.9512
X9.9434
X9.9355
X9.9276
X9.9197
X9.9119
X9.904
X9.8961
X9.8882
X9.8804
X9.8725
X9.8646
X9.8567
X9.8489
X9.841
X9.8331
X9.8252
X9.8174
X9.8095
X9.8016
X9.7937
X9.7859
X9.778
X9.7701
X9.7623
X9.7544
X9.7465
X9.7386
X9.7308
X9.7229
X9.715
X9.7071
X9.6993
X9.6914
X9.6835
X9.6756
X9.6678
X9.6599
X9.652
X9.6441
X9.6363
X9.6284
X9.6205
X9.6126
X9.6048
X9.5969
X9.589
X9.5812
X9.5733
X9.5654
X9.5575
X9.5497
X9.5418
X9.5339
X9.526
X9.5182
X9.5103
X9.5024
X9.4945
X9.4867
X9.4788
X9.4709
X9.463
X9.4552
X9.4473
X9.4394
X9.4315
X9.4237
X9.4158
X9.4079
X9.4
X9.3922
X9.3843
X9.3764
X9.3686
X9.3607
X9.3528
X9.3449
X9.3371
X9.3292
X9.3213
X9.3134
X9.3056
X9.2977
X9.2898
X9.2819
X9.2741
X9.2662
X9.2583
X9.2504
X9.2426
X9.2347
X9.2268
X9.2189
X9.2111
X9.2032
X9.1953
X9.1875
X9.1796
X9.1717
X9.1638
X9.156
X9.1481
X9.1402
X9.1323
X9.1245
X9.1166
X9.1087
X9.1008
X9.093
X9.0851
X9.0772
X9.0693
X9.0615
X9.0536
X9.0457
X9.0378
X9.03
X9.0221
X9.0142
X9.0063
X8.9985
X8.9906
X8.9827
X8.9749
X8.967
X8.9591
X8.9512
X8.9434
X8.9355
X8.9276
X8.9197
X8.9119
X8.904
X8.8961
X8.8882
X8.8804
X8.8725
X8.8646
X8.8567
X8.8489
X8.841
X8.8331
X8.8252
X8.8174
X8.8095
X8.8016
X8.7937
X8.7859
X8.778
X8.7701
X8.7623
X8.7544
X8.7465
X8.7386
X8.7308
X8.7229
X8.715
X8.7071
X8.6993
X8.6914
X8.6835
X8.6756
X8.6678
X8.6599
X8.652
X8.6441
X8.6363
X8.6284
X8.6205
X8.6126
X8.6048
X8.5969
X8.589
X8.5812
X8.5733
X8.5654
X8.5575
X8.5497
X8.5418
X8.5339
X8.526
X8.5182
X8.5103
X8.5024
X8.4945
X8.4867
X8.4788
X8.4709
X8.463
X8.4552
X8.4473
X8.4394
X8.4315
X8.4237
X8.4158
X8.4079
X8.4
X8.3922
X8.3843
X8.3764
X8.3686
X8.3607
X8.3528
X8.3449
X8.3371
X8.3292
X8.3213
X8.3134
X8.3056
X8.2977
X8.2898
X8.2819
X8.2741
X8.2662
X8.2583
X8.2504
X8.2426
X8.2347
X8.2268
X8.2189
X8.2111
X8.2032
X8.1953
X8.1875
X8.1796
X8.1717
X8.1638
X8.156
X8.1481
X8.1402
X8.1323
X8.1245
X8.1166
X8.1087
X8.1008
X8.093
X8.0851
X8.0772
X8.0693
X8.0615
X8.0536
X8.0457
X8.0378
X8.03
X8.0221
X8.0142
X8.0063
X7.9985
X7.9906
X7.9827
X7.9749
X7.967
X7.9591
X7.9512
X7.9434
X7.9355
X7.9276
X7.9197
X7.9119
X7.904
X7.8961
X7.8882
X7.8804
X7.8725
X7.8646
X7.8567
X7.8489
X7.841
X7.8331
X7.8252
X7.8174
X7.8095
X7.8016
X7.7938
X7.7859
X7.778
X7.7701
X7.7623
X7.7544
X7.7465
X7.7386
X7.7308
X7.7229
X7.715
X7.7071
X7.6993
X7.6914
X7.6835
X7.6756
X7.6678
X7.6599
X7.652
X7.6441
X7.6363
X7.6284
X7.6205
X7.6126
X7.6048
X7.5969
X7.589
X7.5812
X7.5733
X7.5654
X7.5575
X7.5497
X7.5418
X7.5339
X7.526
X7.5182
X7.5103
X7.5024
X7.4945
X7.4867
X7.4788
X7.4709
X7.463
X7.4552
X7.4473
X7.4394
X7.4315
X7.4237
X7.4158
X7.4079
X7.4
X7.3922
X7.3843
X7.3764
X7.3686
X7.3607
X7.3528
X7.3449
X7.3371
X7.3292
X7.3213
X7.3134
X7.3056
X7.2977
X7.2898
X7.2819
X7.2741
X7.2662
X7.2583
X7.2504
X7.2426
X7.2347
X7.2268
X7.2189
X7.2111
X7.2032
X7.1953
X7.1875
X7.1796
X7.1717
X7.1638
X7.156
X7.1481
X7.1402
X7.1323
X7.1245
X7.1166
X7.1087
X7.1008
X7.093
X7.0851
X7.0772
X7.0693
X7.0615
X7.0536
X7.0457
X7.0378
X7.03
X7.0221
X7.0142
X7.0063
X6.9985
X6.9906
X6.9827
X6.9749
X6.967
X6.9591
X6.9512
X6.9434
X6.9355
X6.9276
X6.9197
X6.9119
X6.904
X6.8961
X6.8882
X6.8804
X6.8725
X6.8646
X6.8567
X6.8489
X6.841
X6.8331
X6.8252
X6.8174
X6.8095
X6.8016
X6.7938
X6.7859
X6.778
X6.7701
X6.7623
X6.7544
X6.7465
X6.7386
X6.7308
X6.7229
X6.715
X6.7071
X6.6993
X6.6914
X6.6835
X6.6756
X6.6678
X6.6599
X6.652
X6.6441
X6.6363
X6.6284
X6.6205
X6.6126
X6.6048
X6.5969
X6.589
X6.5812
X6.5733
X6.5654
X6.5575
X6.5497
X6.5418
X6.5339
X6.526
X6.5182
X6.5103
X6.5024
X6.4945
X6.4867
X6.4788
X6.4709
X6.463
X6.4552
X6.4473
X6.4394
X6.4315
X6.4237
X6.4158
X6.4079
X6.4
X6.3922
X6.3843
X6.3764
X6.3686
X6.3607
X6.3528
X6.3449
X6.3371
X6.3292
X6.3213
X6.3134
X6.3056
X6.2977
X6.2898
X6.2819
X6.2741
X6.2662
X6.2583
X6.2504
X6.2426
X6.2347
X6.2268
X6.2189
X6.2111
X6.2032
X6.1953
X6.1875
X6.1796
X6.1717
X6.1638
X6.156
X6.1481
X6.1402
X6.1323
X6.1245
X6.1166
X6.1087
X6.1008
X6.093
X6.0851
X6.0772
X6.0693
X6.0615
X6.0536
X6.0457
X6.0378
X6.03
X6.0221
X6.0142
X6.0063
X5.9985
X5.9906
X5.9827
X5.9749
X5.967
X5.9591
X5.9512
X5.9434
X5.9355
X5.9276
X5.9197
X5.9119
X5.904
X5.8961
X5.8882
X5.8804
X5.8725
X5.8646
X5.8567
X5.8489
X5.841
X5.8331
X5.8252
X5.8174
X5.8095
X5.8016
X5.7938
X5.7859
X5.778
X5.7701
X5.7623
X5.7544
X5.7465
X5.7386
X5.7308
X5.7229
X5.715
X5.7071
X5.6993
X5.6914
X5.6835
X5.6756
X5.6678
X5.6599
X5.652
X5.6441
X5.6363
X5.6284
X5.6205
X5.6126
X5.6048
X5.5969
X5.589
X5.5812
X5.5733
X5.5654
X5.5575
X5.5497
X5.5418
X5.5339
X5.526
X5.5182
X5.5103
X5.5024
X5.4945
X5.4867
X5.4788
X5.4709
X5.463
X5.4552
X5.4473
X5.4394
X5.4315
X5.4237
X5.4158
X5.4079
X5.4
X5.3922
X5.3843
X5.3764
X5.3686
X5.3607
X5.3528
X5.3449
X5.3371
X5.3292
X5.3213
X5.3134
X5.3056
X5.2977
X5.2898
X5.2819
X5.2741
X5.2662
X5.2583
X5.2504
X5.2426
X5.2347
X5.2268
X5.2189
X5.2111
X5.2032
X5.1953
X5.1875
X5.1796
X5.1717
X5.1638
X5.156
X5.1481
X5.1402
X5.1323
X5.1245
X5.1166
X5.1087
X5.1008
X5.093
X5.0851
X5.0772
X5.0693
X5.0615
X5.0536
X5.0457
X5.0378
X5.03
X5.0221
X5.0142
X5.0063
X4.9985
X4.9906
X4.9827
X4.9749
X4.967
X4.9591
X4.9512
X4.9434
X4.9355
X4.9276
X4.9197
X4.9119
X4.904
X4.8961
X4.8882
X4.8804
X4.8725
X4.8646
X4.8567
X4.8489
X4.841
X4.8331
X4.8252
X4.8174
X4.8095
X4.8016
X4.7938
X4.7859
X4.778
X4.7701
X4.7623
X4.7544
X4.7465
X4.7386
X4.7308
X4.7229
X4.715
X4.7071
X4.6993
X4.6914
X4.6835
X4.6756
X4.6678
X4.6599
X4.652
X4.6441
X4.6363
X4.6284
X4.6205
X4.6126
X4.6048
X4.5969
X4.589
X4.5812
X4.5733
X4.5654
X4.5575
X4.5497
X4.5418
X4.5339
X4.526
X4.5182
X4.5103
X4.5024
X4.4945
X4.4867
X4.4788
X4.4709
X4.463
X4.4552
X4.4473
X4.4394
X4.4315
X4.4237
X4.4158
X4.4079
X4.4
X4.3922
X4.3843
X4.3764
X4.3686
X4.3607
X4.3528
X4.3449
X4.3371
X4.3292
X4.3213
X4.3134
X4.3056
X4.2977
X4.2898
X4.2819
X4.2741
X4.2662
X4.2583
X4.2504
X4.2426
X4.2347
X4.2268
X4.2189
X4.2111
X4.2032
X4.1953
X4.1875
X4.1796
X4.1717
X4.1638
X4.156
X4.1481
X4.1402
X4.1323
X4.1245
X4.1166
X4.1087
X4.1008
X4.093
X4.0851
X4.0772
X4.0693
X4.0615
X4.0536
X4.0457
X4.0378
X4.03
X4.0221
X4.0142
X4.0063
X3.9985
X3.9906
X3.9827
X3.9749
X3.967
X3.9591
X3.9512
X3.9434
X3.9355
X3.9276
X3.9197
X3.9119
X3.904
X3.8961
X3.8882
X3.8804
X3.8725
X3.8646
X3.8567
X3.8489
X3.841
X3.8331
X3.8252
X3.8174
X3.8095
X3.8016
X3.7938
X3.7859
X3.778
X3.7701
X3.7623
X3.7544
X3.7465
X3.7386
X3.7308
X3.7229
X3.715
X3.7071
X3.6993
X3.6914
X3.6835
X3.6756
X3.6678
X3.6599
X3.652
X3.6441
X3.6363
X3.6284
X3.6205
X3.6126
X3.6048
X3.5969
X3.589
X3.5812
X3.5733
X3.5654
X3.5575
X3.5497
X3.5418
X3.5339
X3.526
X3.5182
X3.5103
X3.5024
X3.4945
X3.4867
X3.4788
X3.4709
X3.463
X3.4552
X3.4473
X3.4394
X3.4315
X3.4237
X3.4158
X3.4079
X3.4
X3.3922
X3.3843
X3.3764
X3.3686
X3.3607
X3.3528
X3.3449
X3.3371
X3.3292
X3.3213
X3.3134
X3.3056
X3.2977
X3.2898
X3.2819
X3.2741
X3.2662
X3.2583
X3.2504
X3.2426
X3.2347
X3.2268
X3.2189
X3.2111
X3.2032
X3.1953
X3.1875
X3.1796
X3.1717
X3.1638
X3.156
X3.1481
X3.1402
X3.1323
X3.1245
X3.1166
X3.1087
X3.1008
X3.093
X3.0851
X3.0772
X3.0693
X3.0615
X3.0536
X3.0457
X3.0378
X3.03
X3.0221
X3.0142
X3.0063
X2.9985
X2.9906
X2.9827
X2.9749
X2.967
X2.9591
X2.9512
X2.9434
X2.9355
X2.9276
X2.9197
X2.9119
X2.904
X2.8961
X2.8882
X2.8804
X2.8725
X2.8646
X2.8567
X2.8489
X2.841
X2.8331
X2.8252
X2.8174
X2.8095
X2.8016
X2.7938
X2.7859
X2.778
X2.7701
X2.7623
X2.7544
X2.7465
X2.7386
X2.7308
X2.7229
X2.715
X2.7071
X2.6993
X2.6914
X2.6835
X2.6756
X2.6678
X2.6599
X2.652
X2.6441
X2.6363
X2.6284
X2.6205
X2.6126
X2.6048
X2.5969
X2.589
X2.5812
X2.5733
X2.5654
X2.5575
X2.5497
X2.5418
X2.5339
X2.526
X2.5182
X2.5103
X2.5024
X2.4945
X2.4867
X2.4788
X2.4709
X2.463
X2.4552
X2.4473
X2.4394
X2.4315
X2.4237
X2.4158
X2.4079
X2.4
X2.3922
X2.3843
X2.3764
X2.3686
X2.3607
X2.3528
X2.3449
X2.3371
X2.3292
X2.3213
X2.3134
X2.3056
X2.2977
X2.2898
X2.2819
X2.2741
X2.2662
X2.2583
X2.2504
X2.2426
X2.2347
X2.2268
X2.2189
X2.2111
X2.2032
X2.1953
X2.1875
X2.1796
X2.1717
X2.1638
X2.156
X2.1481
X2.1402
X2.1323
X2.1245
X2.1166
X2.1087
X2.1008
X2.093
X2.0851
X2.0772
X2.0693
X2.0615
X2.0536
X2.0457
X2.0378
X2.03
X2.0221
X2.0142
X2.0063
X1.9985
X1.9906
X1.9827
X1.9749
X1.967
X1.9591
X1.9512
X1.9434
X1.9355
X1.9276
X1.9197
X1.9119
X1.904
X1.8961
X1.8882
X1.8804
X1.8725
X1.8646
X1.8567
X1.8489
X1.841
X1.8331
X1.8252
X1.8174
X1.8095
X1.8016
X1.7938
X1.7859
X1.778
X1.7701
X1.7623
X1.7544
X1.7465
X1.7386
X1.7308
X1.7229
X1.715
X1.7071
X1.6993
X1.6914
X1.6835
X1.6756
X1.6678
X1.6599
X1.652
X1.6441
X1.6363
X1.6284
X1.6205
X1.6126
X1.6048
X1.5969
X1.589
X1.5812
X1.5733
X1.5654
X1.5575
X1.5497
X1.5418
X1.5339
X1.526
X1.5182
X1.5103
X1.5024
X1.4945
X1.4867
X1.4788
X1.4709
X1.463
X1.4552
X1.4473
X1.4394
X1.4315
X1.4237
X1.4158
X1.4079
X1.4
X1.3922
X1.3843
X1.3764
X1.3686
X1.3607
X1.3528
X1.3449
X1.3371
X1.3292
X1.3213
X1.3134
X1.3056
X1.2977
X1.2898
X1.2819
X1.2741
X1.2662
X1.2583
X1.2504
X1.2426
X1.2347
X1.2268
X1.2189
X1.2111
X1.2032
X1.1953
X1.1875
X1.1796
X1.1717
X1.1638
X1.156
X1.1481
X1.1402
X1.1323
X1.1245
X1.1166
X1.1087
X1.1008
X1.093
X1.0851
X1.0772
X1.0693
X1.0615
X1.0536
X1.0457
X1.0378
X1.03
X1.0221
X1.0142
X1.0063
X0.9985
X0.9906
X0.9827
X0.9749
X0.967
X0.9591
X0.9512
X0.9434
X0.9355
X0.9276
X0.9197
X0.9119
X0.904
X0.8961
X0.8882
X0.8804
X0.8725
X0.8646
X0.8567
X0.8489
X0.841
X0.8331
X0.8252
X0.8174
X0.8095
X0.8016
X0.7938
X0.7859
X0.778
X0.7701
X0.7623
X0.7544
X0.7465
X0.7386
X0.7308
X0.7229
X0.715
X0.7071
X0.6993
X0.6914
X0.6835
X0.6756
X0.6678
X0.6599
X0.652
X0.6441
X0.6363
X0.6284
X0.6205
X0.6126
X0.6048
X0.5969
X0.589
X0.5812
X0.5733
X0.5654
X0.5575
X0.5497
X0.5418
X0.5339
X0.526
X0.5182
X0.5103
X0.5024
X0.4945
X0.4867
X0.4788
X0.4709
X0.463
X0.4552
X0.4473
X0.4394
X0.4315
X0.4237
X0.4158
X0.4079
X0.4
X0.3922
X0.3843
X0.3764
X0.3686
X0.3607
X0.3528
X0.3449
X0.3371
X0.3292
X0.3213
X0.3134
X0.3056
X0.2977
X0.2898
X0.2819
X0.2741
X0.2662
X0.2583
X0.2504
X0.2426
X0.2347
X0.2268
X0.2189
X0.2111
X0.2032
X0.1953
X0.1875
X0.1796
X0.1717
X0.1638
X0.156
X0.1481
X0.1402
X0.1323
X0.1245
X0.1166
X0.1087
X0.1008
X0.093
X0.0851
X0.0772
X0.0693
X0.0615
X0.0536
X0.0457
X0.0378
X0.03
X0.0221
X0.0142
X0.0063
X-0.0014
X-0.0093
X-0.0172
X-0.025
X-0.0329
X-0.0408
X-0.0487
X-0.0565
X-0.0644
X-0.0723
X-0.0802
X-0.088
X-0.0959
X-0.1038
X-0.1117
X-0.1195
X-0.1274
X-0.1353
X-0.1432
X-0.151
X-0.1589
X-0.1668
X-0.1747
X-0.1825
X-0.1904
X-0.1983
X-0.2062
X-0.214
X-0.2219
X-0.2298
X-0.2376
X-0.2455
X-0.2534
X-0.2613
X-0.2691
X-0.277
X-0.2849
X-0.2928
X-0.3006
X-0.3085
X-0.3164
X-0.3243
X-0.3321
X-0.34
X-0.3479
X-0.3558
X-0.3636
X-0.3715
X-0.3794
X-0.3873
X-0.3951
X-0.403
X-0.4109
X-0.4187
X-0.4266
X-0.4345
X-0.4424
X-0.4502
X-0.4581
X-0.466
X-0.4739
X-0.4817
X-0.4896
X-0.4975
X-0.5054
X-0.5132
X-0.5211
X-0.529
X-0.5369
X-0.5447
X-0.5526
X-0.5605
X-0.5684
X-0.5762
X-0.5841
X-0.592
X-0.5999
X-0.6077
X-0.6156
X-0.6235
X-0.6313
X-0.6392
X-0.6471
X-0.655
X-0.6628
X-0.6707
X-0.6786
X-0.6865
X-0.6943
X-0.7022
X-0.7101
X-0.718
X-0.7258
X-0.7337
X-0.7416
X-0.7495
X-0.7573
X-0.7652
X-0.7731
X-0.781
X-0.7888
X-0.7967
X-0.8046
X-0.8124
X-0.8203
X-0.8282
X-0.8361
X-0.8439
X-0.8518
X-0.8597
X-0.8676
X-0.8754
X-0.8833
X-0.8912
X-0.8991
X-0.9069
X-0.9148
X-0.9227
X-0.9306
X-0.9384
X-0.9463
X-0.9542
X-0.9621
X-0.9699
X-0.9778
X-0.9857
X-0.9936
X-1.0014
X-1.0093
X-1.0172
X-1.025
X-1.0329
X-1.0408
X-1.0487
X-1.0565
X-1.0644
X-1.0723
X-1.0802
X-1.088
X-1.0959
X-1.1038
X-1.1117
X-1.1195
X-1.1274
X-1.1353
X-1.1432
X-1.151
X-1.1589
X-1.1668
X-1.1747
X-1.1825
X-1.1904
X-1.1983
X-1.2062
X-1.214
X-1.2219
X-1.2298
X-1.2376
X-1.2455
X-1.2534
X-1.2613
X-1.2691
X-1.277
X-1.2849
X-1.2928
X-1.3006
X-1.3085
X-1.3164
X-1.3243
X-1.3321
X-1.34
X-1.3479
X-1.3558
X-1.3636
X-1.3715
X-1.3794
X-1.3873
X-1.3951
X-1.403
X-1.4109
X-1.4187
X-1.4266
X-1.4345
X-1.4424
X-1.4502
X-1.4581
X-1.466
X-1.4739
X-1.4817
X-1.4896
X-1.4975
X-1.5054
X-1.5132
X-1.5211
X-1.529
X-1.5369
X-1.5447
X-1.5526
X-1.5605
X-1.5684
X-1.5762
X-1.5841
X-1.592
X-1.5999
X-1.6077
X-1.6156
X-1.6235
X-1.6313
X-1.6392
X-1.6471
X-1.655
X-1.6628
X-1.6707
X-1.6786
X-1.6865
X-1.6943
X-1.7022
X-1.7101
X-1.718
X-1.7258
X-1.7337
X-1.7416
X-1.7495
X-1.7573
X-1.7652
X-1.7731
X-1.781
X-1.7888
X-1.7967
X-1.8046
X-1.8125
X-1.8203
X-1.8282
X-1.8361
X-1.8439
X-1.8518
X-1.8597
X-1.8676
X-1.8754
X-1.8833
X-1.8912
X-1.8991
X-1.9069
X-1.9148
X-1.9227
X-1.9306
X-1.9384
X-1.9463
X-1.9542
X-1.9621
X-1.9699
X-1.9778
X-1.9857
X-1.9936
X-2.0014
X-2.0093
X-2.0172
X-2.025
X-2.0329
X-2.0408
X-2.0487
X-2.0565
X-2.0644
X-2.0723
X-2.0802
X-2.088
X-2.0959
X-2.1038
X-2.1117
X-2.1195
X-2.1274
X-2.1353
X-2.1432
X-2.151
X-2.1589
X-2.1668
X-2.1747
X-2.1825
X-2.1904
X-2.1983
X-2.2062
X-2.214
X-2.2219
X-2.2298
X-2.2376
X-2.2455
X-2.2534
X-2.2613
X-2.2691
X-2.277
X-2.2849
X-2.2928
X-2.3006
X-2.3085
X-2.3164
X-2.3243
X-2.3321
X-2.34
X-2.3479
X-2.3558
X-2.3636
X-2.3715
X-2.3794
X-2.3873
X-2.3951
X-2.403
X-2.4109
X-2.4187
X-2.4266
X-2.4345
X-2.4424
X-2.4502
X-2.4581
X-2.466
X-2.4739
X-2.4817
X-2.4896
X-2.4975
X-2.5054
X-2.5132
X-2.5211
X-2.529
X-2.5369
X-2.5447
X-2.5526
X-2.5605
X-2.5684
X-2.5762
X-2.5841
X-2.592
X-2.5999
X-2.6077
X-2.6156
X-2.6235
X-2.6313
X-2.6392
X-2.6471
X-2.655
X-2.6628
X-2.6707
X-2.6786
X-2.6865
X-2.6943
X-2.7022
X-2.7101
X-2.718
X-2.7258
X-2.7337
X-2.7416
X-2.7495
X-2.7573
X-2.7652
X-2.7731
X-2.781
X-2.7888
X-2.7967
X-2.8046
X-2.8124
X-2.8203
X-2.8282
X-2.8361
X-2.8439
X-2.8518
X-2.8597
X-2.8676
X-2.8754
X-2.8833
X-2.8912
X-2.8991
X-2.9069
X-2.9148
X-2.9227
X-2.9306
X-2.9384
X-2.9463
X-2.9542
X-2.9621
X-2.9699
X-2.9778
X-2.9857
X-2.9936
X-3.0014
X-3.0093
X-3.0172
X-3.025
X-3.0329
X-3.0408
X-3.0487
X-3.0565
X-3.0644
X-3.0723
X-3.0802
X-3.088
X-3.0959
X-3.1038
X-3.1117
X-3.1195
X-3.1274
X-3.1353
X-3.1432
X-3.151
X-3.1589
X-3.1668
X-3.1747
X-3.1825
X-3.1904
X-3.1983
X-3.2062
X-3.214
X-3.2219
X-3.2298
X-3.2376
X-3.2455
X-3.2534
X-3.2613
X-3.2691
X-3.277
X-3.2849
X-3.2928
X-3.3006
X-3.3085
X-3.3164
X-3.3243
X-3.3321
X-3.34
X-3.3479
X-3.3558
X-3.3636
X-3.3715
X-3.3794
X-3.3873
X-3.3951
X-3.403
X-3.4109
X-3.4187
X-3.4266
X-3.4345
X-3.4424
X-3.4502
X-3.4581
X-3.466
X-3.4739
X-3.4817
X-3.4896
X-3.4975
X-3.5054
X-3.5132
X-3.5211
X-3.529
X-3.5369
X-3.5447
X-3.5526
X-3.5605
X-3.5684
X-3.5762
X-3.5841
X-3.592
X-3.5999
X-3.6077
X-3.6156
X-3.6235
X-3.6313
X-3.6392
X-3.6471
X-3.655
X-3.6628
X-3.6707
X-3.6786
X-3.6865
X-3.6943
X-3.7022
X-3.7101
X-3.718
X-3.7258
X-3.7337
X-3.7416
X-3.7495
X-3.7573
X-3.7652
X-3.7731
X-3.781
X-3.7888
X-3.7967
X-3.8046
X-3.8125
X-3.8203
X-3.8282
X-3.8361
X-3.8439
X-3.8518
X-3.8597
X-3.8676
X-3.8754
X-3.8833
X-3.8912
X-3.8991
X-3.9069
X-3.9148
X-3.9227
X-3.9306
X-3.9384
X-3.9463
X-3.9542
X-3.9621
X-3.9699
X-3.9778
X-3.9857
X-3.9936
X-4.0014
X-4.0093
X-4.0172
X-4.025
X-4.0329
X-4.0408
X-4.0487
X-4.0565
X-4.0644
X-4.0723
X-4.0802
X-4.088
X-4.0959
X-4.1038
X-4.1117
X-4.1195
X-4.1274
X-4.1353
X-4.1432
X-4.151
X-4.1589
X-4.1668
X-4.1747
X-4.1825
X-4.1904
X-4.1983
X-4.2062
X-4.214
X-4.2219
X-4.2298
X-4.2376
X-4.2455
X-4.2534
X-4.2613
X-4.2691
X-4.277
X-4.2849
X-4.2928
X-4.3006
X-4.3085
X-4.3164
X-4.3243
X-4.3321
X-4.34
X-4.3479
X-4.3558
X-4.3636
X-4.3715
X-4.3794
X-4.3873
X-4.3951
X-4.403
X-4.4109
X-4.4187
X-4.4266
X-4.4345
X-4.4424
X-4.4502
X-4.4581
X-4.466
X-4.4739
X-4.4817
X-4.4896
X-4.4975
X-4.5054
X-4.5132
X-4.5211
X-4.529
X-4.5369
X-4.5447
X-4.5526
X-4.5605
X-4.5684
X-4.5762
X-4.5841
X-4.592
X-4.5999
X-4.6077
X-4.6156
X-4.6235
X-4.6313
X-4.6392
X-4.6471
X-4.655
X-4.6628
X-4.6707
X-4.6786
X-4.6865
X-4.6943
X-4.7022
X-4.7101
X-4.718
X-4.7258
X-4.7337
X-4.7416
X-4.7495
X-4.7573
X-4.7652
X-4.7731
X-4.781
X-4.7888
X-4.7967
X-4.8046
X-4.8124
X-4.8203
X-4.8282
X-4.8361
X-4.8439
X-4.8518
X-4.8597
X-4.8676
X-4.8754
X-4.8833
X-4.8912
X-4.8991
X-4.9069
X-4.9148
X-4.9227
X-4.9306
X-4.9384
X-4.9463
X-4.9542
X-4.9621
X-4.9699
X-4.9778
X-4.9857
X-4.9936
X-5.0014
X-5.0093
X-5.0172
X-5.025
X-5.0329
X-5.0408
X-5.0487
X-5.0565
X-5.0644
X-5.0723
X-5.0802
X-5.088
X-5.0959
X-5.1038
X-5.1117
X-5.1195
X-5.1274
X-5.1353
X-5.1432
X-5.151
X-5.1589
X-5.1668
X-5.1747
X-5.1825
X-5.1904
X-5.1983
X-5.2062
X-5.214
X-5.2219
X-5.2298
X-5.2376
X-5.2455
X-5.2534
X-5.2613
X-5.2691
X-5.277
X-5.2849
X-5.2928
X-5.3006
X-5.3085
X-5.3164
X-5.3243
X-5.3321
X-5.34
X-5.3479
X-5.3558
X-5.3636
X-5.3715
X-5.3794
X-5.3873
X-5.3951
X-5.403
X-5.4109
X-5.4187
X-5.4266
X-5.4345
X-5.4424
X-5.4502
X-5.4581
X-5.466
X-5.4739
X-5.4817
X-5.4896
X-5.4975
X-5.5054
X-5.5132
X-5.5211
X-5.529
X-5.5369
X-5.5447
X-5.5526
X-5.5605
X-5.5684
X-5.5762
X-5.5841
X-5.592
X-5.5999
X-5.6077
X-5.6156
X-5.6235
X-5.6313
X-5.6392
X-5.6471
X-5.655
X-5.6628
X-5.6707
X-5.6786
X-5.6865
X-5.6943
X-5.7022
X-5.7101
X-5.718
X-5.7258
X-5.7337
X-5.7416
X-5.7495
X-5.7573
X-5.7652
X-5.7731
X-5.781
X-5.7888
X-5.7967
X-5.8046
X-5.8124
X-5.8203
X-5.8282
X-5.8361
X-5.8439
X-5.8518
X-5.8597
X-5.8676
X-5.8754
X-5.8833
X-5.8912
X-5.8991
X-5.9069
X-5.9148
X-5.9227
X-5.9306
X-5.9384
X-5.9463
X-5.9542
X-5.9621
X-5.9699
X-5.9778
X-5.9857
X-5.9936
X-6.0014
X-6.0093
X-6.0172
X-6.025
X-6.0329
X-6.0408
X-6.0487
X-6.0565
X-6.0644
X-6.0723
X-6.0802
X-6.088
X-6.0959
X-6.1038
X-6.1117
X-6.1195
X-6.1274
X-6.1353
X-6.1432
X-6.151
X-6.1589
X-6.1668
X-6.1747
X-6.1825
X-6.1904
X-6.1983
X-6.2062
X-6.214
X-6.2219
X-6.2298
X-6.2376
X-6.2455
X-6.2534
X-6.2613
X-6.2691
X-6.277
X-6.2849
X-6.2928
X-6.3006
X-6.3085
X-6.3164
X-6.3243
X-6.3321
X-6.34
X-6.3479
X-6.3558
X-6.3636
X-6.3715
X-6.3794
X-6.3873
X-6.3951
X-6.403
X-6.4109
X-6.4187
X-6.4266
X-6.4345
X-6.4424
X-6.4502
X-6.4581
X-6.466
X-6.4739
X-6.4817
X-6.4896
X-6.4975
X-6.5054
X-6.5132
X-6.5211
X-6.529
X-6.5369
X-6.5447
X-6.5526
X-6.5605
X-6.5684
X-6.5762
X-6.5841
X-6.592
X-6.5999
X-6.6077
X-6.6156
X-6.6235
X-6.6313
X-6.6392
X-6.6471
X-6.655
X-6.6628
X-6.6707
X-6.6786
X-6.6865
X-6.6943
X-6.7022
X-6.7101
X-6.718
X-6.7258
X-6.7337
X-6.7416
X-6.7495
X-6.7573
X-6.7652
X-6.7731
X-6.781
X-6.7888
X-6.7967
X-6.8046
X-6.8124
X-6.8203
X-6.8282
X-6.8361
X-6.8439
X-6.8518
X-6.8597
X-6.8676
X-6.8754
X-6.8833
X-6.8912
X-6.8991
X-6.9069
X-6.9148
X-6.9227
X-6.9306
X-6.9384
X-6.9463
X-6.9542
X-6.9621
X-6.9699
X-6.9778
X-6.9857
X-6.9936
X-7.0014
X-7.0093
X-7.0172
X-7.025
X-7.0329
X-7.0408
X-7.0487
X-7.0565
X-7.0644
X-7.0723
X-7.0802
X-7.088
X-7.0959
X-7.1038
X-7.1117
X-7.1195
X-7.1274
X-7.1353
X-7.1432
X-7.151
X-7.1589
X-7.1668
X-7.1747
X-7.1825
X-7.1904
X-7.1983
X-7.2062
X-7.214
X-7.2219
X-7.2298
X-7.2376
X-7.2455
X-7.2534
X-7.2613
X-7.2691
X-7.277
X-7.2849
X-7.2928
X-7.3006
X-7.3085
X-7.3164
X-7.3243
X-7.3321
X-7.34
X-7.3479
X-7.3558
X-7.3636
X-7.3715
X-7.3794
X-7.3873
X-7.3951
X-7.403
X-7.4109
X-7.4187
X-7.4266
X-7.4345
X-7.4424
X-7.4502
X-7.4581
X-7.466
X-7.4739
X-7.4817
X-7.4896
X-7.4975
X-7.5054
X-7.5132
X-7.5211
X-7.529
X-7.5369
X-7.5447
X-7.5526
X-7.5605
X-7.5684
X-7.5762
X-7.5841
X-7.592
X-7.5999
X-7.6077
X-7.6156
X-7.6235
X-7.6313
X-7.6392
X-7.6471
X-7.655
X-7.6628
X-7.6707
X-7.6786
X-7.6865
X-7.6943
X-7.7022
X-7.7101
X-7.718
X-7.7258
X-7.7337
X-7.7416
X-7.7495
X-7.7573
X-7.7652
X-7.7731
X-7.781
X-7.7888
X-7.7967
X-7.8046
X-7.8124
X-7.8203
X-7.8282
X-7.8361
X-7.8439
X-7.8518
X-7.8597
X-7.8676
X-7.8754
X-7.8833
X-7.8912
X-7.8991
X-7.9069
X-7.9148
X-7.9227
X-7.9306
X-7.9384
X-7.9463
X-7.9542
X-7.9621
X-7.9699
X-7.9778
X-7.9857
X-7.9936
X-8.0014
X-8.0093
X-8.0172
X-8.025
X-8.0329
X-8.0408
X-8.0487
X-8.0565
X-8.0644
X-8.0723
X-8.0802
X-8.088
X-8.0959
X-8.1038
X-8.1117
X-8.1195
X-8.1274
X-8.1353
X-8.1432
X-8.151
X-8.1589
X-8.1668
X-8.1747
X-8.1825
X-8.1904
X-8.1983
X-8.2062
X-8.214
X-8.2219
X-8.2298
X-8.2376
X-8.2455
X-8.2534
X-8.2613
X-8.2691
X-8.277
X-8.2849
X-8.2928
X-8.3006
X-8.3085
X-8.3164
X-8.3243
X-8.3321
X-8.34
X-8.3479
X-8.3558
X-8.3636
X-8.3715
X-8.3794
X-8.3873
X-8.3951
X-8.403
X-8.4109
X-8.4187
X-8.4266
X-8.4345
X-8.4424
X-8.4502
X-8.4581
X-8.466
X-8.4739
X-8.4817
X-8.4896
X-8.4975
X-8.5054
X-8.5132
X-8.5211
X-8.529
X-8.5369
X-8.5447
X-8.5526
X-8.5605
X-8.5684
X-8.5762
X-8.5841
X-8.592
X-8.5999
X-8.6077
X-8.6156
X-8.6235
X-8.6313
X-8.6392
X-8.6471
X-8.655
X-8.6628
X-8.6707
X-8.6786
X-8.6865
X-8.6943
X-8.7022
X-8.7101
X-8.718
X-8.7258
X-8.7337
X-8.7416
X-8.7495
X-8.7573
X-8.7652
X-8.7731
X-8.781
X-8.7888
X-8.7967
X-8.8046
X-8.8124
X-8.8203
X-8.8282
X-8.8361
X-8.8439
X-8.8518
X-8.8597
X-8.8676
X-8.8754
X-8.8833
X-8.8912
X-8.8991
X-8.9069
X-8.9148
X-8.9227
X-8.9306
X-8.9384
X-8.9463
X-8.9542
X-8.9621
X-8.9699
X-8.9778
X-8.9857
X-8.9936
X-9.0014
X-9.0093
X-9.0172
X-9.025
X-9.0329
X-9.0408
X-9.0487
X-9.0565
X-9.0644
X-9.0723
X-9.0802
X-9.088
X-9.0959
X-9.1038
X-9.1117
X-9.1195
X-9.1274
X-9.1353
X-9.1432
X-9.151
X-9.1589
X-9.1668
X-9.1747
X-9.1825
X-9.1904
X-9.1983
X-9.2062
X-9.214
X-9.2219
X-9.2298
X-9.2376
X-9.2455
X-9.2534
X-9.2613
X-9.2691
X-9.277
X-9.2849
X-9.2928
X-9.3006
X-9.3085
X-9.3164
X-9.3243
X-9.3321
X-9.34
X-9.3479
X-9.3558
X-9.3636
X-9.3715
X-9.3794
X-9.3873
X-9.3951
X-9.403
X-9.4109
X-9.4187
X-9.4266
X-9.4345
X-9.4424
X-9.4502
X-9.4581
X-9.466
X-9.4739
X-9.4817
X-9.4896
X-9.4975
X-9.5054
X-9.5132
X-9.5211
X-9.529
X-9.5369
X-9.5447
X-9.5526
X-9.5605
X-9.5684
X-9.5762
X-9.5841
X-9.592
X-9.5999
X-9.6077
X-9.6156
X-9.6235
X-9.6313
X-9.6392
X-9.6471
X-9.655
X-9.6628
X-9.6707
X-9.6786
X-9.6865
X-9.6943
X-9.7022
X-9.7101
X-9.718
X-9.7258
X-9.7337
X-9.7416
X-9.7495
X-9.7573
X-9.7652
X-9.7731
X-9.781
X-9.7888
X-9.7967
X-9.8046
X-9.8125
X-9.8203
X-9.8282
X-9.8361
X-9.8439
X-9.8518
X-9.8597
X-9.8676
X-9.8754
X-9.8833
X-9.8912
X-9.8991
X-9.9069
X-9.9148
X-9.9227
X-9.9306
X-9.9384
X-9.9463
X-9.9542
X-9.9621
X-9.9699
X-9.9778
X-9.9857
X-9.9936
X-10.0014
X-10.0093
X-10.0172
X-10.025
X-10.0329
X-10.0408
X-10.0487
X-10.0565
X-10.0644
X-10.0723
X-10.0802
X-10.088
X-10.0959
X-10.1038
X-10.1117
X-10.1195
X-10.1274
X-10.1353
X-10.1432
X-10.151
X-10.1589
X-10.1668
X-10.1747
X-10.1825
X-10.1875
X-10.1938Y-3.3747
X-10.2Y-3.3737
X-10.2061Y-3.3721
X-10.212Y-3.37
X-10.2177Y-3.3672
X-10.223Y-3.3639
X-10.228Y-3.36
X-10.2281
X-10.2325Y-3.3558
X-10.2366Y-3.3512
X-10.2401Y-3.3462
X-10.2432Y-3.3408
X-10.2457Y-3.3352
X-10.2476Y-3.3294
X-10.249Y-3.3234
X-10.2498Y-3.3174
X-10.25Y-3.3125
Y-3.3046
Y-3.2967
Y-3.2888
Y-3.281
Y-3.2731
Y-3.2652
Y-3.2573
Y-3.2495
Y-3.2416
Y-3.2337
Y-3.2258
Y-3.218
Y-3.2101
Y-3.2022
Y-3.1943
Y-3.1865
Y-3.1786
Y-3.1707
Y-3.1628
Y-3.155
Y-3.1471
Y-3.1392
Y-3.1313
Y-3.1235
Y-3.1156
Y-3.1077
Y-3.0999
Y-3.092
Y-3.0841
Y-3.0762
Y-3.0684
Y-3.0605
Y-3.0526
Y-3.0447
Y-3.0369
Y-3.029
Y-3.0211
Y-3.0132
Y-3.0054
Y-2.9975
Y-2.9896
Y-2.9817
Y-2.9739
Y-2.966
Y-2.9581
Y-2.9502
Y-2.9424
Y-2.9345
Y-2.9266
Y-2.9187
Y-2.9109
Y-2.903
Y-2.8951
Y-2.8873
Y-2.8794
Y-2.8715
Y-2.8636
Y-2.8558
Y-2.8479
Y-2.84
Y-2.8321
Y-2.8243
Y-2.8164
Y-2.8085
Y-2.8006
Y-2.7928
Y-2.7849
Y-2.777
Y-2.7691
Y-2.7613
Y-2.7534
Y-2.7455
Y-2.7376
Y-2.7298
Y-2.7219
Y-2.714
Y-2.7062
Y-2.6983
Y-2.6904
Y-2.6825
Y-2.6747
Y-2.6668
Y-2.6589
Y-2.651
Y-2.6432
Y-2.6353
Y-2.6274
Y-2.6195
Y-2.6117
Y-2.6038
Y-2.5959
Y-2.588
Y-2.5802
Y-2.5723
Y-2.5644
Y-2.5565
Y-2.5487
Y-2.5408
Y-2.5329
Y-2.525
Y-2.5172
Y-2.5093
Y-2.5014
Y-2.4936
Y-2.4857
Y-2.4778
Y-2.4699
Y-2.4621
Y-2.4542
Y-2.4463
Y-2.4384
Y-2.4306
Y-2.4227
Y-2.4148
Y-2.4069
Y-2.3991
Y-2.3912
Y-2.3833
Y-2.3754
Y-2.3676
Y-2.3597
Y-2.3518
Y-2.3439
Y-2.3361
Y-2.3282
Y-2.3203
Y-2.3125
Y-2.3046
Y-2.2967
Y-2.2888
Y-2.281
Y-2.2731
Y-2.2652
Y-2.2573
Y-2.2495
Y-2.2416
Y-2.2337
Y-2.2258
Y-2.218
Y-2.2101
Y-2.2022
Y-2.1943
Y-2.1865
Y-2.1786
Y-2.1707
Y-2.1628
Y-2.155
Y-2.1471
Y-2.1392
Y-2.1313
Y-2.1235
Y-2.1156
Y-2.1077
Y-2.0999
Y-2.092
Y-2.0841
Y-2.0762
Y-2.0684
Y-2.0605
Y-2.0526
Y-2.0447
Y-2.0369
Y-2.029
Y-2.0211
Y-2.0132
Y-2.0054
Y-1.9975
Y-1.9896
Y-1.9817
Y-1.9739
Y-1.966
Y-1.9581
Y-1.9502
Y-1.9424
Y-1.9345
Y-1.9266
Y-1.9187
Y-1.9109
Y-1.903
Y-1.8951
Y-1.8873
Y-1.8794
Y-1.8715
Y-1.8636
Y-1.8558
Y-1.8479
Y-1.84
Y-1.8321
Y-1.8243
Y-1.8164
Y-1.8085
Y-1.8006
Y-1.7928
Y-1.7849
Y-1.777
Y-1.7691
Y-1.7613
Y-1.7534
Y-1.7455
Y-1.7376
Y-1.7298
Y-1.7219
Y-1.714
Y-1.7062
Y-1.6983
Y-1.6904
Y-1.6825
Y-1.6747
Y-1.6668
Y-1.6589
Y-1.651
Y-1.6432
Y-1.6353
Y-1.6274
Y-1.6195
Y-1.6117
Y-1.6038
Y-1.5959
Y-1.588
Y-1.5802
Y-1.5723
Y-1.5644
Y-1.5565
Y-1.5487
Y-1.5408
Y-1.5329
Y-1.525
Y-1.5172
Y-1.5093
Y-1.5014
Y-1.4936
Y-1.4857
Y-1.4778
Y-1.4699
Y-1.4621
Y-1.4542
Y-1.4463
Y-1.4384
Y-1.4306
Y-1.4227
Y-1.4148
Y-1.4069
Y-1.3991
Y-1.3912
Y-1.3833
Y-1.3754
Y-1.3676
Y-1.3597
Y-1.3518
Y-1.3439
Y-1.3361
Y-1.3282
Y-1.3203
Y-1.3125
Y-1.3046
Y-1.2967
Y-1.2888
Y-1.281
Y-1.2731
Y-1.2652
Y-1.2573
Y-1.2495
Y-1.2416
Y-1.2337
Y-1.2258
Y-1.218
Y-1.2101
Y-1.2022
Y-1.1943
Y-1.1865
Y-1.1786
Y-1.1707
Y-1.1628
Y-1.155
Y-1.1471
Y-1.1392
Y-1.1313
Y-1.1235
Y-1.1156
Y-1.1077
Y-1.0999
Y-1.092
Y-1.0841
Y-1.0762
Y-1.0684
Y-1.0605
Y-1.0526
Y-1.0447
Y-1.0369
Y-1.029
Y-1.0211
Y-1.0132
Y-1.0054
Y-0.9975
Y-0.9896
Y-0.9817
Y-0.9739
Y-0.966
Y-0.9581
Y-0.9502
Y-0.9424
Y-0.9345
Y-0.9266
Y-0.9187
Y-0.9109
Y-0.903
Y-0.8951
Y-0.8873
Y-0.8794
Y-0.8715
Y-0.8636
Y-0.8558
Y-0.8479
Y-0.84
Y-0.8321
Y-0.8243
Y-0.8164
Y-0.8085
Y-0.8006
Y-0.7928
Y-0.7849
Y-0.777
Y-0.7691
Y-0.7613
Y-0.7534
Y-0.7455
Y-0.7376
Y-0.7298
Y-0.7219
Y-0.714
Y-0.7062
Y-0.6983
Y-0.6904
Y-0.6825
Y-0.6747
Y-0.6668
Y-0.6589
Y-0.651
Y-0.6432
Y-0.6353
Y-0.6274
Y-0.6195
Y-0.6117
Y-0.6038
Y-0.5959
Y-0.588
Y-0.5802
Y-0.5723
Y-0.5644
Y-0.5565
Y-0.5487
Y-0.5408
Y-0.5329
Y-0.525
Y-0.5172
Y-0.5093
Y-0.5014
Y-0.4936
Y-0.4857
Y-0.4778
Y-0.4699
Y-0.4621
Y-0.4542
Y-0.4463
Y-0.4384
Y-0.4306
Y-0.4227
Y-0.4148
Y-0.4069
Y-0.3991
Y-0.3912
Y-0.3833
Y-0.3754
Y-0.3676
Y-0.3597
Y-0.3518
Y-0.3439
Y-0.3361
Y-0.3282
Y-0.3203
Y-0.3125
Y-0.3046
Y-0.2967
Y-0.2888
Y-0.281
Y-0.2731
Y-0.2652
Y-0.2573
Y-0.2495
Y-0.2416
Y-0.2337
Y-0.2258
Y-0.218
Y-0.2101
Y-0.2022
Y-0.1943
Y-0.1865
Y-0.1786
Y-0.1707
Y-0.1628
Y-0.155
Y-0.1471
Y-0.1392
Y-0.1313
Y-0.1235
Y-0.1156
Y-0.1077
Y-0.0999
Y-0.092
Y-0.0841
Y-0.0762
Y-0.0684
Y-0.0605
Y-0.0526
Y-0.0447
Y-0.0369
Y-0.029
Y-0.0211
Y-0.0132
Y-0.0054
Y0.0024
Y0.0103
Y0.0182
Y0.026
Y0.0339
Y0.0418
Y0.0497
Y0.0575
Y0.0654
Y0.0733
Y0.0812
Y0.089
Y0.0969
Y0.1048
Y0.1126
Y0.1205
Y0.1284
Y0.1363
Y0.1441
Y0.152
Y0.1599
Y0.1678
Y0.1756
Y0.1835
Y0.1914
Y0.1993
Y0.2071
Y0.215
Y0.2229
Y0.2308
Y0.2386
Y0.2465
Y0.2544
Y0.2623
Y0.2701
Y0.278
Y0.2859
Y0.2937
Y0.3016
Y0.3095
Y0.3174
Y0.3252
Y0.3331
Y0.341
Y0.3489
Y0.3567
Y0.3646
Y0.3725
Y0.3804
Y0.3882
Y0.3961
Y0.404
Y0.4119
Y0.4197
Y0.4276
Y0.4355
Y0.4434
Y0.4512
Y0.4591
Y0.467
Y0.4749
Y0.4827
Y0.4906
Y0.4985
Y0.5063
Y0.5142
Y0.5221
Y0.53
Y0.5378
Y0.5457
Y0.5536
Y0.5615
Y0.5693
Y0.5772
Y0.5851
Y0.593
Y0.6008
Y0.6087
Y0.6166
Y0.6245
Y0.6323
Y0.6402
Y0.6481
Y0.656
Y0.6638
Y0.6717
Y0.6796
Y0.6875
Y0.6953
Y0.7032
Y0.7111
Y0.7189
Y0.7268
Y0.7347
Y0.7426
Y0.7504
Y0.7583
Y0.7662
Y0.7741
Y0.7819
Y0.7898
Y0.7977
Y0.8056
Y0.8134
Y0.8213
Y0.8292
Y0.8371
Y0.8449
Y0.8528
Y0.8607
Y0.8686
Y0.8764
Y0.8843
Y0.8922
Y0.9
Y0.9079
Y0.9158
Y0.9237
Y0.9315
Y0.9394
Y0.9473
Y0.9552
Y0.963
Y0.9709
Y0.9788
Y0.9867
Y0.9945
Y1.0024
Y1.0103
Y1.0182
Y1.026
Y1.0339
Y1.0418
Y1.0497
Y1.0575
Y1.0654
Y1.0733
Y1.0812
Y1.089
Y1.0969
Y1.1048
Y1.1126
Y1.1205
Y1.1284
Y1.1363
Y1.1441
Y1.152
Y1.1599
Y1.1678
Y1.1756
Y1.1835
Y1.1914
Y1.1993
Y1.2071
Y1.215
Y1.2229
Y1.2308
Y1.2386
Y1.2465
Y1.2544
Y1.2623
Y1.2701
Y1.278
Y1.2859
Y1.2937
Y1.3016
Y1.3095
Y1.3174
Y1.3252
Y1.3331
Y1.341
Y1.3489
Y1.3567
Y1.3646
Y1.3725
Y1.3804
Y1.3882
Y1.3961
Y1.404
Y1.4119
Y1.4197
Y1.4276
Y1.4355
Y1.4434
Y1.4512
Y1.4591
Y1.467
Y1.4749
Y1.4827
Y1.4906
Y1.4985
Y1.5063
Y1.5142
Y1.5221
Y1.53
Y1.5378
Y1.5457
Y1.5536
Y1.5615
Y1.5693
Y1.5772
Y1.5851
Y1.593
Y1.6008
Y1.6087
Y1.6166
Y1.6245
Y1.6323
Y1.6402
Y1.6481
Y1.656
Y1.6638
Y1.6717
Y1.6796
Y1.6875
Y1.6953
Y1.7032
Y1.7111
Y1.7189
Y1.7268
Y1.7347
Y1.7426
Y1.7504
Y1.7583
Y1.7662
Y1.7741
Y1.7819
Y1.7898
Y1.7977
Y1.8056
Y1.8134
Y1.8213
Y1.8292
Y1.8371
Y1.8449
Y1.8528
Y1.8607
Y1.8686
Y1.8764
Y1.8843
Y1.8922
Y1.9
Y1.9079
Y1.9158
Y1.9237
Y1.9315
Y1.9394
Y1.9473
Y1.9552
Y1.963
Y1.9709
Y1.9788
Y1.9867
Y1.9945
Y2.0024
Y2.0103
Y2.0182
Y2.026
Y2.0339
Y2.0418
Y2.0497
Y2.0575
Y2.0654
Y2.0733
Y2.0812
Y2.089
Y2.0969
Y2.1048
Y2.1126
Y2.1205
Y2.1284
Y2.1363
Y2.1441
Y2.152
Y2.1599
Y2.1678
Y2.1756
Y2.1835
Y2.1914
Y2.1993
Y2.2071
Y2.215
Y2.2229
Y2.2308
Y2.2386
Y2.2465
Y2.2544
Y2.2623
Y2.2701
Y2.278
Y2.2859
Y2.2937
Y2.3016
Y2.3095
Y2.3174
Y2.3252
Y2.3331
Y2.341
Y2.3489
Y2.3567
Y2.3646
Y2.3725
Y2.3804
Y2.3882
Y2.3961
Y2.404
Y2.4119
Y2.4197
Y2.4276
Y2.4355
Y2.4434
Y2.4512
Y2.4591
Y2.467
Y2.4749
Y2.4827
Y2.4906
Y2.4985
Y2.5063
Y2.5142
Y2.5221
Y2.53
Y2.5378
Y2.5457
Y2.5536
Y2.5615
Y2.5693
Y2.5772
Y2.5851
Y2.593
Y2.6008
Y2.6087
Y2.6166
Y2.6245
Y2.6323
Y2.6402
Y2.6481
Y2.656
Y2.6638
Y2.6717
Y2.6796
Y2.6875
Y2.6953
Y2.7032
Y2.7111
Y2.7189
Y2.7268
Y2.7347
Y2.7426
Y2.7504
Y2.7583
Y2.7662
Y2.7741
Y2.7819
Y2.7898
Y2.7977
Y2.8056
Y2.8134
Y2.8213
Y2.8292
Y2.8371
Y2.8449
Y2.8528
Y2.8607
Y2.8686
Y2.8764
Y2.8843
Y2.8922
Y2.9
Y2.9079
Y2.9158
Y2.9237
Y2.9315
Y2.9394
Y2.9473
Y2.9552
Y2.963
Y2.9709
Y2.9788
Y2.9867
Y2.9945
Y3.0024
Y3.0103
Y3.0182
Y3.026
Y3.0339
Y3.0418
Y3.0497
Y3.0575
Y3.0654
Y3.0733
Y3.0812
Y3.089
Y3.0969
Y3.1048
Y3.1126
Y3.1205
Y3.1284
Y3.1363
Y3.1441
Y3.152
Y3.1599
Y3.1678
Y3.1756
Y3.1835
Y3.1914
Y3.1993
Y3.2071
Y3.215
Y3.2229
Y3.2308
Y3.2386
Y3.2465
Y3.2544
Y3.2623
Y3.2701
Y3.278
Y3.2859
Y3.2937
Y3.3016
Y3.3095
Y3.3125
X-10.2497Y3.3186
X-10.2488Y3.3246
X-10.2473Y3.3306
X-10.2452Y3.3364
X-10.2426Y3.3419
X-10.2395Y3.3472
X-10.2358Y3.3521
X-10.2317Y3.3566
X-10.2316Y3.3567
X-10.2271Y3.3608
X-10.2222Y3.3645
X-10.2169Y3.3676
X-10.2114Y3.3702
X-10.2056Y3.3723
X-10.1996Y3.3738
X-10.1936Y3.3747
X-10.1875Y3.375
X-10.1796
X-10.1717
X-10.1638
X-10.156
X-10.1481
X-10.1402
X-10.1323
X-10.1245
X-10.1166
X-10.1087
X-10.1008
X-10.093
X-10.0851
X-10.0772
X-10.0693
X-10.0615
X-10.0536
X-10.0457
X-10.0378
X-10.03
X-10.0221
X-10.0142
X-10.0063
X-9.9985
X-9.9906
X-9.9827
X-9.9749
X-9.967
X-9.9591
X-9.9512
X-9.9434
X-9.9355
X-9.9276
X-9.9197
X-9.9119
X-9.904
X-9.8961
X-9.8882
X-9.8804
X-9.8725
X-9.8646
X-9.8567
X-9.8489
X-9.841
X-9.8331
X-9.8252
X-9.8174
X-9.8095
X-9.8016
X-9.7937
X-9.7859
X-9.778
X-9.7701
X-9.7623
X-9.7544
X-9.7465
X-9.7386
X-9.7308
X-9.7229
X-9.715
X-9.7071
X-9.6993
X-9.6914
X-9.6835
X-9.6756
X-9.6678
X-9.6599
X-9.652
X-9.6441
X-9.6363
X-9.6284
X-9.6205
X-9.6126
X-9.6048
X-9.5969
X-9.589
X-9.5812
X-9.5733
X-9.5654
X-9.5575
X-9.5497
X-9.5418
X-9.5339
X-9.526
X-9.5182
X-9.5103
X-9.5024
X-9.4945
X-9.4867
X-9.4788
X-9.4709
X-9.463
X-9.4552
X-9.4473
X-9.4394
X-9.4315
X-9.4237
X-9.4158
X-9.4079
X-9.4
X-9.3922
X-9.3843
X-9.3764
X-9.3686
X-9.3607
X-9.3528
X-9.3449
X-9.3371
X-9.3292
X-9.3213
X-9.3134
X-9.3056
X-9.2977
X-9.2898
X-9.2819
X-9.2741
X-9.2662
X-9.2583
X-9.2504
X-9.2426
X-9.2347
X-9.2268
X-9.2189
X-9.2111
X-9.2032
X-9.1953
X-9.1875
X-9.1796
X-9.1717
X-9.1638
X-9.156
X-9.1481
X-9.1402
X-9.1323
X-9.1245
X-9.1166
X-9.1087
X-9.1008
X-9.093
X-9.0851
X-9.0772
X-9.0693
X-9.0615
X-9.0536
X-9.0457
X-9.0378
X-9.03
X-9.0221
X-9.0142
X-9.0063
X-8.9985
X-8.9906
X-8.9827
X-8.9749
X-8.967
X-8.9591
X-8.9512
X-8.9434
X-8.9355
X-8.9276
X-8.9197
X-8.9119
X-8.904
X-8.8961
X-8.8882
X-8.8804
X-8.8725
X-8.8646
X-8.8567
X-8.8489
X-8.841
X-8.8331
X-8.8252
X-8.8174
X-8.8095
X-8.8016
X-8.7937
X-8.7859
X-8.778
X-8.7701
X-8.7623
X-8.7544
X-8.7465
X-8.7386
X-8.7308
X-8.7229
X-8.715
X-8.7071
X-8.6993
X-8.6914
X-8.6835
X-8.6756
X-8.6678
X-8.6599
X-8.652
X-8.6441
X-8.6363
X-8.6284
X-8.6205
X-8.6126
X-8.6048
X-8.5969
X-8.589
X-8.5812
X-8.5733
X-8.5654
X-8.5575
X-8.5497
X-8.5418
X-8.5339
X-8.526
X-8.5182
X-8.5103
X-8.5024
X-8.4945
X-8.4867
X-8.4788
X-8.4709
X-8.463
X-8.4552
X-8.4473
X-8.4394
X-8.4315
X-8.4237
X-8.4158
X-8.4079
X-8.4
X-8.3922
X-8.3843
X-8.3764
X-8.3686
X-8.3607
X-8.3528
X-8.3449
X-8.3371
X-8.3292
X-8.3213
X-8.3134
X-8.3056
X-8.2977
X-8.2898
X-8.2819
X-8.2741
X-8.2662
X-8.2583
X-8.2504
X-8.2426
X-8.2347
X-8.2268
X-8.2189
X-8.2111
X-8.2032
X-8.1953
X-8.1875
X-8.1796
X-8.1717
X-8.1638
X-8.156
X-8.1481
X-8.1402
X-8.1323
X-8.1245
X-8.1166
X-8.1087
X-8.1008
X-8.093
X-8.0851
X-8.0772
X-8.0693
X-8.0615
X-8.0536
X-8.0457
X-8.0378
X-8.03
X-8.0221
X-8.0142
X-8.0063
X-7.9985
X-7.9906
X-7.9827
X-7.9749
X-7.967
X-7.9591
X-7.9512
X-7.9434
X-7.9355
X-7.9276
X-7.9197
X-7.9119
X-7.904
X-7.8961
X-7.8882
X-7.8804
X-7.8725
X-7.8646
X-7.8567
X-7.8489
X-7.841
X-7.8331
X-7.8252
X-7.8174
X-7.8095
X-7.8016
X-7.7938
X-7.7859
X-7.778
X-7.7701
X-7.7623
X-7.7544
X-7.7465
X-7.7386
X-7.7308
X-7.7229
X-7.715
X-7.7071
X-7.6993
X-7.6914
X-7.6835
X-7.6756
X-7.6678
X-7.6599
X-7.652
X-7.6441
X-7.6363
X-7.6284
X-7.6205
X-7.6126
X-7.6048
X-7.5969
X-7.589
X-7.5812
X-7.5733
X-7.5654
X-7.5575
X-7.5497
X-7.5418
X-7.5339
X-7.526
X-7.5182
X-7.5103
X-7.5024
X-7.4945
X-7.4867
X-7.4788
X-7.4709
X-7.463
X-7.4552
X-7.4473
X-7.4394
X-7.4315
X-7.4237
X-7.4158
X-7.4079
X-7.4
X-7.3922
X-7.3843
X-7.3764
X-7.3686
X-7.3607
X-7.3528
X-7.3449
X-7.3371
X-7.3292
X-7.3213
X-7.3134
X-7.3056
X-7.2977
X-7.2898
X-7.2819
X-7.2741
X-7.2662
X-7.2583
X-7.2504
X-7.2426
X-7.2347
X-7.2268
X-7.2189
X-7.2111
X-7.2032
X-7.1953
X-7.1875
X-7.1796
X-7.1717
X-7.1638
X-7.156
X-7.1481
X-7.1402
X-7.1323
X-7.1245
X-7.1166
X-7.1087
X-7.1008
X-7.093
X-7.0851
X-7.0772
X-7.0693
X-7.0615
X-7.0536
X-7.0457
X-7.0378
X-7.03
X-7.0221
X-7.0142
X-7.0063
X-6.9985
X-6.9906
X-6.9827
X-6.9749
X-6.967
X-6.9591
X-6.9512
X-6.9434
X-6.9355
X-6.9276
X-6.9197
X-6.9119
X-6.904
X-6.8961
X-6.8882
X-6.8804
X-6.8725
X-6.8646
X-6.8567
X-6.8489
X-6.841
X-6.8331
X-6.8252
X-6.8174
X-6.8095
X-6.8016
X-6.7938
X-6.7859
X-6.778
X-6.7701
X-6.7623
X-6.7544
X-6.7465
X-6.7386
X-6.7308
X-6.7229
X-6.715
X-6.7071
X-6.6993
X-6.6914
X-6.6835
X-6.6756
X-6.6678
X-6.6599
X-6.652
X-6.6441
X-6.6363
X-6.6284
X-6.6205
X-6.6126
X-6.6048
X-6.5969
X-6.589
X-6.5812
X-6.5733
X-6.5654
X-6.5575
X-6.5497
X-6.5418
X-6.5339
X-6.526
X-6.5182
X-6.5103
X-6.5024
X-6.4945
X-6.4867
X-6.4788
X-6.4709
X-6.463
X-6.4552
X-6.4473
X-6.4394
X-6.4315
X-6.4237
X-6.4158
X-6.4079
X-6.4
X-6.3922
X-6.3843
X-6.3764
X-6.3686
X-6.3607
X-6.3528
X-6.3449
X-6.3371
X-6.3292
X-6.3213
X-6.3134
X-6.3056
X-6.2977
X-6.2898
X-6.2819
X-6.2741
X-6.2662
X-6.2583
X-6.2504
X-6.2426
X-6.2347
X-6.2268
X-6.2189
X-6.2111
X-6.2032
X-6.1953
X-6.1875
X-6.1796
X-6.1717
X-6.1638
X-6.156
X-6.1481
X-6.1402
X-6.1323
X-6.1245
X-6.1166
X-6.1087
X-6.1008
X-6.093
X-6.0851
X-6.0772
X-6.0693
X-6.0615
X-6.0536
X-6.0457
X-6.0378
X-6.03
X-6.0221
X-6.0142
X-6.0063
X-5.9985
X-5.9906
X-5.9827
X-5.9749
X-5.967
X-5.9591
X-5.9512
X-5.9434
X-5.9355
X-5.9276
X-5.9197
X-5.9119
X-5.904
X-5.8961
X-5.8882
X-5.8804
X-5.8725
X-5.8646
X-5.8567
X-5.8489
X-5.841
X-5.8331
X-5.8252
X-5.8174
X-5.8095
X-5.8016
X-5.7938
X-5.7859
X-5.778
X-5.7701
X-5.7623
X-5.7544
X-5.7465
X-5.7386
X-5.7308
X-5.7229
X-5.715
X-5.7071
X-5.6993
X-5.6914
X-5.6835
X-5.6756
X-5.6678
X-5.6599
X-5.652
X-5.6441
X-5.6363
X-5.6284
X-5.6205
X-5.6126
X-5.6048
X-5.5969
X-5.589
X-5.5812
X-5.5733
X-5.5654
X-5.5575
X-5.5497
X-5.5418
X-5.5339
X-5.526
X-5.5182
X-5.5103
X-5.5024
X-5.4945
X-5.4867
X-5.4788
X-5.4709
X-5.463
X-5.4552
X-5.4473
X-5.4394
X-5.4315
X-5.4237
X-5.4158
X-5.4079
X-5.4
X-5.3922
X-5.3843
X-5.3764
X-5.3686
X-5.3607
X-5.3528
X-5.3449
X-5.3371
X-5.3292
X-5.3213
X-5.3134
X-5.3056
X-5.2977
X-5.2898
X-5.2819
X-5.2741
X-5.2662
X-5.2583
X-5.2504
X-5.2426
X-5.2347
X-5.2268
X-5.2189
X-5.2111
X-5.2032
X-5.1953
X-5.1875
X-5.1796
X-5.1717
X-5.1638
X-5.156
X-5.1481
X-5.1402
X-5.1323
X-5.1245
X-5.1166
X-5.1087
X-5.1008
X-5.093
X-5.0851
X-5.0772
X-5.0693
X-5.0615
X-5.0536
X-5.0457
X-5.0378
X-5.03
X-5.0221
X-5.0142
X-5.0063
X-4.9985
X-4.9906
X-4.9827
X-4.9749
X-4.967
X-4.9591
X-4.9512
X-4.9434
X-4.9355
X-4.9276
X-4.9197
X-4.9119
X-4.904
X-4.8961
X-4.8882
X-4.8804
X-4.8725
X-4.8646
X-4.8567
X-4.8489
X-4.841
X-4.8331
X-4.8252
X-4.8174
X-4.8095
X-4.8016
X-4.7938
X-4.7859
X-4.778
X-4.7701
X-4.7623
X-4.7544
X-4.7465
X-4.7386
X-4.7308
X-4.7229
X-4.715
X-4.7071
X-4.6993
X-4.6914
X-4.6835
X-4.6756
X-4.6678
X-4.6599
X-4.652
X-4.6441
X-4.6363
X-4.6284
X-4.6205
X-4.6126
X-4.6048
X-4.5969
X-4.589
X-4.5812
X-4.5733
X-4.5654
X-4.5575
X-4.5497
X-4.5418
X-4.5339
X-4.526
X-4.5182
X-4.5103
X-4.5024
X-4.4945
X-4.4867
X-4.4788
X-4.4709
X-4.463
X-4.4552
X-4.4473
X-4.4394
X-4.4315
X-4.4237
X-4.4158
X-4.4079
X-4.4
X-4.3922
X-4.3843
X-4.3764
X-4.3686
X-4.3607
X-4.3528
X-4.3449
X-4.3371
X-4.3292
X-4.3213
X-4.3134
X-4.3056
X-4.2977
X-4.2898
X-4.2819
X-4.2741
X-4.2662
X-4.2583
X-4.2504
X-4.2426
X-4.2347
X-4.2268
X-4.2189
X-4.2111
X-4.2032
X-4.1953
X-4.1875
X-4.1796
X-4.1717
X-4.1638
X-4.156
X-4.1481
X-4.1402
X-4.1323
X-4.1245
X-4.1166
X-4.1087
X-4.1008
X-4.093
X-4.0851
X-4.0772
X-4.0693
X-4.0615
X-4.0536
X-4.0457
X-4.0378
X-4.03
X-4.0221
X-4.0142
X-4.0063
X-3.9985
X-3.9906
X-3.9827
X-3.9749
X-3.967
X-3.9591
X-3.9512
X-3.9434
X-3.9355
X-3.9276
X-3.9197
X-3.9119
X-3.904
X-3.8961
X-3.8882
X-3.8804
X-3.8725
X-3.8646
X-3.8567
X-3.8489
X-3.841
X-3.8331
X-3.8252
X-3.8174
X-3.8095
X-3.8016
X-3.7938
X-3.7859
X-3.778
X-3.7701
X-3.7623
X-3.7544
X-3.7465
X-3.7386
X-3.7308
X-3.7229
X-3.715
X-3.7071
X-3.6993
X-3.6914
X-3.6835
X-3.6756
X-3.6678
X-3.6599
X-3.652
X-3.6441
X-3.6363
X-3.6284
X-3.6205
X-3.6126
X-3.6048
X-3.5969
X-3.589
X-3.5812
X-3.5733
X-3.5654
X-3.5575
X-3.5497
X-3.5418
X-3.5339
X-3.526
X-3.5182
X-3.5103
X-3.5024
X-3.4945
X-3.4867
X-3.4788
X-3.4709
X-3.463
X-3.4552
X-3.4473
X-3.4394
X-3.4315
X-3.4237
X-3.4158
X-3.4079
X-3.4
X-3.3922
X-3.3843
X-3.3764
X-3.3686
X-3.3607
X-3.3528
X-3.3449
X-3.3371
X-3.3292
X-3.3213
X-3.3134
X-3.3056
X-3.2977
X-3.2898
X-3.2819
X-3.2741
X-3.2662
X-3.2583
X-3.2504
X-3.2426
X-3.2347
X-3.2268
X-3.2189
X-3.2111
X-3.2032
X-3.1953
X-3.1875
X-3.1796
X-3.1717
X-3.1638
X-3.156
X-3.1481
X-3.1402
X-3.1323
X-3.1245
X-3.1166
X-3.1087
X-3.1008
X-3.093
X-3.0851
X-3.0772
X-3.0693
X-3.0615
X-3.0536
X-3.0457
X-3.0378
X-3.03
X-3.0221
X-3.0142
X-3.0063
X-2.9985
X-2.9906
X-2.9827
X-2.9749
X-2.967
X-2.9591
X-2.9512
X-2.9434
X-2.9355
X-2.9276
X-2.9197
X-2.9119
X-2.904
X-2.8961
X-2.8882
X-2.8804
X-2.8725
X-2.8646
X-2.8567
X-2.8489
X-2.841
X-2.8331
X-2.8252
X-2.8174
X-2.8095
X-2.8016
X-2.7938
X-2.7859
X-2.778
X-2.7701
X-2.7623
X-2.7544
X-2.7465
X-2.7386
X-2.7308
X-2.7229
X-2.715
X-2.7071
X-2.6993
X-2.6914
X-2.6835
X-2.6756
X-2.6678
X-2.6599
X-2.652
X-2.6441
X-2.6363
X-2.6284
X-2.6205
X-2.6126
X-2.6048
X-2.5969
X-2.589
X-2.5812
X-2.5733
X-2.5654
X-2.5575
X-2.5497
X-2.5418
X-2.5339
X-2.526
X-2.5182
X-2.5103
X-2.5024
X-2.4945
X-2.4867
X-2.4788
X-2.4709
X-2.463
X-2.4552
X-2.4473
X-2.4394
X-2.4315
X-2.4237
X-2.4158
X-2.4079
X-2.4
X-2.3922
X-2.3843
X-2.3764
X-2.3686
X-2.3607
X-2.3528
X-2.3449
X-2.3371
X-2.3292
X-2.3213
X-2.3134
X-2.3056
X-2.2977
X-2.2898
X-2.2819
X-2.2741
X-2.2662
X-2.2583
X-2.2504
X-2.2426
X-2.2347
X-2.2268
X-2.2189
X-2.2111
X-2.2032
X-2.1953
X-2.1875
X-2.1796
X-2.1717
X-2.1638
X-2.156
X-2.1481
X-2.1402
X-2.1323
X-2.1245
X-2.1166
X-2.1087
X-2.1008
X-2.093
X-2.0851
X-2.0772
X-2.0693
X-2.0615
X-2.0536
X-2.0457
X-2.0378
X-2.03
X-2.0221
X-2.0142
X-2.0063
X-1.9985
X-1.9906
X-1.9827
X-1.9749
X-1.967
X-1.9591
X-1.9512
X-1.9434
X-1.9355
X-1.9276
X-1.9197
X-1.9119
X-1.904
X-1.8961
X-1.8882
X-1.8804
X-1.8725
X-1.8646
X-1.8567
X-1.8489
X-1.841
X-1.8331
X-1.8252
X-1.8174
X-1.8095
X-1.8016
X-1.7938
X-1.7859
X-1.778
X-1.7701
X-1.7623
X-1.7544
X-1.7465
X-1.7386
X-1.7308
X-1.7229
X-1.715
X-1.7071
X-1.6993
X-1.6914
X-1.6835
X-1.6756
X-1.6678
X-1.6599
X-1.652
X-1.6441
X-1.6363
X-1.6284
X-1.6205
X-1.6126
X-1.6048
X-1.5969
X-1.589
X-1.5812
X-1.5733
X-1.5654
X-1.5575
X-1.5497
X-1.5418
X-1.5339
X-1.526
X-1.5182
X-1.5103
X-1.5024
X-1.4945
X-1.4867
X-1.4788
X-1.4709
X-1.463
X-1.4552
X-1.4473
X-1.4394
X-1.4315
X-1.4237
X-1.4158
X-1.4079
X-1.4
X-1.3922
X-1.3843
X-1.3764
X-1.3686
X-1.3607
X-1.3528
X-1.3449
X-1.3371
X-1.3292
X-1.3213
X-1.3134
X-1.3056
X-1.2977
X-1.2898
X-1.2819
X-1.2741
X-1.2662
X-1.2583
X-1.2504
X-1.2426
X-1.2347
X-1.2268
X-1.2189
X-1.2111
X-1.2032
X-1.1953
X-1.1875
X-1.1796
X-1.1717
X-1.1638
X-1.156
X-1.1481
X-1.1402
X-1.1323
X-1.1245
X-1.1166
X-1.1087
X-1.1008
X-1.093
X-1.0851
X-1.0772
X-1.0693
X-1.0615
X-1.0536
X-1.0457
X-1.0378
X-1.03
X-1.0221
X-1.0142
X-1.0063
X-0.9985
X-0.9906
X-0.9827
X-0.9749
X-0.967
X-0.9591
X-0.9512
X-0.9434
X-0.9355
X-0.9276
X-0.9197
X-0.9119
X-0.904
X-0.8961
X-0.8882
X-0.8804
X-0.8725
X-0.8646
X-0.8567
X-0.8489
X-0.841
X-0.8331
X-0.8252
X-0.8174
X-0.8095
X-0.8016
X-0.7938
X-0.7859
X-0.778
X-0.7701
X-0.7623
X-0.7544
X-0.7465
X-0.7386
X-0.7308
X-0.7229
X-0.715
X-0.7071
X-0.6993
X-0.6914
X-0.6835
X-0.6756
X-0.6678
X-0.6599
X-0.652
X-0.6441
X-0.6363
X-0.6284
X-0.6205
X-0.6126
X-0.6048
X-0.5969
X-0.589
X-0.5812
X-0.5733
X-0.5654
X-0.5575
X-0.5497
X-0.5418
X-0.5339
X-0.526
X-0.5182
X-0.5103
X-0.5024
X-0.4945
X-0.4867
X-0.4788
X-0.4709
X-0.463
X-0.4552
X-0.4473
X-0.4394
X-0.4315
X-0.4237
X-0.4158
X-0.4079
X-0.4
X-0.3922
X-0.3843
X-0.3764
X-0.3686
X-0.3607
X-0.3528
X-0.3449
X-0.3371
X-0.3292
X-0.3213
X-0.3134
X-0.3056
X-0.2977
X-0.2898
X-0.2819
X-0.2741
X-0.2662
X-0.2583
X-0.2504
X-0.2426
X-0.2347
X-0.2268
X-0.2189
X-0.2111
X-0.2032
X-0.1953
X-0.1875
X-0.1796
X-0.1717
X-0.1638
X-0.156
X-0.1481
X-0.1402
X-0.1323
X-0.1245
X-0.1166
X-0.1087
X-0.1008
X-0.093
X-0.0851
X-0.0772
X-0.0693
X-0.0615
X-0.0536
X-0.0457
X-0.0378
X-0.03
X-0.0221
X-0.0142
X-0.0063
X0.0014
X0.0093
X0.0172
X0.025
X0.0329
X0.0408
X0.0487
X0.0565
X0.0644
X0.0723
X0.0802
X0.088
X0.0959
X0.1038
X0.1117
X0.1195
X0.1274
X0.1353
X0.1432
X0.151
X0.1589
X0.1668
X0.1747
X0.1825
X0.1904
X0.1983
X0.2062
X0.214
X0.2219
X0.2298
X0.2376
X0.2455
X0.2534
X0.2613
X0.2691
X0.277
X0.2849
X0.2928
X0.3006
X0.3085
X0.3164
X0.3243
X0.3321
X0.34
X0.3479
X0.3558
X0.3636
X0.3715
X0.3794
X0.3873
X0.3951
X0.403
X0.4109
X0.4187
X0.4266
X0.4345
X0.4424
X0.4502
X0.4581
X0.466
X0.4739
X0.4817
X0.4896
X0.4975
X0.5054
X0.5132
X0.5211
X0.529
X0.5369
X0.5447
X0.5526
X0.5605
X0.5684
X0.5762
X0.5841
X0.592
X0.5999
X0.6077
X0.6156
X0.6235
X0.6313
X0.6392
X0.6471
X0.655
X0.6628
X0.6707
X0.6786
X0.6865
X0.6943
X0.7022
X0.7101
X0.718
X0.7258
X0.7337
X0.7416
X0.7495
X0.7573
X0.7652
X0.7731
X0.781
X0.7888
X0.7967
X0.8046
X0.8124
X0.8203
X0.8282
X0.8361
X0.8439
X0.8518
X0.8597
X0.8676
X0.8754
X0.8833
X0.8912
X0.8991
X0.9069
X0.9148
X0.9227
X0.9306
X0.9384
X0.9463
X0.9542
X0.9621
X0.9699
X0.9778
X0.9857
X0.9936
X1.0014
X1.0093
X1.0172
X1.025
X1.0329
X1.0408
X1.0487
X1.0565
X1.0644
X1.0723
X1.0802
X1.088
X1.0959
X1.1038
X1.1117
X1.1195
X1.1274
X1.1353
X1.1432
X1.151
X1.1589
X1.1668
X1.1747
X1.1825
X1.1904
X1.1983
X1.2062
X1.214
X1.2219
X1.2298
X1.2376
X1.2455
X1.2534
X1.2613
X1.2691
X1.277
X1.2849
X1.2928
X1.3006
X1.3085
X1.3164
X1.3243
X1.3321
X1.34
X1.3479
X1.3558
X1.3636
X1.3715
X1.3794
X1.3873
X1.3951
X1.403
X1.4109
X1.4187
X1.4266
X1.4345
X1.4424
X1.4502
X1.4581
X1.466
X1.4739
X1.4817
X1.4896
X1.4975
X1.5054
X1.5132
X1.5211
X1.529
X1.5369
X1.5447
X1.5526
X1.5605
X1.5684
X1.5762
X1.5841
X1.592
X1.5999
X1.6077
X1.6156
X1.6235
X1.6313
X1.6392
X1.6471
X1.655
X1.6628
X1.6707
X1.6786
X1.6865
X1.6943
X1.7022
X1.7101
X1.718
X1.7258
X1.7337
X1.7416
X1.7495
X1.7573
X1.7652
X1.7731
X1.781
X1.7888
X1.7967
X1.8046
X1.8125
X1.8203
X1.8282
X1.8361
X1.8439
X1.8518
X1.8597
X1.8676
X1.8754
X1.8833
X1.8912
X1.8991
X1.9069
X1.9148
X1.9227
X1.9306
X1.9384
X1.9463
X1.9542
X1.9621
X1.9699
X1.9778
X1.9857
X1.9936
X2.0014
X2.0093
X2.0172
X2.025
X2.0329
X2.0408
X2.0487
X2.0565
X2.0644
X2.0723
X2.0802
X2.088
X2.0959
X2.1038
X2.1117
X2.1195
X2.1274
X2.1353
X2.1432
X2.151
X2.1589
X2.1668
X2.1747
X2.1825
X2.1904
X2.1983
X2.2062
X2.214
X2.2219
X2.2298
X2.2376
X2.2455
X2.2534
X2.2613
X2.2691
X2.277
X2.2849
X2.2928
X2.3006
X2.3085
X2.3164
X2.3243
X2.3321
X2.34
X2.3479
X2.3558
X2.3636
X2.3715
X2.3794
X2.3873
X2.3951
X2.403
X2.4109
X2.4187
X2.4266
X2.4345
X2.4424
X2.4502
X2.4581
X2.466
X2.4739
X2.4817
X2.4896
X2.4975
X2.5054
X2.5132
X2.5211
X2.529
X2.5369
X2.5447
X2.5526
X2.5605
X2.5684
X2.5762
X2.5841
X2.592
X2.5999
X2.6077
X2.6156
X2.6235
X2.6313
X2.6392
X2.6471
X2.655
X2.6628
X2.6707
X2.6786
X2.6865
X2.6943
X2.7022
X2.7101
X2.718
X2.7258
X2.7337
X2.7416
X2.7495
X2.7573
X2.7652
X2.7731
X2.781
X2.7888
X2.7967
X2.8046
X2.8124
X2.8203
X2.8282
X2.8361
X2.8439
X2.8518
X2.8597
X2.8676
X2.8754
X2.8833
X2.8912
X2.8991
X2.9069
X2.9148
X2.9227
X2.9306
X2.9384
X2.9463
X2.9542
X2.9621
X2.9699
X2.9778
X2.9857
X2.9936
X3.0014
X3.0093
X3.0172
X3.025
X3.0329
X3.0408
X3.0487
X3.0565
X3.0644
X3.0723
X3.0802
X3.088
X3.0959
X3.1038
X3.1117
X3.1195
X3.1274
X3.1353
X3.1432
X3.151
X3.1589
X3.1668
X3.1747
X3.1825
X3.1904
X3.1983
X3.2062
X3.214
X3.2219
X3.2298
X3.2376
X3.2455
X3.2534
X3.2613
X3.2691
X3.277
X3.2849
X3.2928
X3.3006
X3.3085
X3.3164
X3.3243
X3.3321
X3.34
X3.3479
X3.3558
X3.3636
X3.3715
X3.3794
X3.3873
X3.3951
X3.403
X3.4109
X3.4187
X3.4266
X3.4345
X3.4424
X3.4502
X3.4581
X3.466
X3.4739
X3.4817
X3.4896
X3.4975
X3.5054
X3.5132
X3.5211
X3.529
X3.5369
X3.5447
X3.5526
X3.5605
X3.5684
X3.5762
X3.5841
X3.592
X3.5999
X3.6077
X3.6156
X3.6235
X3.6313
X3.6392
X3.6471
X3.655
X3.6628
X3.6707
X3.6786
X3.6865
X3.6943
X3.7022
X3.7101
X3.718
X3.7258
X3.7337
X3.7416
X3.7495
X3.7573
X3.7652
X3.7731
X3.781
X3.7888
X3.7967
X3.8046
X3.8125
X3.8203
X3.8282
X3.8361
X3.8439
X3.8518
X3.8597
X3.8676
X3.8754
X3.8833
X3.8912
X3.8991
X3.9069
X3.9148
X3.9227
X3.9306
X3.9384
X3.9463
X3.9542
X3.9621
X3.9699
X3.9778
X3.9857
X3.9936
X4.0014
X4.0093
X4.0172
X4.025
X4.0329
X4.0408
X4.0487
X4.0565
X4.0644
X4.0723
X4.0802
X4.088
X4.0959
X4.1038
X4.1117
X4.1195
X4.1274
X4.1353
X4.1432
X4.151
X4.1589
X4.1668
X4.1747
X4.1825
X4.1904
X4.1983
X4.2062
X4.214
X4.2219
X4.2298
X4.2376
X4.2455
X4.2534
X4.2613
X4.2691
X4.277
X4.2849
X4.2928
X4.3006
X4.3085
X4.3164
X4.3243
X4.3321
X4.34
X4.3479
X4.3558
X4.3636
X4.3715
X4.3794
X4.3873
X4.3951
X4.403
X4.4109
X4.4187
X4.4266
X4.4345
X4.4424
X4.4502
X4.4581
X4.466
X4.4739
X4.4817
X4.4896
X4.4975
X4.5054
X4.5132
X4.5211
X4.529
X4.5369
X4.5447
X4.5526
X4.5605
X4.5684
X4.5762
X4.5841
X4.592
X4.5999
X4.6077
X4.6156
X4.6235
X4.6313
X4.6392
X4.6471
X4.655
X4.6628
X4.6707
X4.6786
X4.6865
X4.6943
X4.7022
X4.7101
X4.718
X4.7258
X4.7337
X4.7416
X4.7495
X4.7573
X4.7652
X4.7731
X4.781
X4.7888
X4.7967
X4.8046
X4.8124
X4.8203
X4.8282
X4.8361
X4.8439
X4.8518
X4.8597
X4.8676
X4.8754
X4.8833
X4.8912
X4.8991
X4.9069
X4.9148
X4.9227
X4.9306
X4.9384
X4.9463
X4.9542
X4.9621
X4.9699
X4.9778
X4.9857
X4.9936
X5.0014
X5.0093
X5.0172
X5.025
X5.0329
X5.0408
X5.0487
X5.0565
X5.0644
X5.0723
X5.0802
X5.088
X5.0959
X5.1038
X5.1117
X5.1195
X5.1274
X5.1353
X5.1432
X5.151
X5.1589
X5.1668
X5.1747
X5.1825
X5.1904
X5.1983
X5.2062
X5.214
X5.2219
X5.2298
X5.2376
X5.2455
X5.2534
X5.2613
X5.2691
X5.277
X5.2849
X5.2928
X5.3006
X5.3085
X5.3164
X5.3243
X5.3321
X5.34
X5.3479
X5.3558
X5.3636
X5.3715
X5.3794
X5.3873
X5.3951
X5.403
X5.4109
X5.4187
X5.4266
X5.4345
X5.4424
X5.4502
X5.4581
X5.466
X5.4739
X5.4817
X5.4896
X5.4975
X5.5054
X5.5132
X5.5211
X5.529
X5.5369
X5.5447
X5.5526
X5.5605
X5.5684
X5.5762
X5.5841
X5.592
X5.5999
X5.6077
X5.6156
X5.6235
X5.6313
X5.6392
X5.6471
X5.655
X5.6628
X5.6707
X5.6786
X5.6865
X5.6943
X5.7022
X5.7101
X5.718
X5.7258
X5.7337
X5.7416
X5.7495
X5.7573
X5.7652
X5.7731
X5.781
X5.7888
X5.7967
X5.8046
X5.8124
X5.8203
X5.8282
X5.8361
X5.8439
X5.8518
X5.8597
X5.8676
X5.8754
X5.8833
X5.8912
X5.8991
X5.9069
X5.9148
X5.9227
X5.9306
X5.9384
X5.9463
X5.9542
X5.9621
X5.9699
X5.9778
X5.9857
X5.9936
X6.0014
X6.0093
X6.0172
X6.025
X6.0329
X6.0408
X6.0487
X6.0565
X6.0644
X6.0723
X6.0802
X6.088
X6.0959
X6.1038
X6.1117
X6.1195
X6.1274
X6.1353
X6.1432
X6.151
X6.1589
X6.1668
X6.1747
X6.1825
X6.1904
X6.1983
X6.2062
X6.214
X6.2219
X6.2298
X6.2376
X6.2455
X6.2534
X6.2613
X6.2691
X6.277
X6.2849
X6.2928
X6.3006
X6.3085
X6.3164
X6.3243
X6.3321
X6.34
X6.3479
X6.3558
X6.3636
X6.3715
X6.3794
X6.3873
X6.3951
X6.403
X6.4109
X6.4187
X6.4266
X6.4345
X6.4424
X6.4502
X6.4581
X6.466
X6.4739
X6.4817
X6.4896
X6.4975
X6.5054
X6.5132
X6.5211
X6.529
X6.5369
X6.5447
X6.5526
X6.5605
X6.5684
X6.5762
X6.5841
X6.592
X6.5999
X6.6077
X6.6156
X6.6235
X6.6313
X6.6392
X6.6471
X6.655
X6.6628
X6.6707
X6.6786
X6.6865
X6.6943
X6.7022
X6.7101
X6.718
X6.7258
X6.7337
X6.7416
X6.7495
X6.7573
X6.7652
X6.7731
X6.781
X6.7888
X6.7967
X6.8046
X6.8124
X6.8203
X6.8282
X6.8361
X6.8439
X6.8518
X6.8597
X6.8676
X6.8754
X6.8833
X6.8912
X6.8991
X6.9069
X6.9148
X6.9227
X6.9306
X6.9384
X6.9463
X6.9542
X6.9621
X6.9699
X6.9778
X6.9857
X6.9936
X7.0014
X7.0093
X7.0172
X7.025
X7.0329
X7.0408
X7.0487
X7.0565
X7.0644
X7.0723
X7.0802
X7.088
X7.0959
X7.1038
X7.1117
X7.1195
X7.1274
X7.1353
X7.1432
X7.151
X7.1589
X7.1668
X7.1747
X7.1825
X7.1904
X7.1983
X7.2062
X7.214
X7.2219
X7.2298
X7.2376
X7.2455
X7.2534
X7.2613
X7.2691
X7.277
X7.2849
X7.2928
X7.3006
X7.3085
X7.3164
X7.3243
X7.3321
X7.34
X7.3479
X7.3558
X7.3636
X7.3715
X7.3794
X7.3873
X7.3951
X7.403
X7.4109
X7.4187
X7.4266
X7.4345
X7.4424
X7.4502
X7.4581
X7.466
X7.4739
X7.4817
X7.4896
X7.4975
X7.5054
X7.5132
X7.5211
X7.529
X7.5369
X7.5447
X7.5526
X7.5605
X7.5684
X7.5762
X7.5841
X7.592
X7.5999
X7.6077
X7.6156
X7.6235
X7.6313
X7.6392
X7.6471
X7.655
X7.6628
X7.6707
X7.6786
X7.6865
X7.6943
X7.7022
X7.7101
X7.718
X7.7258
X7.7337
X7.7416
X7.7495
X7.7573
X7.7652
X7.7731
X7.781
X7.7888
X7.7967
X7.8046
X7.8124
X7.8203
X7.8282
X7.8361
X7.8439
X7.8518
X7.8597
X7.8676
X7.8754
X7.8833
X7.8912
X7.8991
X7.9069
X7.9148
X7.9227
X7.9306
X7.9384
X7.9463
X7.9542
X7.9621
X7.9699
X7.9778
X7.9857
X7.9936
X8.0014
X8.0093
X8.0172
X8.025
X8.0329
X8.0408
X8.0487
X8.0565
X8.0644
X8.0723
X8.0802
X8.088
X8.0959
X8.1038
X8.1117
X8.1195
X8.1274
X8.1353
X8.1432
X8.151
X8.1589
X8.1668
X8.1747
X8.1825
X8.1904
X8.1983
X8.2062
X8.214
X8.2219
X8.2298
X8.2376
X8.2455
X8.2534
X8.2613
X8.2691
X8.277
X8.2849
X8.2928
X8.3006
X8.3085
X8.3164
X8.3243
X8.3321
X8.34
X8.3479
X8.3558
X8.3636
X8.3715
X8.3794
X8.3873
X8.3951
X8.403
X8.4109
X8.4187
X8.4266
X8.4345
X8.4424
X8.4502
X8.4581
X8.466
X8.4739
X8.4817
X8.4896
X8.4975
X8.5054
X8.5132
X8.5211
X8.529
X8.5369
X8.5447
X8.5526
X8.5605
X8.5684
X8.5762
X8.5841
X8.592
X8.5999
X8.6077
X8.6156
X8.6235
X8.6313
X8.6392
X8.6471
X8.655
X8.6628
X8.6707
X8.6786
X8.6865
X8.6943
X8.7022
X8.7101
X8.718
X8.7258
X8.7337
X8.7416
X8.7495
X8.7573
X8.7652
X8.7731
X8.781
X8.7888
X8.7967
X8.8046
X8.8124
X8.8203
X8.8282
X8.8361
X8.8439
X8.8518
X8.8597
X8.8676
X8.8754
X8.8833
X8.8912
X8.8991
X8.9069
X8.9148
X8.9227
X8.9306
X8.9384
X8.9463
X8.9542
X8.9621
X8.9699
X8.9778
X8.9857
X8.9936
X9.0014
X9.0093
X9.0172
X9.025
X9.0329
X9.0408
X9.0487
X9.0565
X9.0644
X9.0723
X9.0802
X9.088
X9.0959
X9.1038
X9.1117
X9.1195
X9.1274
X9.1353
X9.1432
X9.151
X9.1589
X9.1668
X9.1747
X9.1825
X9.1904
X9.1983
X9.2062
X9.214
X9.2219
X9.2298
X9.2376
X9.2455
X9.2534
X9.2613
X9.2691
X9.277
X9.2849
X9.2928
X9.3006
X9.3085
X9.3164
X9.3243
X9.3321
X9.34
X9.3479
X9.3558
X9.3636
X9.3715
X9.3794
X9.3873
X9.3951
X9.403
X9.4109
X9.4187
X9.4266
X9.4345
X9.4424
X9.4502
X9.4581
X9.466
X9.4739
X9.4817
X9.4896
X9.4975
X9.5054
X9.5132
X9.5211
X9.529
X9.5369
X9.5447
X9.5526
X9.5605
X9.5684
X9.5762
X9.5841
X9.592
X9.5999
X9.6077
X9.6156
X9.6235
X9.6313
X9.6392
X9.6471
X9.655
X9.6628
X9.6707
X9.6786
X9.6865
X9.6943
X9.7022
X9.7101
X9.718
X9.7258
X9.7337
X9.7416
X9.7495
X9.7573
X9.7652
X9.7731
X9.781
X9.7888
X9.7967
X9.8046
X9.8125
X9.8203
X9.8282
X9.8361
X9.8439
X9.8518
X9.8597
X9.8676
X9.8754
X9.8833
X9.8912
X9.8991
X9.9069
X9.9148
X9.9227
X9.9306
X9.9384
X9.9463
X9.9542
X9.9621
X9.9699
X9.9778
X9.9857
X9.9936
X10.0014
X10.0093
X10.0172
X10.025
X10.0329
X10.0408
X10.0487
X10.0565
X10.0644
X10.0723
X10.0802
X10.088
X10.0959
X10.1038
X10.1117
X10.1195
X10.1274
X10.1353
X10.1432
X10.151
X10.1589
X10.1668
X10.1747
X10.1825
X10.1875
X10.1938Y3.3747
X10.2Y3.3737
X10.2061Y3.3721
X10.212Y3.37
X10.2177Y3.3672
X10.223Y3.3639
X10.228Y3.36
X10.2281
X10.2325Y3.3558
X10.2366Y3.3512
X10.2401Y3.3462
X10.2432Y3.3408
X10.2457Y3.3352
X10.2476Y3.3294
X10.249Y3.3234
X10.2498Y3.3174
X10.25Y3.3125
Y3.3046
Y3.2967
Y3.2888
Y3.281
Y3.2731
Y3.2652
Y3.2573
Y3.2495
Y3.2416
Y3.2337
Y3.2258
Y3.218
Y3.2101
Y3.2022
Y3.1943
Y3.1865
Y3.1786
Y3.1707
Y3.1628
Y3.155
Y3.1471
Y3.1392
Y3.1313
Y3.1235
Y3.1156
Y3.1077
Y3.0999
Y3.092
Y3.0841
Y3.0762
Y3.0684
Y3.0605
Y3.0526
Y3.0447
Y3.0369
Y3.029
Y3.0211
Y3.0132
Y3.0054
Y2.9975
Y2.9896
Y2.9817
Y2.9739
Y2.966
Y2.9581
Y2.9502
Y2.9424
Y2.9345
Y2.9266
Y2.9187
Y2.9109
Y2.903
Y2.8951
Y2.8873
Y2.8794
Y2.8715
Y2.8636
Y2.8558
Y2.8479
Y2.84
Y2.8321
Y2.8243
Y2.8164
Y2.8085
Y2.8006
Y2.7928
Y2.7849
Y2.777
Y2.7691
Y2.7613
Y2.7534
Y2.7455
Y2.7376
Y2.7298
Y2.7219
Y2.714
Y2.7062
Y2.6983
Y2.6904
Y2.6825
Y2.6747
Y2.6668
Y2.6589
Y2.651
Y2.6432
Y2.6353
Y2.6274
Y2.6195
Y2.6117
Y2.6038
Y2.5959
Y2.588
Y2.5802
Y2.5723
Y2.5644
Y2.5565
Y2.5487
Y2.5408
Y2.5329
Y2.525
Y2.5172
Y2.5093
Y2.5014
Y2.4936
Y2.4857
Y2.4778
Y2.4699
Y2.4621
Y2.4542
Y2.4463
Y2.4384
Y2.4306
Y2.4227
Y2.4148
Y2.4069
Y2.3991
Y2.3912
Y2.3833
Y2.3754
Y2.3676
Y2.3597
Y2.3518
Y2.3439
Y2.3361
Y2.3282
Y2.3203
Y2.3125
Y2.3046
Y2.2967
Y2.2888
Y2.281
Y2.2731
Y2.2652
Y2.2573
Y2.2495
Y2.2416
Y2.2337
Y2.2258
Y2.218
Y2.2101
Y2.2022
Y2.1943
Y2.1865
Y2.1786
Y2.1707
Y2.1628
Y2.155
Y2.1471
Y2.1392
Y2.1313
Y2.1235
Y2.1156
Y2.1077
Y2.0999
Y2.092
Y2.0841
Y2.0762
Y2.0684
Y2.0605
Y2.0526
Y2.0447
Y2.0369
Y2.029
Y2.0211
Y2.0132
Y2.0054
Y1.9975
Y1.9896
Y1.9817
Y1.9739
Y1.966
Y1.9581
Y1.9502
Y1.9424
Y1.9345
Y1.9266
Y1.9187
Y1.9109
Y1.903
Y1.8951
Y1.8873
Y1.8794
Y1.8715
Y1.8636
Y1.8558
Y1.8479
Y1.84
Y1.8321
Y1.8243
Y1.8164
Y1.8085
Y1.8006
Y1.7928
Y1.7849
Y1.777
Y1.7691
Y1.7613
Y1.7534
Y1.7455
Y1.7376
Y1.7298
Y1.7219
Y1.714
Y1.7062
Y1.6983
Y1.6904
Y1.6825
Y1.6747
Y1.6668
Y1.6589
Y1.651
Y1.6432
Y1.6353
Y1.6274
Y1.6195
Y1.6117
Y1.6038
Y1.5959
Y1.588
Y1.5802
Y1.5723
Y1.5644
Y1.5565
Y1.5487
Y1.5408
Y1.5329
Y1.525
Y1.5172
Y1.5093
Y1.5014
Y1.4936
Y1.4857
Y1.4778
Y1.4699
Y1.4621
Y1.4542
Y1.4463
Y1.4384
Y1.4306
Y1.4227
Y1.4148
Y1.4069
Y1.3991
Y1.3912
Y1.3833
Y1.3754
Y1.3676
Y1.3597
Y1.3518
Y1.3439
Y1.3361
Y1.3282
Y1.3203
Y1.3125
Y1.3046
Y1.2967
Y1.2888
Y1.281
Y1.2731
Y1.2652
Y1.2573
Y1.2495
Y1.2416
Y1.2337
Y1.2258
Y1.218
Y1.2101
Y1.2022
Y1.1943
Y1.1865
Y1.1786
Y1.1707
Y1.1628
Y1.155
Y1.1471
Y1.1392
Y1.1313
Y1.1235
Y1.1156
Y1.1077
Y1.0999
Y1.092
Y1.0841
Y1.0762
Y1.0684
Y1.0605
Y1.0526
Y1.0447
Y1.0369
Y1.029
Y1.0211
Y1.0132
Y1.0054
Y0.9975
Y0.9896
Y0.9817
Y0.9739
Y0.966
Y0.9581
Y0.9502
Y0.9424
Y0.9345
Y0.9266
Y0.9187
Y0.9109
Y0.903
Y0.8951
Y0.8873
Y0.8794
Y0.8715
Y0.8636
Y0.8558
Y0.8479
Y0.84
Y0.8321
Y0.8243
Y0.8164
Y0.8085
Y0.8006
Y0.7928
Y0.7849
Y0.777
Y0.7691
Y0.7613
Y0.7534
Y0.7455
Y0.7376
Y0.7298
Y0.7219
Y0.714
Y0.7062
Y0.6983
Y0.6904
Y0.6825
Y0.6747
Y0.6668
Y0.6589
Y0.651
Y0.6432
Y0.6353
Y0.6274
Y0.6195
Y0.6117
Y0.6038
Y0.5959
Y0.588
Y0.5802
Y0.5723
Y0.5644
Y0.5565
Y0.5487
Y0.5408
Y0.5329
Y0.525
Y0.5172
Y0.5093
Y0.5014
Y0.4936
Y0.4857
Y0.4778
Y0.4699
Y0.4621
Y0.4542
Y0.4463
Y0.4384
Y0.4306
Y0.4227
Y0.4148
Y0.4069
Y0.3991
Y0.3912
Y0.3833
Y0.3754
Y0.3676
Y0.3597
Y0.3518
Y0.3439
Y0.3361
Y0.3282
Y0.3203
Y0.3125
Y0.3046
Y0.2967
Y0.2888
Y0.281
Y0.2731
Y0.2652
Y0.2573
Y0.2495
Y0.2416
Y0.2337
Y0.2258
Y0.218
Y0.2101
Y0.2022
Y0.1943
Y0.1865
Y0.1786
Y0.1707
Y0.1628
Y0.155
Y0.1471
Y0.1392
Y0.1313
Y0.1235
Y0.1156
Y0.1077
Y0.0999
Y0.092
Y0.0841
Y0.0762
Y0.0684
Y0.0605
Y0.0526
Y0.0447
Y0.0369
Y0.029
Y0.0211
Y0.0132
Y0.0054
Y-0.0024
Y-0.0103
Y-0.0182
Y-0.026
Y-0.0339
Y-0.0418
Y-0.0497
Y-0.0575
Y-0.0654
Y-0.0733
Y-0.0812
Y-0.089
Y-0.0969
Y-0.1048
Y-0.1126
Y-0.1205
Y-0.1284
Y-0.1363
Y-0.1441
Y-0.152
Y-0.1599
Y-0.1678
Y-0.1756
Y-0.1835
Y-0.1914
Y-0.1993
Y-0.2071
Y-0.215
Y-0.2229
Y-0.2308
Y-0.2386
Y-0.2465
Y-0.2544
Y-0.2623
Y-0.2701
Y-0.278
Y-0.2859
Y-0.2937
Y-0.3016
Y-0.3095
Y-0.3174
Y-0.3252
Y-0.3331
Y-0.341
Y-0.3489
Y-0.3567
Y-0.3646
Y-0.3725
Y-0.3804
Y-0.3882
Y-0.3961
Y-0.404
Y-0.4119
Y-0.4197
Y-0.4276
Y-0.4355
Y-0.4434
Y-0.4512
Y-0.4591
Y-0.467
Y-0.4749
Y-0.4827
Y-0.4906
Y-0.4985
Y-0.5063
Y-0.5142
Y-0.5221
Y-0.53
Y-0.5378
Y-0.5457
Y-0.5536
Y-0.5615
Y-0.5693
Y-0.5772
Y-0.5851
Y-0.593
Y-0.6008
Y-0.6087
Y-0.6166
Y-0.6245
Y-0.6323
Y-0.6402
Y-0.6481
Y-0.656
Y-0.6638
Y-0.6717
Y-0.6796
Y-0.6875
Y-0.6953
Y-0.7032
Y-0.7111
Y-0.7189
Y-0.7268
Y-0.7347
Y-0.7426
Y-0.7504
Y-0.7583
Y-0.7662
Y-0.7741
Y-0.7819
Y-0.7898
Y-0.7977
Y-0.8056
Y-0.8134
Y-0.8213
Y-0.8292
Y-0.8371
Y-0.8449
Y-0.8528
Y-0.8607
Y-0.8686
Y-0.8764
Y-0.8843
Y-0.8922
Y-0.9
Y-0.9079
Y-0.9158
Y-0.9237
Y-0.9315
Y-0.9394
Y-0.9473
Y-0.9552
Y-0.963
Y-0.9709
Y-0.9788
Y-0.9867
Y-0.9945
Y-1.0024
Y-1.0103
Y-1.0182
Y-1.026
Y-1.0339
Y-1.0418
Y-1.0497
Y-1.0575
Y-1.0654
Y-1.0733
Y-1.0812
Y-1.089
Y-1.0969
Y-1.1048
Y-1.1126
Y-1.1205
Y-1.1284
Y-1.1363
Y-1.1441
Y-1.152
Y-1.1599
Y-1.1678
Y-1.1756
Y-1.1835
Y-1.1914
Y-1.1993
Y-1.2071
Y-1.215
Y-1.2229
Y-1.2308
Y-1.2386
Y-1.2465
Y-1.2544
Y-1.2623
Y-1.2701
Y-1.278
Y-1.2859
Y-1.2937
Y-1.3016
Y-1.3095
Y-1.3174
Y-1.3252
Y-1.3331
Y-1.341
Y-1.3489
Y-1.3567
Y-1.3646
Y-1.3725
Y-1.3804
Y-1.3882
Y-1.3961
Y-1.404
Y-1.4119
Y-1.4197
Y-1.4276
Y-1.4355
Y-1.4434
Y-1.4512
Y-1.4591
Y-1.467
Y-1.4749
Y-1.4827
Y-1.4906
Y-1.4985
Y-1.5063
Y-1.5142
Y-1.5221
Y-1.53
Y-1.5378
Y-1.5457
Y-1.5536
Y-1.5615
Y-1.5693
Y-1.5772
Y-1.5851
Y-1.593
Y-1.6008
Y-1.6087
Y-1.6166
Y-1.6245
Y-1.6323
Y-1.6402
Y-1.6481
Y-1.656
Y-1.6638
Y-1.6717
Y-1.6796
Y-1.6875
Y-1.6953
Y-1.7032
Y-1.7111
Y-1.7189
Y-1.7268
Y-1.7347
Y-1.7426
Y-1.7504
Y-1.7583
Y-1.7662
Y-1.7741
Y-1.7819
Y-1.7898
Y-1.7977
Y-1.8056
Y-1.8134
Y-1.8213
Y-1.8292
Y-1.8371
Y-1.8449
Y-1.8528
Y-1.8607
Y-1.8686
Y-1.8764
Y-1.8843
Y-1.8922
Y-1.9
Y-1.9079
Y-1.9158
Y-1.9237
Y-1.9315
Y-1.9394
Y-1.9473
Y-1.9552
Y-1.963
Y-1.9709
Y-1.9788
Y-1.9867
Y-1.9945
Y-2.0024
Y-2.0103
Y-2.0182
Y-2.026
Y-2.0339
Y-2.0418
Y-2.0497
Y-2.0575
Y-2.0654
Y-2.0733
Y-2.0812
Y-2.089
Y-2.0969
Y-2.1048
Y-2.1126
Y-2.1205
Y-2.1284
Y-2.1363
Y-2.1441
Y-2.152
Y-2.1599
Y-2.1678
Y-2.1756
Y-2.1835
Y-2.1914
Y-2.1993
Y-2.2071
Y-2.215
Y-2.2229
Y-2.2308
Y-2.2386
Y-2.2465
Y-2.2544
Y-2.2623
Y-2.2701
Y-2.278
Y-2.2859
Y-2.2937
Y-2.3016
Y-2.3095
Y-2.3174
Y-2.3252
Y-2.3331
Y-2.341
Y-2.3489
Y-2.3567
Y-2.3646
Y-2.3725
Y-2.3804
Y-2.3882
Y-2.3961
Y-2.404
Y-2.4119
Y-2.4197
Y-2.4276
Y-2.4355
Y-2.4434
Y-2.4512
Y-2.4591
Y-2.467
Y-2.4749
Y-2.4827
Y-2.4906
Y-2.4985
Y-2.5063
Y-2.5142
Y-2.5221
Y-2.53
Y-2.5378
Y-2.5457
Y-2.5536
Y-2.5615
Y-2.5693
Y-2.5772
Y-2.5851
Y-2.593
Y-2.6008
Y-2.6087
Y-2.6166
Y-2.6245
Y-2.6323
Y-2.6402
Y-2.6481
Y-2.656
Y-2.6638
Y-2.6717
Y-2.6796
Y-2.6875
Y-2.6953
Y-2.7032
Y-2.7111
Y-2.7189
Y-2.7268
Y-2.7347
Y-2.7426
Y-2.7504
Y-2.7583
Y-2.7662
Y-2.7741
Y-2.7819
Y-2.7898
Y-2.7977
Y-2.8056
Y-2.8134
Y-2.8213
Y-2.8292
Y-2.8371
Y-2.8449
Y-2.8528
Y-2.8607
Y-2.8686
Y-2.8764
Y-2.8843
Y-2.8922
Y-2.9
Y-2.9079
Y-2.9158
Y-2.9237
Y-2.9315
Y-2.9394
Y-2.9473
Y-2.9552
Y-2.963
Y-2.9709
Y-2.9788
Y-2.9867
Y-2.9945
Y-3.0024
Y-3.0103
Y-3.0182
Y-3.026
Y-3.0339
Y-3.0418
Y-3.0497
Y-3.0575
Y-3.0654
Y-3.0733
Y-3.0812
Y-3.089
Y-3.0969
Y-3.1048
Y-3.1126
Y-3.1205
Y-3.1284
Y-3.1363
Y-3.1441
Y-3.152
Y-3.1599
Y-3.1678
Y-3.1756
Y-3.1835
Y-3.1914
Y-3.1993
Y-3.2071
Y-3.215
Y-3.2229
Y-3.2308
Y-3.2386
Y-3.2465
Y-3.2544
Y-3.2623
Y-3.2701
Y-3.278
Y-3.2859
Y-3.2937
Y-3.3016
Y-3.3095
Y-3.3125
X10.2497Y-3.3186
X10.2488Y-3.3246
X10.2473Y-3.3306
X10.2452Y-3.3364
X10.2426Y-3.3419
X10.2395Y-3.3472
X10.2358Y-3.3521
X10.2317Y-3.3566
X10.2316Y-3.3567
X10.2271Y-3.3608
X10.2222Y-3.3645
X10.2169Y-3.3676
X10.2114Y-3.3702
X10.2056Y-3.3723
X10.1996Y-3.3738
X10.1936Y-3.3747
X10.1875Y-3.375
G0Z0.3937
 
