(Created with grbl post processor 2026/05/26 18:50)
G20
(G-code Generated with Fabex and NC library)
(Rapids: 196.85/min)
G17G90
(Tool: D = 0.125''  type END flutes 2)
S15000M03
G00 Z0.39 F196.85

G0X0Y0Z0.3937
X-3.375Y-1.2734
G1Z-0.125F19.68
Y-1.2655F39.37
Y-1.2576
Y-1.2498
Y-1.2419
Y-1.234
Y-1.2261
Y-1.2183
Y-1.2104
Y-1.2025
Y-1.1946
Y-1.1868
Y-1.1789
Y-1.171
Y-1.1632
Y-1.1553
Y-1.1474
Y-1.1395
Y-1.1317
Y-1.1238
Y-1.1159
Y-1.108
Y-1.1002
Y-1.0923
Y-1.0844
Y-1.0765
Y-1.0687
Y-1.0608
Y-1.0529
Y-1.045
Y-1.0372
Y-1.0293
Y-1.0214
Y-1.0135
Y-1.0057
Y-0.9978
Y-0.9899
Y-0.982
Y-0.9742
Y-0.9663
Y-0.9584
Y-0.9506
Y-0.9427
Y-0.9348
Y-0.9269
Y-0.9191
Y-0.9112
Y-0.9033
Y-0.8954
Y-0.8876
Y-0.8797
Y-0.8718
Y-0.8639
Y-0.8561
Y-0.8482
Y-0.8403
Y-0.8324
Y-0.8246
Y-0.8167
Y-0.8088
Y-0.8009
Y-0.7931
Y-0.7852
Y-0.7773
Y-0.7695
Y-0.7616
Y-0.7537
Y-0.7458
Y-0.738
Y-0.7301
Y-0.7222
Y-0.7143
Y-0.7065
Y-0.6986
Y-0.6907
Y-0.6828
Y-0.675
Y-0.6671
Y-0.6592
Y-0.6513
Y-0.6435
Y-0.6356
Y-0.6277
Y-0.6198
Y-0.612
Y-0.6041
Y-0.5962
Y-0.5883
Y-0.5805
Y-0.5726
Y-0.5647
Y-0.5569
Y-0.549
Y-0.5411
Y-0.5332
Y-0.5254
Y-0.5175
Y-0.5096
Y-0.5017
Y-0.4939
Y-0.486
Y-0.4781
Y-0.4702
Y-0.4624
Y-0.4545
Y-0.4466
Y-0.4387
Y-0.4309
Y-0.423
Y-0.4151
Y-0.4072
Y-0.3994
Y-0.3915
Y-0.3836
Y-0.3758
Y-0.3679
Y-0.36
Y-0.3521
Y-0.3443
Y-0.3364
Y-0.3285
Y-0.3206
Y-0.3128
Y-0.3049
Y-0.297
Y-0.2891
Y-0.2813
Y-0.2734
Y-0.2655
Y-0.2576
Y-0.2498
Y-0.2419
Y-0.234
Y-0.2261
Y-0.2183
Y-0.2104
Y-0.2025
Y-0.1946
Y-0.1868
Y-0.1789
Y-0.171
Y-0.1632
Y-0.1553
Y-0.1474
Y-0.1395
Y-0.1317
Y-0.1238
Y-0.1159
Y-0.108
Y-0.1002
Y-0.0923
Y-0.0844
Y-0.0765
Y-0.0687
Y-0.0608
Y-0.0529
Y-0.045
Y-0.0372
Y-0.0293
Y-0.0214
Y-0.0135
Y-0.0057
Y0
Y0.0078
Y0.0157
Y0.0236
Y0.0314
Y0.0393
Y0.0472
Y0.0551
Y0.0629
Y0.0708
Y0.0787
Y0.0866
Y0.0944
Y0.1023
Y0.1102
Y0.1181
Y0.1259
Y0.1338
Y0.1417
Y0.1496
Y0.1574
Y0.1653
Y0.1732
Y0.1811
Y0.1889
Y0.1968
Y0.2047
Y0.2125
Y0.2204
Y0.2283
Y0.2362
Y0.244
Y0.2519
Y0.2598
Y0.2677
Y0.2755
Y0.2834
Y0.2913
Y0.2992
Y0.307
Y0.3149
Y0.3228
Y0.3307
Y0.3385
Y0.3464
Y0.3543
Y0.3622
Y0.37
Y0.3779
Y0.3858
Y0.3937
Y0.4015
Y0.4094
Y0.4173
Y0.4251
Y0.433
Y0.4409
Y0.4488
Y0.4566
Y0.4645
Y0.4724
Y0.4803
Y0.4881
Y0.496
Y0.5039
Y0.5118
Y0.5196
Y0.5275
Y0.5354
Y0.5433
Y0.5511
Y0.559
Y0.5669
Y0.5748
Y0.5826
Y0.5905
Y0.5984
Y0.6062
Y0.6141
Y0.622
Y0.6299
Y0.6377
Y0.6456
Y0.6535
Y0.6614
Y0.6692
Y0.6771
Y0.685
Y0.6929
Y0.7007
Y0.7086
Y0.7165
Y0.7244
Y0.7322
Y0.7401
Y0.748
Y0.7559
Y0.7637
Y0.7716
Y0.7795
Y0.7874
Y0.7952
Y0.8031
Y0.811
Y0.8188
Y0.8267
Y0.8346
Y0.8425
Y0.8503
Y0.8582
Y0.8661
Y0.874
Y0.8818
Y0.8897
Y0.8976
Y0.9055
Y0.9133
Y0.9212
Y0.9291
Y0.937
Y0.9448
Y0.9527
Y0.9606
Y0.9685
Y0.9763
Y0.9842
Y0.9921
Y1
Y1.0078
Y1.0157
Y1.0236
Y1.0314
Y1.0393
Y1.0472
Y1.0551
Y1.0629
Y1.0708
Y1.0787
Y1.0866
Y1.0944
Y1.1023
Y1.1102
Y1.1181
Y1.1259
Y1.1338
Y1.1417
Y1.1496
Y1.1574
Y1.1653
Y1.1732
Y1.1811
Y1.1889
Y1.1968
Y1.2047
Y1.2125
Y1.2204
Y1.2283
Y1.2362
Y1.244
Y1.2519
Y1.2598
Y1.2677
Y1.2734
Y1.2813
Y1.2891
Y1.297
Y1.3049
Y1.3128
Y1.3206
Y1.3285
Y1.3364
Y1.3443
Y1.3521
Y1.36
Y1.3679
Y1.3758
Y1.3836
Y1.3915
Y1.3994
Y1.4072
Y1.4151
Y1.423
Y1.4309
Y1.4387
Y1.4466
Y1.4545
Y1.4624
Y1.4702
Y1.4781
Y1.486
Y1.4939
Y1.5017
Y1.5096
Y1.5175
Y1.5254
Y1.5332
Y1.5411
Y1.549
Y1.5569
Y1.5647
Y1.5726
Y1.5805
Y1.5883
Y1.5962
Y1.6041
Y1.612
Y1.6198
Y1.6277
Y1.6356
Y1.6435
Y1.6513
Y1.6592
Y1.6671
Y1.675
Y1.6828
Y1.6907
Y1.6986
Y1.7065
Y1.7143
Y1.7222
Y1.7301
Y1.738
Y1.7458
Y1.7537
Y1.7616
Y1.7695
Y1.7773
Y1.7852
Y1.7931
Y1.8009
Y1.8088
Y1.8167
Y1.8246
Y1.8324
Y1.8403
Y1.8482
Y1.8561
Y1.8639
Y1.8718
Y1.8797
Y1.8876
Y1.8954
Y1.9033
Y1.9112
Y1.9191
Y1.9269
Y1.9348
Y1.9427
Y1.9506
Y1.9584
Y1.9663
Y1.9742
Y1.982
Y1.9899
Y1.9978
Y2.0057
Y2.0135
Y2.0214
Y2.0293
Y2.0372
Y2.045
Y2.0529
Y2.0608
Y2.0687
Y2.0765
Y2.0844
Y2.0923
Y2.1002
Y2.108
Y2.1159
Y2.1238
Y2.1317
Y2.1395
Y2.1474
Y2.1553
Y2.1632
Y2.171
Y2.1789
Y2.1868
Y2.1946
Y2.2025
Y2.2104
Y2.2183
Y2.2261
Y2.234
Y2.2419
Y2.2498
Y2.2576
Y2.2655
Y2.2734
Y2.2813
Y2.2891
Y2.297
Y2.3049
Y2.3128
Y2.3206
Y2.3285
Y2.3364
Y2.3443
Y2.3521
Y2.36
Y2.3679
Y2.3757
Y2.3836
Y2.3915
Y2.3994
Y2.4072
Y2.4151
Y2.423
Y2.4309
Y2.4387
Y2.4466
Y2.4545
Y2.4624
Y2.4702
Y2.4781
Y2.486
Y2.4939
Y2.5017
Y2.5096
Y2.5175
Y2.5254
Y2.5332
Y2.5411
Y2.5468
Y2.5547
Y2.5626
Y2.5704
Y2.5783
Y2.5862
Y2.5941
Y2.6019
Y2.6098
Y2.6177
Y2.6256
Y2.6334
Y2.6413
Y2.6492
Y2.6571
Y2.6649
Y2.6728
Y2.6807
Y2.6886
Y2.6964
Y2.7043
Y2.7122
Y2.7201
Y2.7279
Y2.7358
Y2.7437
Y2.7515
Y2.7594
Y2.7673
Y2.7752
Y2.783
Y2.7909
Y2.7988
Y2.8067
Y2.8145
Y2.8224
Y2.8303
Y2.8382
Y2.846
Y2.8539
Y2.8618
Y2.8697
Y2.8775
Y2.8854
Y2.8933
Y2.9012
Y2.909
Y2.9169
Y2.9248
Y2.9327
Y2.9405
Y2.9484
Y2.9563
Y2.9641
Y2.972
Y2.9799
Y2.9878
Y2.9956
Y3.0035
Y3.0114
Y3.0193
Y3.0271
Y3.035
Y3.0429
Y3.0508
Y3.0586
Y3.0665
Y3.0744
Y3.0823
Y3.0901
Y3.098
Y3.1059
Y3.1138
Y3.1216
Y3.1295
Y3.1374
Y3.1453
Y3.1531
Y3.161
Y3.1689
Y3.1767
Y3.1846
Y3.1925
Y3.2004
Y3.2082
Y3.2161
Y3.224
Y3.2319
Y3.2397
Y3.2476
Y3.2555
Y3.2634
Y3.2712
Y3.2791
Y3.287
Y3.2949
Y3.3027
Y3.3106
Y3.3185
Y3.3264
Y3.3342
Y3.3421
Y3.35
Y3.3578
Y3.3657
Y3.3736
Y3.3815
Y3.3893
Y3.3972
Y3.4051
Y3.413
Y3.4208
Y3.4287
Y3.4366
Y3.4445
Y3.4523
Y3.4602
Y3.4681
Y3.476
Y3.4838
Y3.4917
Y3.4996
Y3.5075
Y3.5153
Y3.5232
Y3.5311
Y3.539
Y3.5468
Y3.5547
Y3.5626
Y3.5704
Y3.5783
Y3.5862
Y3.5941
Y3.6019
Y3.6098
Y3.6177
Y3.6256
Y3.6334
Y3.6413
Y3.6492
Y3.6571
Y3.6649
Y3.6728
Y3.6807
Y3.6886
Y3.6964
Y3.7043
Y3.7122
Y3.7201
Y3.7279
Y3.7358
Y3.7437
Y3.7515
Y3.7594
Y3.7673
Y3.7752
Y3.783
Y3.7909
Y3.7988
Y3.8067
Y3.8145
Y3.8203
Y3.8281
Y3.836
Y3.8439
Y3.8518
Y3.8596
Y3.8675
Y3.8754
Y3.8833
Y3.8911
Y3.899
Y3.9069
Y3.9148
Y3.9226
Y3.9305
Y3.9384
Y3.9462
Y3.9541
Y3.962
Y3.9699
Y3.9777
Y3.9856
Y3.9935
Y4.0014
Y4.0092
Y4.0171
Y4.025
Y4.0329
Y4.0407
Y4.0486
Y4.0565
Y4.0644
Y4.0722
Y4.0801
Y4.088
Y4.0959
Y4.1037
Y4.1116
Y4.1195
Y4.1273
Y4.1352
Y4.1431
Y4.151
Y4.1588
Y4.1667
Y4.1746
Y4.1825
Y4.1903
Y4.1982
Y4.2061
Y4.214
Y4.2218
Y4.2297
Y4.2376
Y4.2455
Y4.2533
Y4.2612
Y4.2691
Y4.277
Y4.2848
Y4.2927
Y4.3006
Y4.3085
Y4.3163
Y4.3242
Y4.3321
Y4.3399
Y4.3478
Y4.3557
Y4.3636
Y4.3714
Y4.3793
Y4.3872
Y4.3951
Y4.4029
Y4.4108
Y4.4187
Y4.4266
Y4.4344
Y4.4423
Y4.4502
Y4.4581
Y4.4659
Y4.4738
Y4.4817
Y4.4896
Y4.4974
Y4.5053
Y4.5132
Y4.5211
Y4.5289
Y4.5368
Y4.5447
Y4.5525
Y4.5604
Y4.5683
Y4.5762
Y4.584
Y4.5919
Y4.5998
Y4.6077
Y4.6155
Y4.6234
Y4.6313
Y4.6392
Y4.647
Y4.6549
Y4.6628
Y4.6707
Y4.6785
Y4.6864
Y4.6943
Y4.7022
Y4.71
Y4.7179
Y4.7258
Y4.7336
Y4.7415
Y4.7494
Y4.7573
Y4.7651
Y4.773
Y4.7809
Y4.7888
Y4.7966
Y4.8045
Y4.8124
Y4.8203
Y4.8281
Y4.836
Y4.8439
Y4.8518
Y4.8596
Y4.8675
Y4.8754
Y4.8833
Y4.8911
Y4.899
Y4.9069
Y4.9148
Y4.9226
Y4.9305
Y4.9384
Y4.9462
Y4.9541
Y4.962
Y4.9699
Y4.9777
Y4.9856
Y4.9935
Y5.0014
Y5.0092
Y5.0171
Y5.025
Y5.0329
Y5.0407
Y5.0486
Y5.0565
Y5.0644
Y5.0722
Y5.0801
Y5.088
Y5.0937
Y5.1016
Y5.1094
Y5.1173
Y5.1252
Y5.1331
Y5.1409
Y5.1488
Y5.1567
Y5.1646
Y5.1724
Y5.1803
Y5.1882
Y5.1961
Y5.2039
Y5.2118
Y5.2197
Y5.2276
Y5.2354
Y5.2433
Y5.2512
Y5.2591
Y5.2669
Y5.2748
Y5.2827
Y5.2906
Y5.2984
Y5.3063
Y5.3142
Y5.322
Y5.3299
Y5.3378
Y5.3457
Y5.3535
Y5.3614
Y5.3693
Y5.3772
Y5.385
Y5.3929
Y5.4008
Y5.4087
Y5.4165
Y5.4244
Y5.4323
Y5.4402
Y5.448
Y5.4559
Y5.4638
Y5.4717
Y5.4795
Y5.4874
Y5.4953
Y5.5031
Y5.511
Y5.5189
Y5.5268
Y5.5346
Y5.5425
Y5.5504
Y5.5583
Y5.5661
Y5.574
Y5.5819
Y5.5898
Y5.5976
Y5.6055
Y5.6134
Y5.6213
Y5.6291
Y5.637
Y5.6449
Y5.6528
Y5.6606
Y5.6685
Y5.6764
Y5.6843
Y5.6921
Y5.7
Y5.7079
Y5.7157
Y5.7236
Y5.7315
Y5.7394
Y5.7472
Y5.7551
Y5.763
Y5.7709
Y5.7787
Y5.7866
Y5.7945
Y5.8024
Y5.8102
Y5.8181
Y5.826
Y5.8339
Y5.8417
Y5.8496
Y5.8575
Y5.8654
Y5.8732
Y5.8811
Y5.889
Y5.8969
Y5.9047
Y5.9126
Y5.9205
Y5.9283
Y5.9362
Y5.9441
Y5.952
Y5.9598
Y5.9677
Y5.9756
Y5.9835
Y5.9913
Y5.9992
Y6.0071
Y6.015
Y6.0228
Y6.0307
Y6.0386
Y6.0465
Y6.0543
Y6.0622
Y6.0701
Y6.078
Y6.0858
Y6.0937
Y6.1016
Y6.1094
Y6.1173
Y6.1252
Y6.1331
Y6.1409
Y6.1488
Y6.1567
Y6.1646
Y6.1724
Y6.1803
Y6.1882
Y6.1961
Y6.2039
Y6.2118
Y6.2197
Y6.2276
Y6.2354
Y6.2433
Y6.2512
Y6.2591
Y6.2669
Y6.2748
Y6.2827
Y6.2906
Y6.2984
Y6.3063
Y6.3142
Y6.322
Y6.3299
Y6.3378
Y6.3457
Y6.3535
Y6.3614
Y6.3671
Y6.375
Y6.3829
Y6.3908
Y6.3986
Y6.4065
Y6.4144
Y6.4223
Y6.4301
Y6.438
Y6.4459
Y6.4538
Y6.4616
Y6.4695
Y6.4774
Y6.4852
Y6.4931
Y6.501
Y6.5089
Y6.5167
Y6.5246
Y6.5325
Y6.5404
Y6.5482
Y6.5561
Y6.564
Y6.5719
Y6.5797
Y6.5876
Y6.5955
Y6.6034
Y6.6112
Y6.6191
Y6.627
Y6.6349
Y6.6427
Y6.6506
Y6.6585
Y6.6664
Y6.6742
Y6.6821
Y6.69
Y6.6978
Y6.7057
Y6.7136
Y6.7215
Y6.7293
Y6.7372
Y6.7451
Y6.753
Y6.7608
Y6.7687
Y6.7766
Y6.7845
Y6.7923
Y6.8002
Y6.8081
Y6.816
Y6.8238
Y6.8317
Y6.8396
Y6.8475
Y6.8553
Y6.8632
Y6.8711
Y6.8789
Y6.8868
Y6.8947
Y6.9026
Y6.9104
Y6.9183
Y6.9262
Y6.9341
Y6.9419
Y6.9498
Y6.9577
Y6.9656
Y6.9734
Y6.9813
Y6.9892
Y6.9971
Y7.0049
Y7.0128
Y7.0207
Y7.0286
Y7.0364
Y7.0443
Y7.0522
Y7.0601
Y7.0679
Y7.0758
Y7.0837
Y7.0915
Y7.0994
Y7.1073
Y7.1152
Y7.123
Y7.1309
Y7.1388
Y7.1467
Y7.1545
Y7.1624
Y7.1703
Y7.1782
Y7.186
Y7.1939
Y7.2018
Y7.2097
Y7.2175
Y7.2254
Y7.2333
Y7.2412
Y7.249
Y7.2569
Y7.2648
Y7.2726
Y7.2805
Y7.2884
Y7.2963
Y7.3041
Y7.312
Y7.3199
Y7.3278
Y7.3356
Y7.3435
Y7.3514
Y7.3593
Y7.3671
Y7.375
Y7.3829
Y7.3908
Y7.3986
Y7.4065
Y7.4144
Y7.4223
Y7.4301
Y7.438
Y7.4459
Y7.4538
Y7.4616
Y7.4695
Y7.4774
Y7.4852
Y7.4931
Y7.501
Y7.5089
Y7.5167
Y7.5246
Y7.5325
Y7.5404
Y7.5482
Y7.5561
Y7.564
Y7.5719
Y7.5797
Y7.5876
Y7.5955
Y7.6034
Y7.6112
Y7.6191
Y7.627
Y7.6349
Y7.6406
Y7.6485
Y7.6563
Y7.6642
Y7.6721
Y7.6799
Y7.6878
Y7.6957
Y7.7036
Y7.7114
Y7.7193
Y7.7272
Y7.7351
Y7.7429
Y7.7508
Y7.7587
Y7.7666
Y7.7744
Y7.7823
Y7.7902
Y7.7981
Y7.8059
Y7.8138
Y7.8217
Y7.8296
Y7.8374
Y7.8453
Y7.8532
Y7.861
Y7.8689
Y7.8768
Y7.8847
Y7.8925
Y7.9004
Y7.9083
Y7.9162
Y7.924
Y7.9319
Y7.9398
Y7.9477
Y7.9555
Y7.9634
Y7.9713
Y7.9792
Y7.987
Y7.9949
Y8.0028
Y8.0107
Y8.0185
Y8.0264
Y8.0343
Y8.0422
Y8.05
Y8.0579
Y8.0658
Y8.0736
Y8.0815
Y8.0894
Y8.0973
Y8.1051
Y8.113
Y8.1209
Y8.1288
Y8.1366
Y8.1445
Y8.1524
Y8.1603
Y8.1681
Y8.176
Y8.1839
Y8.1918
Y8.1996
Y8.2075
Y8.2154
Y8.2233
Y8.2311
Y8.239
Y8.2469
Y8.2547
Y8.2626
Y8.2705
Y8.2784
Y8.2862
Y8.2941
Y8.302
Y8.3099
Y8.3177
Y8.3256
Y8.3335
Y8.3414
Y8.3492
Y8.3571
Y8.365
Y8.3729
Y8.3807
Y8.3886
Y8.3965
Y8.4044
Y8.4122
Y8.4201
Y8.428
Y8.4359
Y8.4437
Y8.4516
Y8.4595
Y8.4673
Y8.4752
Y8.4831
Y8.491
Y8.4988
Y8.5067
Y8.5146
Y8.5225
Y8.5303
Y8.5382
Y8.5461
Y8.554
Y8.5618
Y8.5697
Y8.5776
Y8.5855
Y8.5933
Y8.6012
Y8.6091
Y8.617
Y8.6248
Y8.6327
Y8.6406
Y8.6485
Y8.6563
Y8.6642
Y8.6721
Y8.6799
Y8.6878
Y8.6957
Y8.7036
Y8.7114
Y8.7193
Y8.7272
Y8.7351
Y8.7429
Y8.7508
Y8.7587
Y8.7666
Y8.7744
Y8.7823
Y8.7902
Y8.7981
Y8.8059
Y8.8138
Y8.8217
Y8.8296
Y8.8374
Y8.8453
Y8.8532
Y8.861
Y8.8689
Y8.8768
Y8.8847
Y8.8925
Y8.9004
Y8.9083
Y8.914
Y8.9219
Y8.9298
Y8.9376
Y8.9455
Y8.9534
Y8.9613
Y8.9691
Y8.977
Y8.9849
Y8.9928
Y9.0006
Y9.0085
Y9.0164
Y9.0242
Y9.0321
Y9.04
Y9.0479
Y9.0557
Y9.0636
Y9.0715
Y9.0794
Y9.0872
Y9.0951
Y9.103
Y9.1109
Y9.1187
Y9.1266
Y9.1345
Y9.1424
Y9.1502
Y9.1581
Y9.166
Y9.1739
Y9.1817
Y9.1896
Y9.1975
Y9.2054
Y9.2132
Y9.2211
Y9.229
Y9.2368
Y9.2447
Y9.2526
Y9.2605
Y9.2683
Y9.2762
Y9.2841
Y9.292
Y9.2998
Y9.3077
Y9.3156
Y9.3235
Y9.3313
Y9.3392
Y9.3471
Y9.355
Y9.3628
Y9.3707
Y9.3786
Y9.3865
Y9.3943
Y9.4022
Y9.4101
Y9.418
Y9.4258
Y9.4337
Y9.4416
Y9.4494
Y9.4573
Y9.4652
Y9.4731
Y9.4809
Y9.4888
Y9.4967
Y9.5046
Y9.5124
Y9.5203
Y9.5282
Y9.5361
Y9.5439
Y9.5518
Y9.5597
Y9.5676
Y9.5754
Y9.5833
Y9.5912
Y9.5991
Y9.6069
Y9.6148
Y9.6227
Y9.6305
Y9.6384
Y9.6463
Y9.6542
Y9.662
Y9.6699
Y9.6778
Y9.6857
Y9.6935
Y9.7014
Y9.7093
Y9.7172
Y9.725
Y9.7329
Y9.7408
Y9.7487
Y9.7565
Y9.7644
Y9.7723
Y9.7802
Y9.788
Y9.7959
Y9.8038
Y9.8117
Y9.8195
Y9.8274
Y9.8353
Y9.8431
Y9.851
Y9.8589
Y9.8668
Y9.8746
Y9.8825
Y9.8904
Y9.8983
Y9.9061
Y9.914
Y9.9219
Y9.9298
Y9.9376
Y9.9455
Y9.9534
Y9.9613
Y9.9691
Y9.977
Y9.9849
Y9.9928
Y10.0006
Y10.0085
Y10.0164
Y10.0242
Y10.0321
Y10.04
Y10.0479
Y10.0557
Y10.0636
Y10.0715
Y10.0794
Y10.0872
Y10.0951
Y10.103
Y10.1109
Y10.1187
Y10.1266
Y10.1345
Y10.1424
Y10.1502
Y10.1581
Y10.166
Y10.1739
Y10.1817
Y10.1875
Y10.1878
Y10.1882
X-3.3749Y10.1886
Y10.189
Y10.1894
Y10.1898
Y10.1902
X-3.3748Y10.1906
Y10.191
Y10.1914
Y10.1918
Y10.1922
X-3.3747Y10.1926
Y10.193
Y10.1934
Y10.1938
X-3.3746Y10.1941
Y10.1945
X-3.3745Y10.1949
X-3.3744Y10.1953
Y10.1957
X-3.3743Y10.1961
Y10.1965
X-3.3742Y10.1969
X-3.3741Y10.1973
Y10.1976
X-3.374Y10.198
Y10.1984
X-3.3739Y10.1988
X-3.3738Y10.1992
Y10.1996
X-3.3737Y10.2
X-3.3736Y10.2004
X-3.3735Y10.2008
X-3.3734Y10.2011
X-3.3733Y10.2015
X-3.3732Y10.2019
X-3.3731Y10.2023
X-3.373Y10.2027
X-3.3729Y10.203
X-3.3728Y10.2034
X-3.3727Y10.2038
X-3.3726Y10.2042
X-3.3725Y10.2046
X-3.3724Y10.2049
X-3.3723Y10.2053
X-3.3722Y10.2057
X-3.3721Y10.2061
X-3.372Y10.2065
X-3.3719Y10.2068
X-3.3717Y10.2072
X-3.3716Y10.2076
X-3.3715Y10.2079
X-3.3713Y10.2083
X-3.3712Y10.2087
X-3.3711Y10.2091
X-3.3709Y10.2094
X-3.3708Y10.2098
X-3.3706Y10.2102
X-3.3705Y10.2105
X-3.3704Y10.2109
X-3.3702Y10.2113
X-3.3701Y10.2116
X-3.37Y10.212
X-3.3698Y10.2124
X-3.3696Y10.2127
X-3.3694Y10.2131
X-3.3693Y10.2134
X-3.3691Y10.2138
X-3.3689Y10.2141
X-3.3688Y10.2145
X-3.3686Y10.2148
X-3.3684Y10.2152
X-3.3682Y10.2156
X-3.3681Y10.2159
X-3.3679Y10.2163
X-3.3677Y10.2166
X-3.3675Y10.217
X-3.3674Y10.2173
X-3.3672Y10.2177
X-3.367Y10.218
X-3.3668Y10.2184
X-3.3666Y10.2187
X-3.3664Y10.219
X-3.3662Y10.2194
X-3.3659Y10.2197
X-3.3657Y10.22
X-3.3655Y10.2204
X-3.3653Y10.2207
X-3.3651Y10.221
X-3.3649Y10.2214
X-3.3647Y10.2217
X-3.3645Y10.222
X-3.3643Y10.2224
X-3.3641Y10.2227
X-3.3639Y10.223
X-3.3636Y10.2234
X-3.3634Y10.2237
X-3.3631Y10.224
X-3.3629Y10.2243
X-3.3627Y10.2246
X-3.3624Y10.2249
X-3.3622Y10.2252
X-3.3619Y10.2255
X-3.3617Y10.2259
X-3.3615Y10.2262
X-3.3612Y10.2265
X-3.361Y10.2268
X-3.3607Y10.2271
X-3.3605Y10.2274
X-3.3603Y10.2277
X-3.36Y10.228
X-3.3597Y10.2284
X-3.3595Y10.2286
X-3.3592Y10.2289
X-3.3589Y10.2292
X-3.3587Y10.2295
X-3.3584Y10.2298
X-3.3581Y10.23
X-3.3579Y10.2303
X-3.3576Y10.2306
X-3.3574Y10.2309
X-3.3571Y10.2311
X-3.3568Y10.2314
X-3.3566Y10.2317
X-3.3563Y10.232
X-3.356Y10.2323
X-3.3558Y10.2325
X-3.3555Y10.2328
X-3.3552Y10.233
X-3.3549Y10.2333
X-3.3546Y10.2335
X-3.3543Y10.2338
X-3.354Y10.2341
X-3.3538Y10.2343
X-3.3535Y10.2346
X-3.3532Y10.2348
X-3.3529Y10.2351
X-3.3526Y10.2353
X-3.3523Y10.2356
X-3.352Y10.2358
X-3.3517Y10.2361
X-3.3514Y10.2363
X-3.3512Y10.2366
X-3.3508Y10.2368
X-3.3505Y10.237
X-3.3502Y10.2372
X-3.3499Y10.2375
X-3.3496Y10.2377
X-3.3493Y10.2379
X-3.349Y10.2381
X-3.3487Y10.2383
X-3.3483Y10.2386
X-3.348Y10.2388
X-3.3477Y10.239
X-3.3474Y10.2392
X-3.3471Y10.2395
X-3.3468Y10.2397
X-3.3465Y10.2399
X-3.3462Y10.2401
X-3.3458Y10.2403
X-3.3455Y10.2405
X-3.3452Y10.2407
X-3.3448Y10.2409
X-3.3445Y10.2411
X-3.3442Y10.2413
X-3.3438Y10.2415
X-3.3435Y10.2417
X-3.3432Y10.2418
X-3.3428Y10.242
X-3.3425Y10.2422
X-3.3422Y10.2424
X-3.3418Y10.2426
X-3.3415Y10.2428
X-3.3412Y10.243
X-3.3408Y10.2432
X-3.3405Y10.2433
X-3.3401Y10.2435
X-3.3398Y10.2436
X-3.3394Y10.2438
X-3.3391Y10.244
X-3.3387Y10.2441
X-3.3384Y10.2443
X-3.338Y10.2444
X-3.3377Y10.2446
X-3.3373Y10.2447
X-3.337Y10.2449
X-3.3366Y10.2451
X-3.3363Y10.2452
X-3.3359Y10.2454
X-3.3356Y10.2455
X-3.3352Y10.2457
X-3.3349Y10.2458
X-3.3345Y10.2459
X-3.3341Y10.2461
X-3.3338Y10.2462
X-3.3334Y10.2463
X-3.3331Y10.2464
X-3.3327Y10.2465
X-3.3323Y10.2467
X-3.332Y10.2468
X-3.3316Y10.2469
X-3.3312Y10.247
X-3.3309Y10.2472
X-3.3305Y10.2473
X-3.3302Y10.2474
X-3.3298Y10.2475
X-3.3294Y10.2476
X-3.3291Y10.2477
X-3.3287Y10.2478
X-3.3283Y10.2479
X-3.3279Y10.248
X-3.3276Y10.2481
X-3.3272Y10.2482
X-3.3268
X-3.3264Y10.2483
X-3.3261Y10.2484
X-3.3257Y10.2485
X-3.3253Y10.2486
X-3.3249Y10.2487
X-3.3246Y10.2488
X-3.3242
X-3.3238Y10.2489
X-3.3234Y10.249
X-3.3231Y10.2491
X-3.3227
X-3.3223Y10.2492
X-3.3219
X-3.3215Y10.2493
X-3.3212
X-3.3208Y10.2494
X-3.3204
X-3.32Y10.2495
X-3.3196
X-3.3193Y10.2496
X-3.3189
X-3.3185
X-3.3181Y10.2497
X-3.3177
X-3.3174Y10.2498
X-3.3171
X-3.3168
X-3.3164
X-3.3161
X-3.3158Y10.2499
X-3.3155
X-3.3152
X-3.3149
X-3.3146
X-3.3143
X-3.314
X-3.3137
X-3.3134Y10.25
X-3.3131
X-3.3128
X-3.3125
X-3.3046
X-3.2967
X-3.2888
X-3.281
X-3.2731
X-3.2652
X-3.2573
X-3.2495
X-3.2416
X-3.2337
X-3.2258
X-3.218
X-3.2101
X-3.2022
X-3.1943
X-3.1865
X-3.1786
X-3.1707
X-3.1628
X-3.155
X-3.1471
X-3.1392
X-3.1313
X-3.1235
X-3.1156
X-3.1077
X-3.0999
X-3.092
X-3.0841
X-3.0762
X-3.0684
X-3.0605
X-3.0526
X-3.0447
X-3.0369
X-3.029
X-3.0211
X-3.0132
X-3.0054
X-2.9975
X-2.9896
X-2.9817
X-2.9739
X-2.966
X-2.9581
X-2.9502
X-2.9424
X-2.9345
X-2.9266
X-2.9188
X-2.9109
X-2.903
X-2.8984
X-2.8905
X-2.8826
X-2.8748
X-2.8669
X-2.859
X-2.8511
X-2.8433
X-2.8354
X-2.8275
X-2.8196
X-2.8118
X-2.8039
X-2.796
X-2.7882
X-2.7803
X-2.7724
X-2.7645
X-2.7567
X-2.7488
X-2.7409
X-2.733
X-2.7252
X-2.7173
X-2.7094
X-2.7015
X-2.6937
X-2.6858
X-2.6779
X-2.67
X-2.6622
X-2.6543
X-2.6464
X-2.6385
X-2.6307
X-2.6228
X-2.6149
X-2.6071
X-2.5992
X-2.5913
X-2.5834
X-2.5756
X-2.5677
X-2.5598
X-2.5519
X-2.5441
X-2.5362
X-2.5283
X-2.5204
X-2.5126
X-2.5047
X-2.4968
X-2.4889
X-2.4843
X-2.4765
X-2.4686
X-2.4607
X-2.4528
X-2.445
X-2.4371
X-2.4292
X-2.4213
X-2.4135
X-2.4056
X-2.3977
X-2.3898
X-2.382
X-2.3741
X-2.3662
X-2.3583
X-2.3505
X-2.3426
X-2.3347
X-2.3268
X-2.319
X-2.3111
X-2.3032
X-2.2953
X-2.2875
X-2.2796
X-2.2717
X-2.2639
X-2.256
X-2.2481
X-2.2402
X-2.2324
X-2.2245
X-2.2166
X-2.2087
X-2.2009
X-2.193
X-2.1851
X-2.1772
X-2.1694
X-2.1615
X-2.1536
X-2.1457
X-2.1379
X-2.13
X-2.1221
X-2.1142
X-2.1064
X-2.0985
X-2.0906
X-2.0828
X-2.0749
X-2.0703
X-2.0624
X-2.0545
X-2.0466
X-2.0388
X-2.0309
X-2.023
X-2.0151
X-2.0073
X-1.9994
X-1.9915
X-1.9836
X-1.9758
X-1.9679
X-1.96
X-1.9522
X-1.9443
X-1.9364
X-1.9285
X-1.9207
X-1.9128
X-1.9049
X-1.897
X-1.8892
X-1.8813
X-1.8734
X-1.8655
X-1.8577
X-1.8498
X-1.8419
X-1.834
X-1.8262
X-1.8183
X-1.8104
X-1.8025
X-1.7947
X-1.7868
X-1.7789
X-1.7711
X-1.7632
X-1.7553
X-1.7474
X-1.7396
X-1.7317
X-1.7238
X-1.7159
X-1.7081
X-1.7002
X-1.6923
X-1.6844
X-1.6766
X-1.6687
X-1.6608
X-1.6562
X-1.6483
X-1.6405
X-1.6326
X-1.6247
X-1.6168
X-1.609
X-1.6011
X-1.5932
X-1.5853
X-1.5775
X-1.5696
X-1.5617
X-1.5538
X-1.546
X-1.5381
X-1.5302
X-1.5223
X-1.5145
X-1.5066
X-1.4987
X-1.4908
X-1.483
X-1.4751
X-1.4672
X-1.4594
X-1.4515
X-1.4436
X-1.4357
X-1.4279
X-1.42
X-1.4121
X-1.4042
X-1.3964
X-1.3885
X-1.3806
X-1.3727
X-1.3649
X-1.357
X-1.3491
X-1.3412
X-1.3334
X-1.3255
X-1.3176
X-1.3097
X-1.3019
X-1.294
X-1.2861
X-1.2782
X-1.2704
X-1.2625
X-1.2546
X-1.2468
X-1.2421
X-1.2343
X-1.2264
X-1.2185
X-1.2106
X-1.2028
X-1.1949
X-1.187
X-1.1791
X-1.1713
X-1.1634
X-1.1555
X-1.1477
X-1.1398
X-1.1319
X-1.124
X-1.1162
X-1.1083
X-1.1004
X-1.0925
X-1.0847
X-1.0768
X-1.0689
X-1.061
X-1.0532
X-1.0453
X-1.0374
X-1.0295
X-1.0217
X-1.0138
X-1.0059
X-0.998
X-0.9902
X-0.9823
X-0.9744
X-0.9665
X-0.9587
X-0.9508
X-0.9429
X-0.9351
X-0.9272
X-0.9193
X-0.9114
X-0.9036
X-0.8957
X-0.8878
X-0.8799
X-0.8721
X-0.8642
X-0.8563
X-0.8484
X-0.8406
X-0.8327
X-0.8281
X-0.8202
X-0.8123
X-0.8045
X-0.7966
X-0.7887
X-0.7808
X-0.773
X-0.7651
X-0.7572
X-0.7493
X-0.7415
X-0.7336
X-0.7257
X-0.7178
X-0.71
X-0.7021
X-0.6942
X-0.6863
X-0.6785
X-0.6706
X-0.6627
X-0.6548
X-0.647
X-0.6391
X-0.6312
X-0.6234
X-0.6155
X-0.6076
X-0.5997
X-0.5919
X-0.584
X-0.5761
X-0.5682
X-0.5604
X-0.5525
X-0.5446
X-0.5367
X-0.5289
X-0.521
X-0.5131
X-0.5052
X-0.4974
X-0.4895
X-0.4816
X-0.4737
X-0.4659
X-0.458
X-0.4501
X-0.4422
X-0.4344
X-0.4265
X-0.4186
X-0.414
X-0.4061
X-0.3983
X-0.3904
X-0.3825
X-0.3746
X-0.3668
X-0.3589
X-0.351
X-0.3431
X-0.3353
X-0.3274
X-0.3195
X-0.3117
X-0.3038
X-0.2959
X-0.288
X-0.2802
X-0.2723
X-0.2644
X-0.2565
X-0.2487
X-0.2408
X-0.2329
X-0.225
X-0.2172
X-0.2093
X-0.2014
X-0.1935
X-0.1857
X-0.1778
X-0.1699
X-0.162
X-0.1542
X-0.1463
X-0.1384
X-0.1305
X-0.1227
X-0.1148
X-0.1069
X-0.0991
X-0.0912
X-0.0833
X-0.0754
X-0.0676
X-0.0597
X-0.0518
X-0.0439
X-0.0361
X-0.0282
X-0.0203
X-0.0124
X-0.0046
X0
X0.0078
X0.0157
X0.0236
X0.0314
X0.0393
X0.0472
X0.0551
X0.0629
X0.0708
X0.0787
X0.0866
X0.0944
X0.1023
X0.1102
X0.1181
X0.1259
X0.1338
X0.1417
X0.1496
X0.1574
X0.1653
X0.1732
X0.1811
X0.1889
X0.1968
X0.2047
X0.2125
X0.2204
X0.2283
X0.2362
X0.244
X0.2519
X0.2598
X0.2677
X0.2755
X0.2834
X0.2913
X0.2992
X0.307
X0.3149
X0.3228
X0.3307
X0.3385
X0.3464
X0.3543
X0.3622
X0.37
X0.3779
X0.3858
X0.3937
X0.4015
X0.4094
X0.414
X0.4219
X0.4298
X0.4376
X0.4455
X0.4534
X0.4613
X0.4691
X0.477
X0.4849
X0.4928
X0.5006
X0.5085
X0.5164
X0.5242
X0.5321
X0.54
X0.5479
X0.5557
X0.5636
X0.5715
X0.5794
X0.5872
X0.5951
X0.603
X0.6109
X0.6187
X0.6266
X0.6345
X0.6424
X0.6502
X0.6581
X0.666
X0.6739
X0.6817
X0.6896
X0.6975
X0.7054
X0.7132
X0.7211
X0.729
X0.7368
X0.7447
X0.7526
X0.7605
X0.7683
X0.7762
X0.7841
X0.792
X0.7998
X0.8077
X0.8156
X0.8235
X0.8281
X0.8359
X0.8438
X0.8517
X0.8596
X0.8674
X0.8753
X0.8832
X0.8911
X0.8989
X0.9068
X0.9147
X0.9226
X0.9304
X0.9383
X0.9462
X0.9541
X0.9619
X0.9698
X0.9777
X0.9856
X0.9934
X1.0013
X1.0092
X1.0171
X1.0249
X1.0328
X1.0407
X1.0485
X1.0564
X1.0643
X1.0722
X1.08
X1.0879
X1.0958
X1.1037
X1.1115
X1.1194
X1.1273
X1.1352
X1.143
X1.1509
X1.1588
X1.1667
X1.1745
X1.1824
X1.1903
X1.1982
X1.206
X1.2139
X1.2218
X1.2296
X1.2375
X1.2421
X1.25
X1.2579
X1.2658
X1.2736
X1.2815
X1.2894
X1.2973
X1.3051
X1.313
X1.3209
X1.3288
X1.3366
X1.3445
X1.3524
X1.3602
X1.3681
X1.376
X1.3839
X1.3917
X1.3996
X1.4075
X1.4154
X1.4232
X1.4311
X1.439
X1.4469
X1.4547
X1.4626
X1.4705
X1.4784
X1.4862
X1.4941
X1.502
X1.5099
X1.5177
X1.5256
X1.5335
X1.5414
X1.5492
X1.5571
X1.565
X1.5728
X1.5807
X1.5886
X1.5965
X1.6043
X1.6122
X1.6201
X1.628
X1.6358
X1.6437
X1.6516
X1.6562
X1.6641
X1.6719
X1.6798
X1.6877
X1.6956
X1.7034
X1.7113
X1.7192
X1.7271
X1.7349
X1.7428
X1.7507
X1.7586
X1.7664
X1.7743
X1.7822
X1.7901
X1.7979
X1.8058
X1.8137
X1.8216
X1.8294
X1.8373
X1.8452
X1.8531
X1.8609
X1.8688
X1.8767
X1.8845
X1.8924
X1.9003
X1.9082
X1.916
X1.9239
X1.9318
X1.9397
X1.9475
X1.9554
X1.9633
X1.9712
X1.979
X1.9869
X1.9948
X2.0027
X2.0105
X2.0184
X2.0263
X2.0342
X2.042
X2.0499
X2.0578
X2.0656
X2.0703
X2.0781
X2.086
X2.0939
X2.1018
X2.1096
X2.1175
X2.1254
X2.1333
X2.1411
X2.149
X2.1569
X2.1648
X2.1726
X2.1805
X2.1884
X2.1962
X2.2041
X2.212
X2.2199
X2.2277
X2.2356
X2.2435
X2.2514
X2.2592
X2.2671
X2.275
X2.2829
X2.2907
X2.2986
X2.3065
X2.3144
X2.3222
X2.3301
X2.338
X2.3459
X2.3537
X2.3616
X2.3695
X2.3773
X2.3852
X2.3931
X2.401
X2.4088
X2.4167
X2.4246
X2.4325
X2.4403
X2.4482
X2.4561
X2.464
X2.4718
X2.4797
X2.4843
X2.4922
X2.5001
X2.5079
X2.5158
X2.5237
X2.5316
X2.5394
X2.5473
X2.5552
X2.5631
X2.5709
X2.5788
X2.5867
X2.5946
X2.6024
X2.6103
X2.6182
X2.6261
X2.6339
X2.6418
X2.6497
X2.6576
X2.6654
X2.6733
X2.6812
X2.689
X2.6969
X2.7048
X2.7127
X2.7205
X2.7284
X2.7363
X2.7442
X2.752
X2.7599
X2.7678
X2.7757
X2.7835
X2.7914
X2.7993
X2.8072
X2.815
X2.8229
X2.8308
X2.8387
X2.8465
X2.8544
X2.8623
X2.8702
X2.878
X2.8859
X2.8938
X2.8984
X2.9063
X2.9141
X2.922
X2.9299
X2.9378
X2.9456
X2.9535
X2.9614
X2.9693
X2.9771
X2.985
X2.9929
X3.0007
X3.0086
X3.0165
X3.0244
X3.0322
X3.0401
X3.048
X3.0559
X3.0637
X3.0716
X3.0795
X3.0874
X3.0952
X3.1031
X3.111
X3.1189
X3.1267
X3.1346
X3.1425
X3.1504
X3.1582
X3.1661
X3.174
X3.1819
X3.1897
X3.1976
X3.2055
X3.2133
X3.2212
X3.2291
X3.237
X3.2448
X3.2527
X3.2606
X3.2685
X3.2763
X3.2842
X3.2921
X3.3
X3.3078
X3.3124
X3.3128
X3.3132
X3.3136Y10.2499
X3.314
X3.3144
X3.3147
X3.3151
X3.3155Y10.2498
X3.3159
X3.3163
X3.3167
X3.317
X3.3174Y10.2497
X3.3178
X3.3182
X3.3186
X3.319Y10.2496
X3.3193
X3.3197Y10.2495
X3.3201
X3.3205Y10.2494
X3.3209
X3.3212Y10.2493
X3.3216Y10.2492
X3.322
X3.3224Y10.2491
X3.3227
X3.3231Y10.249
X3.3235
X3.3239Y10.2489
X3.3243Y10.2488
X3.3246
X3.325Y10.2487
X3.3254Y10.2486
X3.3258Y10.2485
X3.3261Y10.2484
X3.3265Y10.2483
X3.3269Y10.2482
X3.3272Y10.2481
X3.3276Y10.248
X3.328
X3.3284Y10.2479
X3.3287Y10.2478
X3.3291Y10.2477
X3.3295Y10.2476
X3.3298Y10.2475
X3.3302Y10.2474
X3.3306Y10.2473
X3.331Y10.2472
X3.3313Y10.247
X3.3317Y10.2469
X3.332Y10.2468
X3.3324Y10.2467
X3.3328Y10.2465
X3.3331Y10.2464
X3.3335Y10.2463
X3.3338Y10.2461
X3.3342Y10.246
X3.3346Y10.2459
X3.3349Y10.2457
X3.3353Y10.2456
X3.3356Y10.2455
X3.336Y10.2454
X3.3364Y10.2452
X3.3367Y10.2451
X3.3371Y10.2449
X3.3374Y10.2447
X3.3378Y10.2446
X3.3381Y10.2444
X3.3384Y10.2442
X3.3388Y10.2441
X3.3391Y10.2439
X3.3395Y10.2438
X3.3398Y10.2436
X3.3402Y10.2434
X3.3405Y10.2433
X3.3409Y10.2431
X3.3412Y10.2429
X3.3416Y10.2428
X3.3419Y10.2426
X3.3422Y10.2424
X3.3426Y10.2422
X3.3429Y10.242
X3.3432Y10.2418
X3.3436Y10.2416
X3.3439Y10.2414
X3.3442Y10.2412
X3.3445Y10.241
X3.3449Y10.2408
X3.3452Y10.2406
X3.3455Y10.2404
X3.3459Y10.2402
X3.3462Y10.24
X3.3465Y10.2399
X3.3468Y10.2397
X3.3472Y10.2395
X3.3475Y10.2392
X3.3478Y10.239
X3.3481Y10.2388
X3.3484Y10.2385
X3.3487Y10.2383
X3.349Y10.2381
X3.3493Y10.2379
X3.3496Y10.2376
X3.3499Y10.2374
X3.3503Y10.2372
X3.3506Y10.2369
X3.3509Y10.2367
X3.3512Y10.2365
X3.3515Y10.2363
X3.3518Y10.236
X3.3521Y10.2358
X3.3524Y10.2355
X3.3527Y10.2353
X3.353Y10.235
X3.3532Y10.2348
X3.3535Y10.2345
X3.3538Y10.2343
X3.3541Y10.234
X3.3544Y10.2337
X3.3547Y10.2335
X3.3549Y10.2332
X3.3552Y10.233
X3.3555Y10.2327
X3.3558Y10.2325
X3.3561Y10.2322
X3.3564Y10.2319
X3.3566Y10.2317
X3.3569Y10.2314
X3.3572Y10.2311
X3.3575Y10.2308
X3.3577Y10.2305
X3.358Y10.2302
X3.3582Y10.2299
X3.3585Y10.2297
X3.3587Y10.2294
X3.359Y10.2291
X3.3593Y10.2288
X3.3595Y10.2285
X3.3598Y10.2282
X3.36Y10.228
X3.3603Y10.2277
X3.3605Y10.2274
X3.3608Y10.2271
X3.361Y10.2268
X3.3613Y10.2265
X3.3615Y10.2262
X3.3617Y10.2259
X3.3619Y10.2256
X3.3622Y10.2253
X3.3624Y10.2249
X3.3626Y10.2246
X3.3629Y10.2243
X3.3631Y10.224
X3.3633Y10.2237
X3.3635Y10.2234
X3.3638Y10.2231
X3.364Y10.2228
X3.3642Y10.2225
X3.3645Y10.2222
X3.3647Y10.2218
X3.3649Y10.2215
X3.365Y10.2212
X3.3652Y10.2209
X3.3654Y10.2205
X3.3656Y10.2202
X3.3658Y10.2199
X3.366Y10.2195
X3.3662Y10.2192
X3.3664Y10.2189
X3.3666Y10.2186
X3.3668Y10.2182
X3.367Y10.2179
X3.3672Y10.2176
X3.3674Y10.2172
X3.3676Y10.2169
X3.3678Y10.2166
X3.3679Y10.2162
X3.3681Y10.2159
X3.3683Y10.2155
X3.3684Y10.2152
X3.3686Y10.2148
X3.3688Y10.2145
X3.3689Y10.2141
X3.3691Y10.2138
X3.3692Y10.2134
X3.3694Y10.2131
X3.3696Y10.2128
X3.3697Y10.2124
X3.3699Y10.2121
X3.3701Y10.2117
X3.3702Y10.2114
X3.3704Y10.211
X3.3705Y10.2106
X3.3706Y10.2103
X3.3707Y10.2099
X3.3709Y10.2096
X3.371Y10.2092
X3.3711Y10.2088
X3.3713Y10.2085
X3.3714Y10.2081
X3.3715Y10.2078
X3.3717Y10.2074
X3.3718Y10.207
X3.3719Y10.2067
X3.372Y10.2063
X3.3722Y10.206
X3.3723Y10.2056
X3.3724Y10.2052
X3.3725Y10.2048
X3.3726Y10.2045
X3.3727Y10.2041
X3.3728Y10.2037
X3.3729Y10.2034
Y10.203
X3.373Y10.2026
X3.3731Y10.2022
X3.3732Y10.2019
X3.3733Y10.2015
X3.3734Y10.2011
X3.3735Y10.2008
X3.3736Y10.2004
X3.3737Y10.2
X3.3738Y10.1996
Y10.1993
X3.3739Y10.1989
X3.374Y10.1985
Y10.1981
X3.3741Y10.1977
Y10.1974
X3.3742Y10.197
Y10.1966
X3.3743Y10.1962
X3.3744Y10.1959
Y10.1955
X3.3745Y10.1951
Y10.1947
X3.3746Y10.1943
Y10.194
X3.3747Y10.1936
Y10.1932
Y10.1928
Y10.1924
X3.3748Y10.192
Y10.1917
Y10.1913
Y10.1909
Y10.1905
X3.3749Y10.1901
Y10.1897
Y10.1894
Y10.189
Y10.1886
X3.375Y10.1882
Y10.1878
Y10.1875
Y10.1796
Y10.1717
Y10.1638
Y10.156
Y10.1481
Y10.1402
Y10.1323
Y10.1245
Y10.1166
Y10.1087
Y10.1008
Y10.093
Y10.0851
Y10.0772
Y10.0693
Y10.0615
Y10.0536
Y10.0457
Y10.0378
Y10.03
Y10.0221
Y10.0142
Y10.0063
Y9.9985
Y9.9906
Y9.9827
Y9.9749
Y9.967
Y9.9591
Y9.9512
Y9.9434
Y9.9355
Y9.9276
Y9.9197
Y9.9119
Y9.904
Y9.8961
Y9.8882
Y9.8804
Y9.8725
Y9.8646
Y9.8567
Y9.8489
Y9.841
Y9.8331
Y9.8252
Y9.8174
Y9.8095
Y9.8016
Y9.7937
Y9.7859
Y9.778
Y9.7701
Y9.7623
Y9.7544
Y9.7465
Y9.7386
Y9.7308
Y9.7229
Y9.715
Y9.7071
Y9.6993
Y9.6914
Y9.6835
Y9.6756
Y9.6678
Y9.6599
Y9.652
Y9.6441
Y9.6363
Y9.6284
Y9.6205
Y9.6126
Y9.6048
Y9.5969
Y9.589
Y9.5812
Y9.5733
Y9.5654
Y9.5575
Y9.5497
Y9.5418
Y9.5339
Y9.526
Y9.5182
Y9.5103
Y9.5024
Y9.4945
Y9.4867
Y9.4788
Y9.4709
Y9.463
Y9.4552
Y9.4473
Y9.4394
Y9.4315
Y9.4237
Y9.4158
Y9.4079
Y9.4
Y9.3922
Y9.3843
Y9.3764
Y9.3686
Y9.3607
Y9.3528
Y9.3449
Y9.3371
Y9.3292
Y9.3213
Y9.3134
Y9.3056
Y9.2977
Y9.2898
Y9.2819
Y9.2741
Y9.2662
Y9.2583
Y9.2504
Y9.2426
Y9.2347
Y9.2268
Y9.2189
Y9.2111
Y9.2032
Y9.1953
Y9.1875
Y9.1796
Y9.1717
Y9.1638
Y9.156
Y9.1481
Y9.1402
Y9.1323
Y9.1245
Y9.1166
Y9.1087
Y9.1008
Y9.093
Y9.0851
Y9.0772
Y9.0693
Y9.0615
Y9.0536
Y9.0457
Y9.0378
Y9.03
Y9.0221
Y9.0142
Y9.0063
Y8.9985
Y8.9906
Y8.9827
Y8.9749
Y8.967
Y8.9591
Y8.9512
Y8.9434
Y8.9355
Y8.9276
Y8.9197
Y8.914
Y8.9061
Y8.8983
Y8.8904
Y8.8825
Y8.8746
Y8.8668
Y8.8589
Y8.851
Y8.8431
Y8.8353
Y8.8274
Y8.8195
Y8.8117
Y8.8038
Y8.7959
Y8.788
Y8.7802
Y8.7723
Y8.7644
Y8.7565
Y8.7487
Y8.7408
Y8.7329
Y8.725
Y8.7172
Y8.7093
Y8.7014
Y8.6935
Y8.6857
Y8.6778
Y8.6699
Y8.662
Y8.6542
Y8.6463
Y8.6384
Y8.6305
Y8.6227
Y8.6148
Y8.6069
Y8.5991
Y8.5912
Y8.5833
Y8.5754
Y8.5676
Y8.5597
Y8.5518
Y8.5439
Y8.5361
Y8.5282
Y8.5203
Y8.5124
Y8.5046
Y8.4967
Y8.4888
Y8.4809
Y8.4731
Y8.4652
Y8.4573
Y8.4494
Y8.4416
Y8.4337
Y8.4258
Y8.418
Y8.4101
Y8.4022
Y8.3943
Y8.3865
Y8.3786
Y8.3707
Y8.3628
Y8.355
Y8.3471
Y8.3392
Y8.3313
Y8.3235
Y8.3156
Y8.3077
Y8.2998
Y8.292
Y8.2841
Y8.2762
Y8.2683
Y8.2605
Y8.2526
Y8.2447
Y8.2368
Y8.229
Y8.2211
Y8.2132
Y8.2054
Y8.1975
Y8.1896
Y8.1817
Y8.1739
Y8.166
Y8.1581
Y8.1502
Y8.1424
Y8.1345
Y8.1266
Y8.1187
Y8.1109
Y8.103
Y8.0951
Y8.0872
Y8.0794
Y8.0715
Y8.0636
Y8.0557
Y8.0479
Y8.04
Y8.0321
Y8.0242
Y8.0164
Y8.0085
Y8.0006
Y7.9928
Y7.9849
Y7.977
Y7.9691
Y7.9613
Y7.9534
Y7.9455
Y7.9376
Y7.9298
Y7.9219
Y7.914
Y7.9061
Y7.8983
Y7.8904
Y7.8825
Y7.8746
Y7.8668
Y7.8589
Y7.851
Y7.8431
Y7.8353
Y7.8274
Y7.8195
Y7.8117
Y7.8038
Y7.7959
Y7.788
Y7.7802
Y7.7723
Y7.7644
Y7.7565
Y7.7487
Y7.7408
Y7.7329
Y7.725
Y7.7172
Y7.7093
Y7.7014
Y7.6935
Y7.6857
Y7.6778
Y7.6699
Y7.662
Y7.6542
Y7.6463
Y7.6406
Y7.6327
Y7.6248
Y7.617
Y7.6091
Y7.6012
Y7.5933
Y7.5855
Y7.5776
Y7.5697
Y7.5618
Y7.554
Y7.5461
Y7.5382
Y7.5303
Y7.5225
Y7.5146
Y7.5067
Y7.4988
Y7.491
Y7.4831
Y7.4752
Y7.4673
Y7.4595
Y7.4516
Y7.4437
Y7.4359
Y7.428
Y7.4201
Y7.4122
Y7.4044
Y7.3965
Y7.3886
Y7.3807
Y7.3729
Y7.365
Y7.3571
Y7.3492
Y7.3414
Y7.3335
Y7.3256
Y7.3177
Y7.3099
Y7.302
Y7.2941
Y7.2862
Y7.2784
Y7.2705
Y7.2626
Y7.2547
Y7.2469
Y7.239
Y7.2311
Y7.2233
Y7.2154
Y7.2075
Y7.1996
Y7.1918
Y7.1839
Y7.176
Y7.1681
Y7.1603
Y7.1524
Y7.1445
Y7.1366
Y7.1288
Y7.1209
Y7.113
Y7.1051
Y7.0973
Y7.0894
Y7.0815
Y7.0736
Y7.0658
Y7.0579
Y7.05
Y7.0422
Y7.0343
Y7.0264
Y7.0185
Y7.0107
Y7.0028
Y6.9949
Y6.987
Y6.9792
Y6.9713
Y6.9634
Y6.9555
Y6.9477
Y6.9398
Y6.9319
Y6.924
Y6.9162
Y6.9083
Y6.9004
Y6.8925
Y6.8847
Y6.8768
Y6.8689
Y6.861
Y6.8532
Y6.8453
Y6.8374
Y6.8296
Y6.8217
Y6.8138
Y6.8059
Y6.7981
Y6.7902
Y6.7823
Y6.7744
Y6.7666
Y6.7587
Y6.7508
Y6.7429
Y6.7351
Y6.7272
Y6.7193
Y6.7114
Y6.7036
Y6.6957
Y6.6878
Y6.6799
Y6.6721
Y6.6642
Y6.6563
Y6.6485
Y6.6406
Y6.6327
Y6.6248
Y6.617
Y6.6091
Y6.6012
Y6.5933
Y6.5855
Y6.5776
Y6.5697
Y6.5618
Y6.554
Y6.5461
Y6.5382
Y6.5303
Y6.5225
Y6.5146
Y6.5067
Y6.4988
Y6.491
Y6.4831
Y6.4752
Y6.4673
Y6.4595
Y6.4516
Y6.4437
Y6.4359
Y6.428
Y6.4201
Y6.4122
Y6.4044
Y6.3965
Y6.3886
Y6.3807
Y6.3729
Y6.3671
Y6.3593
Y6.3514
Y6.3435
Y6.3356
Y6.3278
Y6.3199
Y6.312
Y6.3041
Y6.2963
Y6.2884
Y6.2805
Y6.2727
Y6.2648
Y6.2569
Y6.249
Y6.2412
Y6.2333
Y6.2254
Y6.2175
Y6.2097
Y6.2018
Y6.1939
Y6.186
Y6.1782
Y6.1703
Y6.1624
Y6.1545
Y6.1467
Y6.1388
Y6.1309
Y6.123
Y6.1152
Y6.1073
Y6.0994
Y6.0915
Y6.0837
Y6.0758
Y6.0679
Y6.0601
Y6.0522
Y6.0443
Y6.0364
Y6.0286
Y6.0207
Y6.0128
Y6.0049
Y5.9971
Y5.9892
Y5.9813
Y5.9734
Y5.9656
Y5.9577
Y5.9498
Y5.9419
Y5.9341
Y5.9262
Y5.9183
Y5.9104
Y5.9026
Y5.8947
Y5.8868
Y5.8789
Y5.8711
Y5.8632
Y5.8553
Y5.8475
Y5.8396
Y5.8317
Y5.8238
Y5.816
Y5.8081
Y5.8002
Y5.7923
Y5.7845
Y5.7766
Y5.7687
Y5.7608
Y5.753
Y5.7451
Y5.7372
Y5.7293
Y5.7215
Y5.7136
Y5.7057
Y5.6978
Y5.69
Y5.6821
Y5.6742
Y5.6664
Y5.6585
Y5.6506
Y5.6427
Y5.6349
Y5.627
Y5.6191
Y5.6112
Y5.6034
Y5.5955
Y5.5876
Y5.5797
Y5.5719
Y5.564
Y5.5561
Y5.5482
Y5.5404
Y5.5325
Y5.5246
Y5.5167
Y5.5089
Y5.501
Y5.4931
Y5.4852
Y5.4774
Y5.4695
Y5.4616
Y5.4538
Y5.4459
Y5.438
Y5.4301
Y5.4223
Y5.4144
Y5.4065
Y5.3986
Y5.3908
Y5.3829
Y5.375
Y5.3671
Y5.3593
Y5.3514
Y5.3435
Y5.3356
Y5.3278
Y5.3199
Y5.312
Y5.3041
Y5.2963
Y5.2884
Y5.2805
Y5.2727
Y5.2648
Y5.2569
Y5.249
Y5.2412
Y5.2333
Y5.2254
Y5.2175
Y5.2097
Y5.2018
Y5.1939
Y5.186
Y5.1782
Y5.1703
Y5.1624
Y5.1545
Y5.1467
Y5.1388
Y5.1309
Y5.123
Y5.1152
Y5.1073
Y5.0994
Y5.0937
Y5.0858
Y5.078
Y5.0701
Y5.0622
Y5.0543
Y5.0465
Y5.0386
Y5.0307
Y5.0228
Y5.015
Y5.0071
Y4.9992
Y4.9913
Y4.9835
Y4.9756
Y4.9677
Y4.9598
Y4.952
Y4.9441
Y4.9362
Y4.9283
Y4.9205
Y4.9126
Y4.9047
Y4.8969
Y4.889
Y4.8811
Y4.8732
Y4.8654
Y4.8575
Y4.8496
Y4.8417
Y4.8339
Y4.826
Y4.8181
Y4.8102
Y4.8024
Y4.7945
Y4.7866
Y4.7787
Y4.7709
Y4.763
Y4.7551
Y4.7472
Y4.7394
Y4.7315
Y4.7236
Y4.7157
Y4.7079
Y4.7
Y4.6921
Y4.6843
Y4.6764
Y4.6685
Y4.6606
Y4.6528
Y4.6449
Y4.637
Y4.6291
Y4.6213
Y4.6134
Y4.6055
Y4.5976
Y4.5898
Y4.5819
Y4.574
Y4.5661
Y4.5583
Y4.5504
Y4.5425
Y4.5346
Y4.5268
Y4.5189
Y4.511
Y4.5031
Y4.4953
Y4.4874
Y4.4795
Y4.4717
Y4.4638
Y4.4559
Y4.448
Y4.4402
Y4.4323
Y4.4244
Y4.4165
Y4.4087
Y4.4008
Y4.3929
Y4.385
Y4.3772
Y4.3693
Y4.3614
Y4.3535
Y4.3457
Y4.3378
Y4.3299
Y4.322
Y4.3142
Y4.3063
Y4.2984
Y4.2906
Y4.2827
Y4.2748
Y4.2669
Y4.2591
Y4.2512
Y4.2433
Y4.2354
Y4.2276
Y4.2197
Y4.2118
Y4.2039
Y4.1961
Y4.1882
Y4.1803
Y4.1724
Y4.1646
Y4.1567
Y4.1488
Y4.1409
Y4.1331
Y4.1252
Y4.1173
Y4.1094
Y4.1016
Y4.0937
Y4.0858
Y4.078
Y4.0701
Y4.0622
Y4.0543
Y4.0465
Y4.0386
Y4.0307
Y4.0228
Y4.015
Y4.0071
Y3.9992
Y3.9913
Y3.9835
Y3.9756
Y3.9677
Y3.9598
Y3.952
Y3.9441
Y3.9362
Y3.9283
Y3.9205
Y3.9126
Y3.9047
Y3.8969
Y3.889
Y3.8811
Y3.8732
Y3.8654
Y3.8575
Y3.8496
Y3.8417
Y3.8339
Y3.826
Y3.8203
Y3.8124
Y3.8045
Y3.7966
Y3.7888
Y3.7809
Y3.773
Y3.7651
Y3.7573
Y3.7494
Y3.7415
Y3.7336
Y3.7258
Y3.7179
Y3.71
Y3.7022
Y3.6943
Y3.6864
Y3.6785
Y3.6707
Y3.6628
Y3.6549
Y3.647
Y3.6392
Y3.6313
Y3.6234
Y3.6155
Y3.6077
Y3.5998
Y3.5919
Y3.584
Y3.5762
Y3.5683
Y3.5604
Y3.5525
Y3.5447
Y3.5368
Y3.5289
Y3.5211
Y3.5132
Y3.5053
Y3.4974
Y3.4896
Y3.4817
Y3.4738
Y3.4659
Y3.4581
Y3.4502
Y3.4423
Y3.4344
Y3.4266
Y3.4187
Y3.4108
Y3.4029
Y3.3951
Y3.3872
Y3.3793
Y3.3714
Y3.3636
Y3.3557
Y3.3478
Y3.3399
Y3.3321
Y3.3242
Y3.3163
Y3.3085
Y3.3006
Y3.2927
Y3.2848
Y3.277
Y3.2691
Y3.2612
Y3.2533
Y3.2455
Y3.2376
Y3.2297
Y3.2218
Y3.214
Y3.2061
Y3.1982
Y3.1903
Y3.1825
Y3.1746
Y3.1667
Y3.1588
Y3.151
Y3.1431
Y3.1352
Y3.1274
Y3.1195
Y3.1116
Y3.1037
Y3.0959
Y3.088
Y3.0801
Y3.0722
Y3.0644
Y3.0565
Y3.0486
Y3.0407
Y3.0329
Y3.025
Y3.0171
Y3.0092
Y3.0014
Y2.9935
Y2.9856
Y2.9777
Y2.9699
Y2.962
Y2.9541
Y2.9462
Y2.9384
Y2.9305
Y2.9226
Y2.9148
Y2.9069
Y2.899
Y2.8911
Y2.8833
Y2.8754
Y2.8675
Y2.8596
Y2.8518
Y2.8439
Y2.836
Y2.8281
Y2.8203
Y2.8124
Y2.8045
Y2.7966
Y2.7888
Y2.7809
Y2.773
Y2.7651
Y2.7573
Y2.7494
Y2.7415
Y2.7336
Y2.7258
Y2.7179
Y2.71
Y2.7022
Y2.6943
Y2.6864
Y2.6785
Y2.6707
Y2.6628
Y2.6549
Y2.647
Y2.6392
Y2.6313
Y2.6234
Y2.6155
Y2.6077
Y2.5998
Y2.5919
Y2.584
Y2.5762
Y2.5683
Y2.5604
Y2.5525
Y2.5468
Y2.539
Y2.5311
Y2.5232
Y2.5153
Y2.5075
Y2.4996
Y2.4917
Y2.4838
Y2.476
Y2.4681
Y2.4602
Y2.4523
Y2.4445
Y2.4366
Y2.4287
Y2.4208
Y2.413
Y2.4051
Y2.3972
Y2.3893
Y2.3815
Y2.3736
Y2.3657
Y2.3578
Y2.35
Y2.3421
Y2.3342
Y2.3264
Y2.3185
Y2.3106
Y2.3027
Y2.2949
Y2.287
Y2.2791
Y2.2712
Y2.2634
Y2.2555
Y2.2476
Y2.2397
Y2.2319
Y2.224
Y2.2161
Y2.2082
Y2.2004
Y2.1925
Y2.1846
Y2.1767
Y2.1689
Y2.161
Y2.1531
Y2.1453
Y2.1374
Y2.1295
Y2.1216
Y2.1138
Y2.1059
Y2.098
Y2.0901
Y2.0823
Y2.0744
Y2.0665
Y2.0586
Y2.0508
Y2.0429
Y2.035
Y2.0271
Y2.0193
Y2.0114
Y2.0035
Y1.9956
Y1.9878
Y1.9799
Y1.972
Y1.9641
Y1.9563
Y1.9484
Y1.9405
Y1.9327
Y1.9248
Y1.9169
Y1.909
Y1.9012
Y1.8933
Y1.8854
Y1.8775
Y1.8697
Y1.8618
Y1.8539
Y1.846
Y1.8382
Y1.8303
Y1.8224
Y1.8145
Y1.8067
Y1.7988
Y1.7909
Y1.783
Y1.7752
Y1.7673
Y1.7594
Y1.7516
Y1.7437
Y1.7358
Y1.7279
Y1.7201
Y1.7122
Y1.7043
Y1.6964
Y1.6886
Y1.6807
Y1.6728
Y1.6649
Y1.6571
Y1.6492
Y1.6413
Y1.6334
Y1.6256
Y1.6177
Y1.6098
Y1.6019
Y1.5941
Y1.5862
Y1.5783
Y1.5704
Y1.5626
Y1.5547
Y1.5468
Y1.539
Y1.5311
Y1.5232
Y1.5153
Y1.5075
Y1.4996
Y1.4917
Y1.4838
Y1.476
Y1.4681
Y1.4602
Y1.4523
Y1.4445
Y1.4366
Y1.4287
Y1.4208
Y1.413
Y1.4051
Y1.3972
Y1.3893
Y1.3815
Y1.3736
Y1.3657
Y1.3578
Y1.35
Y1.3421
Y1.3342
Y1.3264
Y1.3185
Y1.3106
Y1.3027
Y1.2949
Y1.287
Y1.2791
Y1.2734
Y1.2655
Y1.2576
Y1.2498
Y1.2419
Y1.234
Y1.2261
Y1.2183
Y1.2104
Y1.2025
Y1.1946
Y1.1868
Y1.1789
Y1.171
Y1.1632
Y1.1553
Y1.1474
Y1.1395
Y1.1317
Y1.1238
Y1.1159
Y1.108
Y1.1002
Y1.0923
Y1.0844
Y1.0765
Y1.0687
Y1.0608
Y1.0529
Y1.045
Y1.0372
Y1.0293
Y1.0214
Y1.0135
Y1.0057
Y0.9978
Y0.9899
Y0.982
Y0.9742
Y0.9663
Y0.9584
Y0.9506
Y0.9427
Y0.9348
Y0.9269
Y0.9191
Y0.9112
Y0.9033
Y0.8954
Y0.8876
Y0.8797
Y0.8718
Y0.8639
Y0.8561
Y0.8482
Y0.8403
Y0.8324
Y0.8246
Y0.8167
Y0.8088
Y0.8009
Y0.7931
Y0.7852
Y0.7773
Y0.7695
Y0.7616
Y0.7537
Y0.7458
Y0.738
Y0.7301
Y0.7222
Y0.7143
Y0.7065
Y0.6986
Y0.6907
Y0.6828
Y0.675
Y0.6671
Y0.6592
Y0.6513
Y0.6435
Y0.6356
Y0.6277
Y0.6198
Y0.612
Y0.6041
Y0.5962
Y0.5883
Y0.5805
Y0.5726
Y0.5647
Y0.5569
Y0.549
Y0.5411
Y0.5332
Y0.5254
Y0.5175
Y0.5096
Y0.5017
Y0.4939
Y0.486
Y0.4781
Y0.4702
Y0.4624
Y0.4545
Y0.4466
Y0.4387
Y0.4309
Y0.423
Y0.4151
Y0.4072
Y0.3994
Y0.3915
Y0.3836
Y0.3758
Y0.3679
Y0.36
Y0.3521
Y0.3443
Y0.3364
Y0.3285
Y0.3206
Y0.3128
Y0.3049
Y0.297
Y0.2891
Y0.2813
Y0.2734
Y0.2655
Y0.2576
Y0.2498
Y0.2419
Y0.234
Y0.2261
Y0.2183
Y0.2104
Y0.2025
Y0.1946
Y0.1868
Y0.1789
Y0.171
Y0.1632
Y0.1553
Y0.1474
Y0.1395
Y0.1317
Y0.1238
Y0.1159
Y0.108
Y0.1002
Y0.0923
Y0.0844
Y0.0765
Y0.0687
Y0.0608
Y0.0529
Y0.045
Y0.0372
Y0.0293
Y0.0214
Y0.0135
Y0.0057
Y0
Y-0.0078
Y-0.0157
Y-0.0236
Y-0.0314
Y-0.0393
Y-0.0472
Y-0.0551
Y-0.0629
Y-0.0708
Y-0.0787
Y-0.0866
Y-0.0944
Y-0.1023
Y-0.1102
Y-0.1181
Y-0.1259
Y-0.1338
Y-0.1417
Y-0.1496
Y-0.1574
Y-0.1653
Y-0.1732
Y-0.1811
Y-0.1889
Y-0.1968
Y-0.2047
Y-0.2125
Y-0.2204
Y-0.2283
Y-0.2362
Y-0.244
Y-0.2519
Y-0.2598
Y-0.2677
Y-0.2755
Y-0.2834
Y-0.2913
Y-0.2992
Y-0.307
Y-0.3149
Y-0.3228
Y-0.3307
Y-0.3385
Y-0.3464
Y-0.3543
Y-0.3622
Y-0.37
Y-0.3779
Y-0.3858
Y-0.3937
Y-0.4015
Y-0.4094
Y-0.4173
Y-0.4251
Y-0.433
Y-0.4409
Y-0.4488
Y-0.4566
Y-0.4645
Y-0.4724
Y-0.4803
Y-0.4881
Y-0.496
Y-0.5039
Y-0.5118
Y-0.5196
Y-0.5275
Y-0.5354
Y-0.5433
Y-0.5511
Y-0.559
Y-0.5669
Y-0.5748
Y-0.5826
Y-0.5905
Y-0.5984
Y-0.6062
Y-0.6141
Y-0.622
Y-0.6299
Y-0.6377
Y-0.6456
Y-0.6535
Y-0.6614
Y-0.6692
Y-0.6771
Y-0.685
Y-0.6929
Y-0.7007
Y-0.7086
Y-0.7165
Y-0.7244
Y-0.7322
Y-0.7401
Y-0.748
Y-0.7559
Y-0.7637
Y-0.7716
Y-0.7795
Y-0.7874
Y-0.7952
Y-0.8031
Y-0.811
Y-0.8188
Y-0.8267
Y-0.8346
Y-0.8425
Y-0.8503
Y-0.8582
Y-0.8661
Y-0.874
Y-0.8818
Y-0.8897
Y-0.8976
Y-0.9055
Y-0.9133
Y-0.9212
Y-0.9291
Y-0.937
Y-0.9448
Y-0.9527
Y-0.9606
Y-0.9685
Y-0.9763
Y-0.9842
Y-0.9921
Y-1
Y-1.0078
Y-1.0157
Y-1.0236
Y-1.0314
Y-1.0393
Y-1.0472
Y-1.0551
Y-1.0629
Y-1.0708
Y-1.0787
Y-1.0866
Y-1.0944
Y-1.1023
Y-1.1102
Y-1.1181
Y-1.1259
Y-1.1338
Y-1.1417
Y-1.1496
Y-1.1574
Y-1.1653
Y-1.1732
Y-1.1811
Y-1.1889
Y-1.1968
Y-1.2047
Y-1.2125
Y-1.2204
Y-1.2283
Y-1.2362
Y-1.244
Y-1.2519
Y-1.2598
Y-1.2677
Y-1.2734
G0Z0.3937
 
