(Created with grbl post processor 2026/05/26 18:50)
G20
(G-code Generated with Fabex and NC library)
(Rapids: 196.85/min)
G17G90
(Tool: D = 0.125''  type END flutes 2)
S15000M03
G00 Z0.39 F196.85

G0X0Y0Z0.3937
X3.375Y1.2734
G1Z-0.125F19.68
Y1.2655F39.37
Y1.2576
Y1.2498
Y1.2419
Y1.234
Y1.2261
Y1.2183
Y1.2104
Y1.2025
Y1.1946
Y1.1868
Y1.1789
Y1.171
Y1.1632
Y1.1553
Y1.1474
Y1.1395
Y1.1317
Y1.1238
Y1.1159
Y1.108
Y1.1002
Y1.0923
Y1.0844
Y1.0765
Y1.0687
Y1.0608
Y1.0529
Y1.045
Y1.0372
Y1.0293
Y1.0214
Y1.0135
Y1.0057
Y0.9978
Y0.9899
Y0.982
Y0.9742
Y0.9663
Y0.9584
Y0.9506
Y0.9427
Y0.9348
Y0.9269
Y0.9191
Y0.9112
Y0.9033
Y0.8954
Y0.8876
Y0.8797
Y0.8718
Y0.8639
Y0.8561
Y0.8482
Y0.8403
Y0.8324
Y0.8246
Y0.8167
Y0.8088
Y0.8009
Y0.7931
Y0.7852
Y0.7773
Y0.7695
Y0.7616
Y0.7537
Y0.7458
Y0.738
Y0.7301
Y0.7222
Y0.7143
Y0.7065
Y0.6986
Y0.6907
Y0.6828
Y0.675
Y0.6671
Y0.6592
Y0.6513
Y0.6435
Y0.6356
Y0.6277
Y0.6198
Y0.612
Y0.6041
Y0.5962
Y0.5883
Y0.5805
Y0.5726
Y0.5647
Y0.5569
Y0.549
Y0.5411
Y0.5332
Y0.5254
Y0.5175
Y0.5096
Y0.5017
Y0.4939
Y0.486
Y0.4781
Y0.4702
Y0.4624
Y0.4545
Y0.4466
Y0.4387
Y0.4309
Y0.423
Y0.4151
Y0.4072
Y0.3994
Y0.3915
Y0.3836
Y0.3758
Y0.3679
Y0.36
Y0.3521
Y0.3443
Y0.3364
Y0.3285
Y0.3206
Y0.3128
Y0.3049
Y0.297
Y0.2891
Y0.2813
Y0.2734
Y0.2655
Y0.2576
Y0.2498
Y0.2419
Y0.234
Y0.2261
Y0.2183
Y0.2104
Y0.2025
Y0.1946
Y0.1868
Y0.1789
Y0.171
Y0.1632
Y0.1553
Y0.1474
Y0.1395
Y0.1317
Y0.1238
Y0.1159
Y0.108
Y0.1002
Y0.0923
Y0.0844
Y0.0765
Y0.0687
Y0.0608
Y0.0529
Y0.045
Y0.0372
Y0.0293
Y0.0214
Y0.0135
Y0.0057
Y0
Y-0.0078
Y-0.0157
Y-0.0236
Y-0.0314
Y-0.0393
Y-0.0472
Y-0.0551
Y-0.0629
Y-0.0708
Y-0.0787
Y-0.0866
Y-0.0944
Y-0.1023
Y-0.1102
Y-0.1181
Y-0.1259
Y-0.1338
Y-0.1417
Y-0.1496
Y-0.1574
Y-0.1653
Y-0.1732
Y-0.1811
Y-0.1889
Y-0.1968
Y-0.2047
Y-0.2125
Y-0.2204
Y-0.2283
Y-0.2362
Y-0.244
Y-0.2519
Y-0.2598
Y-0.2677
Y-0.2755
Y-0.2834
Y-0.2913
Y-0.2992
Y-0.307
Y-0.3149
Y-0.3228
Y-0.3307
Y-0.3385
Y-0.3464
Y-0.3543
Y-0.3622
Y-0.37
Y-0.3779
Y-0.3858
Y-0.3937
Y-0.4015
Y-0.4094
Y-0.4173
Y-0.4251
Y-0.433
Y-0.4409
Y-0.4488
Y-0.4566
Y-0.4645
Y-0.4724
Y-0.4803
Y-0.4881
Y-0.496
Y-0.5039
Y-0.5118
Y-0.5196
Y-0.5275
Y-0.5354
Y-0.5433
Y-0.5511
Y-0.559
Y-0.5669
Y-0.5748
Y-0.5826
Y-0.5905
Y-0.5984
Y-0.6062
Y-0.6141
Y-0.622
Y-0.6299
Y-0.6377
Y-0.6456
Y-0.6535
Y-0.6614
Y-0.6692
Y-0.6771
Y-0.685
Y-0.6929
Y-0.7007
Y-0.7086
Y-0.7165
Y-0.7244
Y-0.7322
Y-0.7401
Y-0.748
Y-0.7559
Y-0.7637
Y-0.7716
Y-0.7795
Y-0.7874
Y-0.7952
Y-0.8031
Y-0.811
Y-0.8188
Y-0.8267
Y-0.8346
Y-0.8425
Y-0.8503
Y-0.8582
Y-0.8661
Y-0.874
Y-0.8818
Y-0.8897
Y-0.8976
Y-0.9055
Y-0.9133
Y-0.9212
Y-0.9291
Y-0.937
Y-0.9448
Y-0.9527
Y-0.9606
Y-0.9685
Y-0.9763
Y-0.9842
Y-0.9921
Y-1
Y-1.0078
Y-1.0157
Y-1.0236
Y-1.0314
Y-1.0393
Y-1.0472
Y-1.0551
Y-1.0629
Y-1.0708
Y-1.0787
Y-1.0866
Y-1.0944
Y-1.1023
Y-1.1102
Y-1.1181
Y-1.1259
Y-1.1338
Y-1.1417
Y-1.1496
Y-1.1574
Y-1.1653
Y-1.1732
Y-1.1811
Y-1.1889
Y-1.1968
Y-1.2047
Y-1.2125
Y-1.2204
Y-1.2283
Y-1.2362
Y-1.244
Y-1.2519
Y-1.2598
Y-1.2677
Y-1.2734
Y-1.2813
Y-1.2891
Y-1.297
Y-1.3049
Y-1.3128
Y-1.3206
Y-1.3285
Y-1.3364
Y-1.3443
Y-1.3521
Y-1.36
Y-1.3679
Y-1.3758
Y-1.3836
Y-1.3915
Y-1.3994
Y-1.4072
Y-1.4151
Y-1.423
Y-1.4309
Y-1.4387
Y-1.4466
Y-1.4545
Y-1.4624
Y-1.4702
Y-1.4781
Y-1.486
Y-1.4939
Y-1.5017
Y-1.5096
Y-1.5175
Y-1.5254
Y-1.5332
Y-1.5411
Y-1.549
Y-1.5569
Y-1.5647
Y-1.5726
Y-1.5805
Y-1.5883
Y-1.5962
Y-1.6041
Y-1.612
Y-1.6198
Y-1.6277
Y-1.6356
Y-1.6435
Y-1.6513
Y-1.6592
Y-1.6671
Y-1.675
Y-1.6828
Y-1.6907
Y-1.6986
Y-1.7065
Y-1.7143
Y-1.7222
Y-1.7301
Y-1.738
Y-1.7458
Y-1.7537
Y-1.7616
Y-1.7695
Y-1.7773
Y-1.7852
Y-1.7931
Y-1.8009
Y-1.8088
Y-1.8167
Y-1.8246
Y-1.8324
Y-1.8403
Y-1.8482
Y-1.8561
Y-1.8639
Y-1.8718
Y-1.8797
Y-1.8876
Y-1.8954
Y-1.9033
Y-1.9112
Y-1.9191
Y-1.9269
Y-1.9348
Y-1.9427
Y-1.9506
Y-1.9584
Y-1.9663
Y-1.9742
Y-1.982
Y-1.9899
Y-1.9978
Y-2.0057
Y-2.0135
Y-2.0214
Y-2.0293
Y-2.0372
Y-2.045
Y-2.0529
Y-2.0608
Y-2.0687
Y-2.0765
Y-2.0844
Y-2.0923
Y-2.1002
Y-2.108
Y-2.1159
Y-2.1238
Y-2.1317
Y-2.1395
Y-2.1474
Y-2.1553
Y-2.1632
Y-2.171
Y-2.1789
Y-2.1868
Y-2.1946
Y-2.2025
Y-2.2104
Y-2.2183
Y-2.2261
Y-2.234
Y-2.2419
Y-2.2498
Y-2.2576
Y-2.2655
Y-2.2734
Y-2.2813
Y-2.2891
Y-2.297
Y-2.3049
Y-2.3128
Y-2.3206
Y-2.3285
Y-2.3364
Y-2.3443
Y-2.3521
Y-2.36
Y-2.3679
Y-2.3757
Y-2.3836
Y-2.3915
Y-2.3994
Y-2.4072
Y-2.4151
Y-2.423
Y-2.4309
Y-2.4387
Y-2.4466
Y-2.4545
Y-2.4624
Y-2.4702
Y-2.4781
Y-2.486
Y-2.4939
Y-2.5017
Y-2.5096
Y-2.5175
Y-2.5254
Y-2.5332
Y-2.5411
Y-2.5468
Y-2.5547
Y-2.5626
Y-2.5704
Y-2.5783
Y-2.5862
Y-2.5941
Y-2.6019
Y-2.6098
Y-2.6177
Y-2.6256
Y-2.6334
Y-2.6413
Y-2.6492
Y-2.6571
Y-2.6649
Y-2.6728
Y-2.6807
Y-2.6886
Y-2.6964
Y-2.7043
Y-2.7122
Y-2.7201
Y-2.7279
Y-2.7358
Y-2.7437
Y-2.7515
Y-2.7594
Y-2.7673
Y-2.7752
Y-2.783
Y-2.7909
Y-2.7988
Y-2.8067
Y-2.8145
Y-2.8224
Y-2.8303
Y-2.8382
Y-2.846
Y-2.8539
Y-2.8618
Y-2.8697
Y-2.8775
Y-2.8854
Y-2.8933
Y-2.9012
Y-2.909
Y-2.9169
Y-2.9248
Y-2.9327
Y-2.9405
Y-2.9484
Y-2.9563
Y-2.9641
Y-2.972
Y-2.9799
Y-2.9878
Y-2.9956
Y-3.0035
Y-3.0114
Y-3.0193
Y-3.0271
Y-3.035
Y-3.0429
Y-3.0508
Y-3.0586
Y-3.0665
Y-3.0744
Y-3.0823
Y-3.0901
Y-3.098
Y-3.1059
Y-3.1138
Y-3.1216
Y-3.1295
Y-3.1374
Y-3.1453
Y-3.1531
Y-3.161
Y-3.1689
Y-3.1767
Y-3.1846
Y-3.1925
Y-3.2004
Y-3.2082
Y-3.2161
Y-3.224
Y-3.2319
Y-3.2397
Y-3.2476
Y-3.2555
Y-3.2634
Y-3.2712
Y-3.2791
Y-3.287
Y-3.2949
Y-3.3027
Y-3.3106
Y-3.3185
Y-3.3264
Y-3.3342
Y-3.3421
Y-3.35
Y-3.3578
Y-3.3657
Y-3.3736
Y-3.3815
Y-3.3893
Y-3.3972
Y-3.4051
Y-3.413
Y-3.4208
Y-3.4287
Y-3.4366
Y-3.4445
Y-3.4523
Y-3.4602
Y-3.4681
Y-3.476
Y-3.4838
Y-3.4917
Y-3.4996
Y-3.5075
Y-3.5153
Y-3.5232
Y-3.5311
Y-3.539
Y-3.5468
Y-3.5547
Y-3.5626
Y-3.5704
Y-3.5783
Y-3.5862
Y-3.5941
Y-3.6019
Y-3.6098
Y-3.6177
Y-3.6256
Y-3.6334
Y-3.6413
Y-3.6492
Y-3.6571
Y-3.6649
Y-3.6728
Y-3.6807
Y-3.6886
Y-3.6964
Y-3.7043
Y-3.7122
Y-3.7201
Y-3.7279
Y-3.7358
Y-3.7437
Y-3.7515
Y-3.7594
Y-3.7673
Y-3.7752
Y-3.783
Y-3.7909
Y-3.7988
Y-3.8067
Y-3.8145
Y-3.8203
Y-3.8281
Y-3.836
Y-3.8439
Y-3.8518
Y-3.8596
Y-3.8675
Y-3.8754
Y-3.8833
Y-3.8911
Y-3.899
Y-3.9069
Y-3.9148
Y-3.9226
Y-3.9305
Y-3.9384
Y-3.9462
Y-3.9541
Y-3.962
Y-3.9699
Y-3.9777
Y-3.9856
Y-3.9935
Y-4.0014
Y-4.0092
Y-4.0171
Y-4.025
Y-4.0329
Y-4.0407
Y-4.0486
Y-4.0565
Y-4.0644
Y-4.0722
Y-4.0801
Y-4.088
Y-4.0959
Y-4.1037
Y-4.1116
Y-4.1195
Y-4.1273
Y-4.1352
Y-4.1431
Y-4.151
Y-4.1588
Y-4.1667
Y-4.1746
Y-4.1825
Y-4.1903
Y-4.1982
Y-4.2061
Y-4.214
Y-4.2218
Y-4.2297
Y-4.2376
Y-4.2455
Y-4.2533
Y-4.2612
Y-4.2691
Y-4.277
Y-4.2848
Y-4.2927
Y-4.3006
Y-4.3085
Y-4.3163
Y-4.3242
Y-4.3321
Y-4.3399
Y-4.3478
Y-4.3557
Y-4.3636
Y-4.3714
Y-4.3793
Y-4.3872
Y-4.3951
Y-4.4029
Y-4.4108
Y-4.4187
Y-4.4266
Y-4.4344
Y-4.4423
Y-4.4502
Y-4.4581
Y-4.4659
Y-4.4738
Y-4.4817
Y-4.4896
Y-4.4974
Y-4.5053
Y-4.5132
Y-4.5211
Y-4.5289
Y-4.5368
Y-4.5447
Y-4.5525
Y-4.5604
Y-4.5683
Y-4.5762
Y-4.584
Y-4.5919
Y-4.5998
Y-4.6077
Y-4.6155
Y-4.6234
Y-4.6313
Y-4.6392
Y-4.647
Y-4.6549
Y-4.6628
Y-4.6707
Y-4.6785
Y-4.6864
Y-4.6943
Y-4.7022
Y-4.71
Y-4.7179
Y-4.7258
Y-4.7336
Y-4.7415
Y-4.7494
Y-4.7573
Y-4.7651
Y-4.773
Y-4.7809
Y-4.7888
Y-4.7966
Y-4.8045
Y-4.8124
Y-4.8203
Y-4.8281
Y-4.836
Y-4.8439
Y-4.8518
Y-4.8596
Y-4.8675
Y-4.8754
Y-4.8833
Y-4.8911
Y-4.899
Y-4.9069
Y-4.9148
Y-4.9226
Y-4.9305
Y-4.9384
Y-4.9462
Y-4.9541
Y-4.962
Y-4.9699
Y-4.9777
Y-4.9856
Y-4.9935
Y-5.0014
Y-5.0092
Y-5.0171
Y-5.025
Y-5.0329
Y-5.0407
Y-5.0486
Y-5.0565
Y-5.0644
Y-5.0722
Y-5.0801
Y-5.088
Y-5.0937
Y-5.1016
Y-5.1094
Y-5.1173
Y-5.1252
Y-5.1331
Y-5.1409
Y-5.1488
Y-5.1567
Y-5.1646
Y-5.1724
Y-5.1803
Y-5.1882
Y-5.1961
Y-5.2039
Y-5.2118
Y-5.2197
Y-5.2276
Y-5.2354
Y-5.2433
Y-5.2512
Y-5.2591
Y-5.2669
Y-5.2748
Y-5.2827
Y-5.2906
Y-5.2984
Y-5.3063
Y-5.3142
Y-5.322
Y-5.3299
Y-5.3378
Y-5.3457
Y-5.3535
Y-5.3614
Y-5.3693
Y-5.3772
Y-5.385
Y-5.3929
Y-5.4008
Y-5.4087
Y-5.4165
Y-5.4244
Y-5.4323
Y-5.4402
Y-5.448
Y-5.4559
Y-5.4638
Y-5.4717
Y-5.4795
Y-5.4874
Y-5.4953
Y-5.5031
Y-5.511
Y-5.5189
Y-5.5268
Y-5.5346
Y-5.5425
Y-5.5504
Y-5.5583
Y-5.5661
Y-5.574
Y-5.5819
Y-5.5898
Y-5.5976
Y-5.6055
Y-5.6134
Y-5.6213
Y-5.6291
Y-5.637
Y-5.6449
Y-5.6528
Y-5.6606
Y-5.6685
Y-5.6764
Y-5.6843
Y-5.6921
Y-5.7
Y-5.7079
Y-5.7157
Y-5.7236
Y-5.7315
Y-5.7394
Y-5.7472
Y-5.7551
Y-5.763
Y-5.7709
Y-5.7787
Y-5.7866
Y-5.7945
Y-5.8024
Y-5.8102
Y-5.8181
Y-5.826
Y-5.8339
Y-5.8417
Y-5.8496
Y-5.8575
Y-5.8654
Y-5.8732
Y-5.8811
Y-5.889
Y-5.8969
Y-5.9047
Y-5.9126
Y-5.9205
Y-5.9283
Y-5.9362
Y-5.9441
Y-5.952
Y-5.9598
Y-5.9677
Y-5.9756
Y-5.9835
Y-5.9913
Y-5.9992
Y-6.0071
Y-6.015
Y-6.0228
Y-6.0307
Y-6.0386
Y-6.0465
Y-6.0543
Y-6.0622
Y-6.0701
Y-6.078
Y-6.0858
Y-6.0937
Y-6.1016
Y-6.1094
Y-6.1173
Y-6.1252
Y-6.1331
Y-6.1409
Y-6.1488
Y-6.1567
Y-6.1646
Y-6.1724
Y-6.1803
Y-6.1882
Y-6.1961
Y-6.2039
Y-6.2118
Y-6.2197
Y-6.2276
Y-6.2354
Y-6.2433
Y-6.2512
Y-6.2591
Y-6.2669
Y-6.2748
Y-6.2827
Y-6.2906
Y-6.2984
Y-6.3063
Y-6.3142
Y-6.322
Y-6.3299
Y-6.3378
Y-6.3457
Y-6.3535
Y-6.3614
Y-6.3671
Y-6.375
Y-6.3829
Y-6.3908
Y-6.3986
Y-6.4065
Y-6.4144
Y-6.4223
Y-6.4301
Y-6.438
Y-6.4459
Y-6.4538
Y-6.4616
Y-6.4695
Y-6.4774
Y-6.4852
Y-6.4931
Y-6.501
Y-6.5089
Y-6.5167
Y-6.5246
Y-6.5325
Y-6.5404
Y-6.5482
Y-6.5561
Y-6.564
Y-6.5719
Y-6.5797
Y-6.5876
Y-6.5955
Y-6.6034
Y-6.6112
Y-6.6191
Y-6.627
Y-6.6349
Y-6.6427
Y-6.6506
Y-6.6585
Y-6.6664
Y-6.6742
Y-6.6821
Y-6.69
Y-6.6978
Y-6.7057
Y-6.7136
Y-6.7215
Y-6.7293
Y-6.7372
Y-6.7451
Y-6.753
Y-6.7608
Y-6.7687
Y-6.7766
Y-6.7845
Y-6.7923
Y-6.8002
Y-6.8081
Y-6.816
Y-6.8238
Y-6.8317
Y-6.8396
Y-6.8475
Y-6.8553
Y-6.8632
Y-6.8711
Y-6.8789
Y-6.8868
Y-6.8947
Y-6.9026
Y-6.9104
Y-6.9183
Y-6.9262
Y-6.9341
Y-6.9419
Y-6.9498
Y-6.9577
Y-6.9656
Y-6.9734
Y-6.9813
Y-6.9892
Y-6.9971
Y-7.0049
Y-7.0128
Y-7.0207
Y-7.0286
Y-7.0364
Y-7.0443
Y-7.0522
Y-7.0601
Y-7.0679
Y-7.0758
Y-7.0837
Y-7.0915
Y-7.0994
Y-7.1073
Y-7.1152
Y-7.123
Y-7.1309
Y-7.1388
Y-7.1467
Y-7.1545
Y-7.1624
Y-7.1703
Y-7.1782
Y-7.186
Y-7.1939
Y-7.2018
Y-7.2097
Y-7.2175
Y-7.2254
Y-7.2333
Y-7.2412
Y-7.249
Y-7.2569
Y-7.2648
Y-7.2726
Y-7.2805
Y-7.2884
Y-7.2963
Y-7.3041
Y-7.312
Y-7.3199
Y-7.3278
Y-7.3356
Y-7.3435
Y-7.3514
Y-7.3593
Y-7.3671
Y-7.375
Y-7.3829
Y-7.3908
Y-7.3986
Y-7.4065
Y-7.4144
Y-7.4223
Y-7.4301
Y-7.438
Y-7.4459
Y-7.4538
Y-7.4616
Y-7.4695
Y-7.4774
Y-7.4852
Y-7.4931
Y-7.501
Y-7.5089
Y-7.5167
Y-7.5246
Y-7.5325
Y-7.5404
Y-7.5482
Y-7.5561
Y-7.564
Y-7.5719
Y-7.5797
Y-7.5876
Y-7.5955
Y-7.6034
Y-7.6112
Y-7.6191
Y-7.627
Y-7.6349
Y-7.6406
Y-7.6485
Y-7.6563
Y-7.6642
Y-7.6721
Y-7.6799
Y-7.6878
Y-7.6957
Y-7.7036
Y-7.7114
Y-7.7193
Y-7.7272
Y-7.7351
Y-7.7429
Y-7.7508
Y-7.7587
Y-7.7666
Y-7.7744
Y-7.7823
Y-7.7902
Y-7.7981
Y-7.8059
Y-7.8138
Y-7.8217
Y-7.8296
Y-7.8374
Y-7.8453
Y-7.8532
Y-7.861
Y-7.8689
Y-7.8768
Y-7.8847
Y-7.8925
Y-7.9004
Y-7.9083
Y-7.9162
Y-7.924
Y-7.9319
Y-7.9398
Y-7.9477
Y-7.9555
Y-7.9634
Y-7.9713
Y-7.9792
Y-7.987
Y-7.9949
Y-8.0028
Y-8.0107
Y-8.0185
Y-8.0264
Y-8.0343
Y-8.0422
Y-8.05
Y-8.0579
Y-8.0658
Y-8.0736
Y-8.0815
Y-8.0894
Y-8.0973
Y-8.1051
Y-8.113
Y-8.1209
Y-8.1288
Y-8.1366
Y-8.1445
Y-8.1524
Y-8.1603
Y-8.1681
Y-8.176
Y-8.1839
Y-8.1918
Y-8.1996
Y-8.2075
Y-8.2154
Y-8.2233
Y-8.2311
Y-8.239
Y-8.2469
Y-8.2547
Y-8.2626
Y-8.2705
Y-8.2784
Y-8.2862
Y-8.2941
Y-8.302
Y-8.3099
Y-8.3177
Y-8.3256
Y-8.3335
Y-8.3414
Y-8.3492
Y-8.3571
Y-8.365
Y-8.3729
Y-8.3807
Y-8.3886
Y-8.3965
Y-8.4044
Y-8.4122
Y-8.4201
Y-8.428
Y-8.4359
Y-8.4437
Y-8.4516
Y-8.4595
Y-8.4673
Y-8.4752
Y-8.4831
Y-8.491
Y-8.4988
Y-8.5067
Y-8.5146
Y-8.5225
Y-8.5303
Y-8.5382
Y-8.5461
Y-8.554
Y-8.5618
Y-8.5697
Y-8.5776
Y-8.5855
Y-8.5933
Y-8.6012
Y-8.6091
Y-8.617
Y-8.6248
Y-8.6327
Y-8.6406
Y-8.6485
Y-8.6563
Y-8.6642
Y-8.6721
Y-8.6799
Y-8.6878
Y-8.6957
Y-8.7036
Y-8.7114
Y-8.7193
Y-8.7272
Y-8.7351
Y-8.7429
Y-8.7508
Y-8.7587
Y-8.7666
Y-8.7744
Y-8.7823
Y-8.7902
Y-8.7981
Y-8.8059
Y-8.8138
Y-8.8217
Y-8.8296
Y-8.8374
Y-8.8453
Y-8.8532
Y-8.861
Y-8.8689
Y-8.8768
Y-8.8847
Y-8.8925
Y-8.9004
Y-8.9083
Y-8.914
Y-8.9219
Y-8.9298
Y-8.9376
Y-8.9455
Y-8.9534
Y-8.9613
Y-8.9691
Y-8.977
Y-8.9849
Y-8.9928
Y-9.0006
Y-9.0085
Y-9.0164
Y-9.0242
Y-9.0321
Y-9.04
Y-9.0479
Y-9.0557
Y-9.0636
Y-9.0715
Y-9.0794
Y-9.0872
Y-9.0951
Y-9.103
Y-9.1109
Y-9.1187
Y-9.1266
Y-9.1345
Y-9.1424
Y-9.1502
Y-9.1581
Y-9.166
Y-9.1739
Y-9.1817
Y-9.1896
Y-9.1975
Y-9.2054
Y-9.2132
Y-9.2211
Y-9.229
Y-9.2368
Y-9.2447
Y-9.2526
Y-9.2605
Y-9.2683
Y-9.2762
Y-9.2841
Y-9.292
Y-9.2998
Y-9.3077
Y-9.3156
Y-9.3235
Y-9.3313
Y-9.3392
Y-9.3471
Y-9.355
Y-9.3628
Y-9.3707
Y-9.3786
Y-9.3865
Y-9.3943
Y-9.4022
Y-9.4101
Y-9.418
Y-9.4258
Y-9.4337
Y-9.4416
Y-9.4494
Y-9.4573
Y-9.4652
Y-9.4731
Y-9.4809
Y-9.4888
Y-9.4967
Y-9.5046
Y-9.5124
Y-9.5203
Y-9.5282
Y-9.5361
Y-9.5439
Y-9.5518
Y-9.5597
Y-9.5676
Y-9.5754
Y-9.5833
Y-9.5912
Y-9.5991
Y-9.6069
Y-9.6148
Y-9.6227
Y-9.6305
Y-9.6384
Y-9.6463
Y-9.6542
Y-9.662
Y-9.6699
Y-9.6778
Y-9.6857
Y-9.6935
Y-9.7014
Y-9.7093
Y-9.7172
Y-9.725
Y-9.7329
Y-9.7408
Y-9.7487
Y-9.7565
Y-9.7644
Y-9.7723
Y-9.7802
Y-9.788
Y-9.7959
Y-9.8038
Y-9.8117
Y-9.8195
Y-9.8274
Y-9.8353
Y-9.8431
Y-9.851
Y-9.8589
Y-9.8668
Y-9.8746
Y-9.8825
Y-9.8904
Y-9.8983
Y-9.9061
Y-9.914
Y-9.9219
Y-9.9298
Y-9.9376
Y-9.9455
Y-9.9534
Y-9.9613
Y-9.9691
Y-9.977
Y-9.9849
Y-9.9928
Y-10.0006
Y-10.0085
Y-10.0164
Y-10.0242
Y-10.0321
Y-10.04
Y-10.0479
Y-10.0557
Y-10.0636
Y-10.0715
Y-10.0794
Y-10.0872
Y-10.0951
Y-10.103
Y-10.1109
Y-10.1187
Y-10.1266
Y-10.1345
Y-10.1424
Y-10.1502
Y-10.1581
Y-10.166
Y-10.1739
Y-10.1817
Y-10.1875
Y-10.1878
Y-10.1882
X3.3749Y-10.1886
Y-10.189
Y-10.1894
Y-10.1898
Y-10.1902
X3.3748Y-10.1906
Y-10.191
Y-10.1914
Y-10.1918
Y-10.1922
X3.3747Y-10.1926
Y-10.193
Y-10.1934
Y-10.1938
X3.3746Y-10.1941
Y-10.1945
X3.3745Y-10.1949
X3.3744Y-10.1953
Y-10.1957
X3.3743Y-10.1961
Y-10.1965
X3.3742Y-10.1969
X3.3741Y-10.1973
Y-10.1976
X3.374Y-10.198
Y-10.1984
X3.3739Y-10.1988
X3.3738Y-10.1992
Y-10.1996
X3.3737Y-10.2
X3.3736Y-10.2004
X3.3735Y-10.2008
X3.3734Y-10.2011
X3.3733Y-10.2015
X3.3732Y-10.2019
X3.3731Y-10.2023
X3.373Y-10.2027
X3.3729Y-10.203
X3.3728Y-10.2034
X3.3727Y-10.2038
X3.3726Y-10.2042
X3.3725Y-10.2046
X3.3724Y-10.2049
X3.3723Y-10.2053
X3.3722Y-10.2057
X3.3721Y-10.2061
X3.372Y-10.2065
X3.3719Y-10.2068
X3.3717Y-10.2072
X3.3716Y-10.2076
X3.3715Y-10.2079
X3.3713Y-10.2083
X3.3712Y-10.2087
X3.3711Y-10.2091
X3.3709Y-10.2094
X3.3708Y-10.2098
X3.3706Y-10.2102
X3.3705Y-10.2105
X3.3704Y-10.2109
X3.3702Y-10.2113
X3.3701Y-10.2116
X3.37Y-10.212
X3.3698Y-10.2124
X3.3696Y-10.2127
X3.3694Y-10.2131
X3.3693Y-10.2134
X3.3691Y-10.2138
X3.3689Y-10.2141
X3.3688Y-10.2145
X3.3686Y-10.2148
X3.3684Y-10.2152
X3.3682Y-10.2156
X3.3681Y-10.2159
X3.3679Y-10.2163
X3.3677Y-10.2166
X3.3675Y-10.217
X3.3674Y-10.2173
X3.3672Y-10.2177
X3.367Y-10.218
X3.3668Y-10.2184
X3.3666Y-10.2187
X3.3664Y-10.219
X3.3662Y-10.2194
X3.3659Y-10.2197
X3.3657Y-10.22
X3.3655Y-10.2204
X3.3653Y-10.2207
X3.3651Y-10.221
X3.3649Y-10.2214
X3.3647Y-10.2217
X3.3645Y-10.222
X3.3643Y-10.2224
X3.3641Y-10.2227
X3.3639Y-10.223
X3.3636Y-10.2234
X3.3634Y-10.2237
X3.3631Y-10.224
X3.3629Y-10.2243
X3.3627Y-10.2246
X3.3624Y-10.2249
X3.3622Y-10.2252
X3.3619Y-10.2255
X3.3617Y-10.2259
X3.3615Y-10.2262
X3.3612Y-10.2265
X3.361Y-10.2268
X3.3607Y-10.2271
X3.3605Y-10.2274
X3.3603Y-10.2277
X3.36Y-10.228
X3.3597Y-10.2284
X3.3595Y-10.2286
X3.3592Y-10.2289
X3.3589Y-10.2292
X3.3587Y-10.2295
X3.3584Y-10.2298
X3.3581Y-10.23
X3.3579Y-10.2303
X3.3576Y-10.2306
X3.3574Y-10.2309
X3.3571Y-10.2311
X3.3568Y-10.2314
X3.3566Y-10.2317
X3.3563Y-10.232
X3.356Y-10.2323
X3.3558Y-10.2325
X3.3555Y-10.2328
X3.3552Y-10.233
X3.3549Y-10.2333
X3.3546Y-10.2335
X3.3543Y-10.2338
X3.354Y-10.2341
X3.3538Y-10.2343
X3.3535Y-10.2346
X3.3532Y-10.2348
X3.3529Y-10.2351
X3.3526Y-10.2353
X3.3523Y-10.2356
X3.352Y-10.2358
X3.3517Y-10.2361
X3.3514Y-10.2363
X3.3512Y-10.2366
X3.3508Y-10.2368
X3.3505Y-10.237
X3.3502Y-10.2372
X3.3499Y-10.2375
X3.3496Y-10.2377
X3.3493Y-10.2379
X3.349Y-10.2381
X3.3487Y-10.2383
X3.3483Y-10.2386
X3.348Y-10.2388
X3.3477Y-10.239
X3.3474Y-10.2392
X3.3471Y-10.2395
X3.3468Y-10.2397
X3.3465Y-10.2399
X3.3462Y-10.2401
X3.3458Y-10.2403
X3.3455Y-10.2405
X3.3452Y-10.2407
X3.3448Y-10.2409
X3.3445Y-10.2411
X3.3442Y-10.2413
X3.3438Y-10.2415
X3.3435Y-10.2417
X3.3432Y-10.2418
X3.3428Y-10.242
X3.3425Y-10.2422
X3.3422Y-10.2424
X3.3418Y-10.2426
X3.3415Y-10.2428
X3.3412Y-10.243
X3.3408Y-10.2432
X3.3405Y-10.2433
X3.3401Y-10.2435
X3.3398Y-10.2436
X3.3394Y-10.2438
X3.3391Y-10.244
X3.3387Y-10.2441
X3.3384Y-10.2443
X3.338Y-10.2444
X3.3377Y-10.2446
X3.3373Y-10.2447
X3.337Y-10.2449
X3.3366Y-10.2451
X3.3363Y-10.2452
X3.3359Y-10.2454
X3.3356Y-10.2455
X3.3352Y-10.2457
X3.3349Y-10.2458
X3.3345Y-10.2459
X3.3341Y-10.2461
X3.3338Y-10.2462
X3.3334Y-10.2463
X3.3331Y-10.2464
X3.3327Y-10.2465
X3.3323Y-10.2467
X3.332Y-10.2468
X3.3316Y-10.2469
X3.3312Y-10.247
X3.3309Y-10.2472
X3.3305Y-10.2473
X3.3302Y-10.2474
X3.3298Y-10.2475
X3.3294Y-10.2476
X3.3291Y-10.2477
X3.3287Y-10.2478
X3.3283Y-10.2479
X3.3279Y-10.248
X3.3276Y-10.2481
X3.3272Y-10.2482
X3.3268
X3.3264Y-10.2483
X3.3261Y-10.2484
X3.3257Y-10.2485
X3.3253Y-10.2486
X3.3249Y-10.2487
X3.3246Y-10.2488
X3.3242
X3.3238Y-10.2489
X3.3234Y-10.249
X3.3231Y-10.2491
X3.3227
X3.3223Y-10.2492
X3.3219
X3.3215Y-10.2493
X3.3212
X3.3208Y-10.2494
X3.3204
X3.32Y-10.2495
X3.3196
X3.3193Y-10.2496
X3.3189
X3.3185
X3.3181Y-10.2497
X3.3177
X3.3174Y-10.2498
X3.3171
X3.3168
X3.3164
X3.3161
X3.3158Y-10.2499
X3.3155
X3.3152
X3.3149
X3.3146
X3.3143
X3.314
X3.3137
X3.3134Y-10.25
X3.3131
X3.3128
X3.3125
X3.3046
X3.2967
X3.2888
X3.281
X3.2731
X3.2652
X3.2573
X3.2495
X3.2416
X3.2337
X3.2258
X3.218
X3.2101
X3.2022
X3.1943
X3.1865
X3.1786
X3.1707
X3.1628
X3.155
X3.1471
X3.1392
X3.1313
X3.1235
X3.1156
X3.1077
X3.0999
X3.092
X3.0841
X3.0762
X3.0684
X3.0605
X3.0526
X3.0447
X3.0369
X3.029
X3.0211
X3.0132
X3.0054
X2.9975
X2.9896
X2.9817
X2.9739
X2.966
X2.9581
X2.9502
X2.9424
X2.9345
X2.9266
X2.9188
X2.9109
X2.903
X2.8984
X2.8905
X2.8826
X2.8748
X2.8669
X2.859
X2.8511
X2.8433
X2.8354
X2.8275
X2.8196
X2.8118
X2.8039
X2.796
X2.7882
X2.7803
X2.7724
X2.7645
X2.7567
X2.7488
X2.7409
X2.733
X2.7252
X2.7173
X2.7094
X2.7015
X2.6937
X2.6858
X2.6779
X2.67
X2.6622
X2.6543
X2.6464
X2.6385
X2.6307
X2.6228
X2.6149
X2.6071
X2.5992
X2.5913
X2.5834
X2.5756
X2.5677
X2.5598
X2.5519
X2.5441
X2.5362
X2.5283
X2.5204
X2.5126
X2.5047
X2.4968
X2.4889
X2.4843
X2.4765
X2.4686
X2.4607
X2.4528
X2.445
X2.4371
X2.4292
X2.4213
X2.4135
X2.4056
X2.3977
X2.3898
X2.382
X2.3741
X2.3662
X2.3583
X2.3505
X2.3426
X2.3347
X2.3268
X2.319
X2.3111
X2.3032
X2.2953
X2.2875
X2.2796
X2.2717
X2.2639
X2.256
X2.2481
X2.2402
X2.2324
X2.2245
X2.2166
X2.2087
X2.2009
X2.193
X2.1851
X2.1772
X2.1694
X2.1615
X2.1536
X2.1457
X2.1379
X2.13
X2.1221
X2.1142
X2.1064
X2.0985
X2.0906
X2.0828
X2.0749
X2.0703
X2.0624
X2.0545
X2.0466
X2.0388
X2.0309
X2.023
X2.0151
X2.0073
X1.9994
X1.9915
X1.9836
X1.9758
X1.9679
X1.96
X1.9522
X1.9443
X1.9364
X1.9285
X1.9207
X1.9128
X1.9049
X1.897
X1.8892
X1.8813
X1.8734
X1.8655
X1.8577
X1.8498
X1.8419
X1.834
X1.8262
X1.8183
X1.8104
X1.8025
X1.7947
X1.7868
X1.7789
X1.7711
X1.7632
X1.7553
X1.7474
X1.7396
X1.7317
X1.7238
X1.7159
X1.7081
X1.7002
X1.6923
X1.6844
X1.6766
X1.6687
X1.6608
X1.6562
X1.6483
X1.6405
X1.6326
X1.6247
X1.6168
X1.609
X1.6011
X1.5932
X1.5853
X1.5775
X1.5696
X1.5617
X1.5538
X1.546
X1.5381
X1.5302
X1.5223
X1.5145
X1.5066
X1.4987
X1.4908
X1.483
X1.4751
X1.4672
X1.4594
X1.4515
X1.4436
X1.4357
X1.4279
X1.42
X1.4121
X1.4042
X1.3964
X1.3885
X1.3806
X1.3727
X1.3649
X1.357
X1.3491
X1.3412
X1.3334
X1.3255
X1.3176
X1.3097
X1.3019
X1.294
X1.2861
X1.2782
X1.2704
X1.2625
X1.2546
X1.2468
X1.2421
X1.2343
X1.2264
X1.2185
X1.2106
X1.2028
X1.1949
X1.187
X1.1791
X1.1713
X1.1634
X1.1555
X1.1477
X1.1398
X1.1319
X1.124
X1.1162
X1.1083
X1.1004
X1.0925
X1.0847
X1.0768
X1.0689
X1.061
X1.0532
X1.0453
X1.0374
X1.0295
X1.0217
X1.0138
X1.0059
X0.998
X0.9902
X0.9823
X0.9744
X0.9665
X0.9587
X0.9508
X0.9429
X0.9351
X0.9272
X0.9193
X0.9114
X0.9036
X0.8957
X0.8878
X0.8799
X0.8721
X0.8642
X0.8563
X0.8484
X0.8406
X0.8327
X0.8281
X0.8202
X0.8123
X0.8045
X0.7966
X0.7887
X0.7808
X0.773
X0.7651
X0.7572
X0.7493
X0.7415
X0.7336
X0.7257
X0.7178
X0.71
X0.7021
X0.6942
X0.6863
X0.6785
X0.6706
X0.6627
X0.6548
X0.647
X0.6391
X0.6312
X0.6234
X0.6155
X0.6076
X0.5997
X0.5919
X0.584
X0.5761
X0.5682
X0.5604
X0.5525
X0.5446
X0.5367
X0.5289
X0.521
X0.5131
X0.5052
X0.4974
X0.4895
X0.4816
X0.4737
X0.4659
X0.458
X0.4501
X0.4422
X0.4344
X0.4265
X0.4186
X0.414
X0.4061
X0.3983
X0.3904
X0.3825
X0.3746
X0.3668
X0.3589
X0.351
X0.3431
X0.3353
X0.3274
X0.3195
X0.3117
X0.3038
X0.2959
X0.288
X0.2802
X0.2723
X0.2644
X0.2565
X0.2487
X0.2408
X0.2329
X0.225
X0.2172
X0.2093
X0.2014
X0.1935
X0.1857
X0.1778
X0.1699
X0.162
X0.1542
X0.1463
X0.1384
X0.1305
X0.1227
X0.1148
X0.1069
X0.0991
X0.0912
X0.0833
X0.0754
X0.0676
X0.0597
X0.0518
X0.0439
X0.0361
X0.0282
X0.0203
X0.0124
X0.0046
X0
X-0.0078
X-0.0157
X-0.0236
X-0.0314
X-0.0393
X-0.0472
X-0.0551
X-0.0629
X-0.0708
X-0.0787
X-0.0866
X-0.0944
X-0.1023
X-0.1102
X-0.1181
X-0.1259
X-0.1338
X-0.1417
X-0.1496
X-0.1574
X-0.1653
X-0.1732
X-0.1811
X-0.1889
X-0.1968
X-0.2047
X-0.2125
X-0.2204
X-0.2283
X-0.2362
X-0.244
X-0.2519
X-0.2598
X-0.2677
X-0.2755
X-0.2834
X-0.2913
X-0.2992
X-0.307
X-0.3149
X-0.3228
X-0.3307
X-0.3385
X-0.3464
X-0.3543
X-0.3622
X-0.37
X-0.3779
X-0.3858
X-0.3937
X-0.4015
X-0.4094
X-0.414
X-0.4219
X-0.4298
X-0.4376
X-0.4455
X-0.4534
X-0.4613
X-0.4691
X-0.477
X-0.4849
X-0.4928
X-0.5006
X-0.5085
X-0.5164
X-0.5242
X-0.5321
X-0.54
X-0.5479
X-0.5557
X-0.5636
X-0.5715
X-0.5794
X-0.5872
X-0.5951
X-0.603
X-0.6109
X-0.6187
X-0.6266
X-0.6345
X-0.6424
X-0.6502
X-0.6581
X-0.666
X-0.6739
X-0.6817
X-0.6896
X-0.6975
X-0.7054
X-0.7132
X-0.7211
X-0.729
X-0.7368
X-0.7447
X-0.7526
X-0.7605
X-0.7683
X-0.7762
X-0.7841
X-0.792
X-0.7998
X-0.8077
X-0.8156
X-0.8235
X-0.8281
X-0.8359
X-0.8438
X-0.8517
X-0.8596
X-0.8674
X-0.8753
X-0.8832
X-0.8911
X-0.8989
X-0.9068
X-0.9147
X-0.9226
X-0.9304
X-0.9383
X-0.9462
X-0.9541
X-0.9619
X-0.9698
X-0.9777
X-0.9856
X-0.9934
X-1.0013
X-1.0092
X-1.0171
X-1.0249
X-1.0328
X-1.0407
X-1.0485
X-1.0564
X-1.0643
X-1.0722
X-1.08
X-1.0879
X-1.0958
X-1.1037
X-1.1115
X-1.1194
X-1.1273
X-1.1352
X-1.143
X-1.1509
X-1.1588
X-1.1667
X-1.1745
X-1.1824
X-1.1903
X-1.1982
X-1.206
X-1.2139
X-1.2218
X-1.2296
X-1.2375
X-1.2421
X-1.25
X-1.2579
X-1.2658
X-1.2736
X-1.2815
X-1.2894
X-1.2973
X-1.3051
X-1.313
X-1.3209
X-1.3288
X-1.3366
X-1.3445
X-1.3524
X-1.3602
X-1.3681
X-1.376
X-1.3839
X-1.3917
X-1.3996
X-1.4075
X-1.4154
X-1.4232
X-1.4311
X-1.439
X-1.4469
X-1.4547
X-1.4626
X-1.4705
X-1.4784
X-1.4862
X-1.4941
X-1.502
X-1.5099
X-1.5177
X-1.5256
X-1.5335
X-1.5414
X-1.5492
X-1.5571
X-1.565
X-1.5728
X-1.5807
X-1.5886
X-1.5965
X-1.6043
X-1.6122
X-1.6201
X-1.628
X-1.6358
X-1.6437
X-1.6516
X-1.6562
X-1.6641
X-1.6719
X-1.6798
X-1.6877
X-1.6956
X-1.7034
X-1.7113
X-1.7192
X-1.7271
X-1.7349
X-1.7428
X-1.7507
X-1.7586
X-1.7664
X-1.7743
X-1.7822
X-1.7901
X-1.7979
X-1.8058
X-1.8137
X-1.8216
X-1.8294
X-1.8373
X-1.8452
X-1.8531
X-1.8609
X-1.8688
X-1.8767
X-1.8845
X-1.8924
X-1.9003
X-1.9082
X-1.916
X-1.9239
X-1.9318
X-1.9397
X-1.9475
X-1.9554
X-1.9633
X-1.9712
X-1.979
X-1.9869
X-1.9948
X-2.0027
X-2.0105
X-2.0184
X-2.0263
X-2.0342
X-2.042
X-2.0499
X-2.0578
X-2.0656
X-2.0703
X-2.0781
X-2.086
X-2.0939
X-2.1018
X-2.1096
X-2.1175
X-2.1254
X-2.1333
X-2.1411
X-2.149
X-2.1569
X-2.1648
X-2.1726
X-2.1805
X-2.1884
X-2.1962
X-2.2041
X-2.212
X-2.2199
X-2.2277
X-2.2356
X-2.2435
X-2.2514
X-2.2592
X-2.2671
X-2.275
X-2.2829
X-2.2907
X-2.2986
X-2.3065
X-2.3144
X-2.3222
X-2.3301
X-2.338
X-2.3459
X-2.3537
X-2.3616
X-2.3695
X-2.3773
X-2.3852
X-2.3931
X-2.401
X-2.4088
X-2.4167
X-2.4246
X-2.4325
X-2.4403
X-2.4482
X-2.4561
X-2.464
X-2.4718
X-2.4797
X-2.4843
X-2.4922
X-2.5001
X-2.5079
X-2.5158
X-2.5237
X-2.5316
X-2.5394
X-2.5473
X-2.5552
X-2.5631
X-2.5709
X-2.5788
X-2.5867
X-2.5946
X-2.6024
X-2.6103
X-2.6182
X-2.6261
X-2.6339
X-2.6418
X-2.6497
X-2.6576
X-2.6654
X-2.6733
X-2.6812
X-2.689
X-2.6969
X-2.7048
X-2.7127
X-2.7205
X-2.7284
X-2.7363
X-2.7442
X-2.752
X-2.7599
X-2.7678
X-2.7757
X-2.7835
X-2.7914
X-2.7993
X-2.8072
X-2.815
X-2.8229
X-2.8308
X-2.8387
X-2.8465
X-2.8544
X-2.8623
X-2.8702
X-2.878
X-2.8859
X-2.8938
X-2.8984
X-2.9063
X-2.9141
X-2.922
X-2.9299
X-2.9378
X-2.9456
X-2.9535
X-2.9614
X-2.9693
X-2.9771
X-2.985
X-2.9929
X-3.0007
X-3.0086
X-3.0165
X-3.0244
X-3.0322
X-3.0401
X-3.048
X-3.0559
X-3.0637
X-3.0716
X-3.0795
X-3.0874
X-3.0952
X-3.1031
X-3.111
X-3.1189
X-3.1267
X-3.1346
X-3.1425
X-3.1504
X-3.1582
X-3.1661
X-3.174
X-3.1819
X-3.1897
X-3.1976
X-3.2055
X-3.2133
X-3.2212
X-3.2291
X-3.237
X-3.2448
X-3.2527
X-3.2606
X-3.2685
X-3.2763
X-3.2842
X-3.2921
X-3.3
X-3.3078
X-3.3124
X-3.3128
X-3.3132
X-3.3136Y-10.2499
X-3.314
X-3.3144
X-3.3147
X-3.3151
X-3.3155Y-10.2498
X-3.3159
X-3.3163
X-3.3167
X-3.317
X-3.3174Y-10.2497
X-3.3178
X-3.3182
X-3.3186
X-3.319Y-10.2496
X-3.3193
X-3.3197Y-10.2495
X-3.3201
X-3.3205Y-10.2494
X-3.3209
X-3.3212Y-10.2493
X-3.3216Y-10.2492
X-3.322
X-3.3224Y-10.2491
X-3.3227
X-3.3231Y-10.249
X-3.3235
X-3.3239Y-10.2489
X-3.3243Y-10.2488
X-3.3246
X-3.325Y-10.2487
X-3.3254Y-10.2486
X-3.3258Y-10.2485
X-3.3261Y-10.2484
X-3.3265Y-10.2483
X-3.3269Y-10.2482
X-3.3272Y-10.2481
X-3.3276Y-10.248
X-3.328
X-3.3284Y-10.2479
X-3.3287Y-10.2478
X-3.3291Y-10.2477
X-3.3295Y-10.2476
X-3.3298Y-10.2475
X-3.3302Y-10.2474
X-3.3306Y-10.2473
X-3.331Y-10.2472
X-3.3313Y-10.247
X-3.3317Y-10.2469
X-3.332Y-10.2468
X-3.3324Y-10.2467
X-3.3328Y-10.2465
X-3.3331Y-10.2464
X-3.3335Y-10.2463
X-3.3338Y-10.2461
X-3.3342Y-10.246
X-3.3346Y-10.2459
X-3.3349Y-10.2457
X-3.3353Y-10.2456
X-3.3356Y-10.2455
X-3.336Y-10.2454
X-3.3364Y-10.2452
X-3.3367Y-10.2451
X-3.3371Y-10.2449
X-3.3374Y-10.2447
X-3.3378Y-10.2446
X-3.3381Y-10.2444
X-3.3384Y-10.2442
X-3.3388Y-10.2441
X-3.3391Y-10.2439
X-3.3395Y-10.2438
X-3.3398Y-10.2436
X-3.3402Y-10.2434
X-3.3405Y-10.2433
X-3.3409Y-10.2431
X-3.3412Y-10.2429
X-3.3416Y-10.2428
X-3.3419Y-10.2426
X-3.3422Y-10.2424
X-3.3426Y-10.2422
X-3.3429Y-10.242
X-3.3432Y-10.2418
X-3.3436Y-10.2416
X-3.3439Y-10.2414
X-3.3442Y-10.2412
X-3.3445Y-10.241
X-3.3449Y-10.2408
X-3.3452Y-10.2406
X-3.3455Y-10.2404
X-3.3459Y-10.2402
X-3.3462Y-10.24
X-3.3465Y-10.2399
X-3.3468Y-10.2397
X-3.3472Y-10.2395
X-3.3475Y-10.2392
X-3.3478Y-10.239
X-3.3481Y-10.2388
X-3.3484Y-10.2385
X-3.3487Y-10.2383
X-3.349Y-10.2381
X-3.3493Y-10.2379
X-3.3496Y-10.2376
X-3.3499Y-10.2374
X-3.3503Y-10.2372
X-3.3506Y-10.2369
X-3.3509Y-10.2367
X-3.3512Y-10.2365
X-3.3515Y-10.2363
X-3.3518Y-10.236
X-3.3521Y-10.2358
X-3.3524Y-10.2355
X-3.3527Y-10.2353
X-3.353Y-10.235
X-3.3532Y-10.2348
X-3.3535Y-10.2345
X-3.3538Y-10.2343
X-3.3541Y-10.234
X-3.3544Y-10.2337
X-3.3547Y-10.2335
X-3.3549Y-10.2332
X-3.3552Y-10.233
X-3.3555Y-10.2327
X-3.3558Y-10.2325
X-3.3561Y-10.2322
X-3.3564Y-10.2319
X-3.3566Y-10.2317
X-3.3569Y-10.2314
X-3.3572Y-10.2311
X-3.3575Y-10.2308
X-3.3577Y-10.2305
X-3.358Y-10.2302
X-3.3582Y-10.2299
X-3.3585Y-10.2297
X-3.3587Y-10.2294
X-3.359Y-10.2291
X-3.3593Y-10.2288
X-3.3595Y-10.2285
X-3.3598Y-10.2282
X-3.36Y-10.228
X-3.3603Y-10.2277
X-3.3605Y-10.2274
X-3.3608Y-10.2271
X-3.361Y-10.2268
X-3.3613Y-10.2265
X-3.3615Y-10.2262
X-3.3617Y-10.2259
X-3.3619Y-10.2256
X-3.3622Y-10.2253
X-3.3624Y-10.2249
X-3.3626Y-10.2246
X-3.3629Y-10.2243
X-3.3631Y-10.224
X-3.3633Y-10.2237
X-3.3635Y-10.2234
X-3.3638Y-10.2231
X-3.364Y-10.2228
X-3.3642Y-10.2225
X-3.3645Y-10.2222
X-3.3647Y-10.2218
X-3.3649Y-10.2215
X-3.365Y-10.2212
X-3.3652Y-10.2209
X-3.3654Y-10.2205
X-3.3656Y-10.2202
X-3.3658Y-10.2199
X-3.366Y-10.2195
X-3.3662Y-10.2192
X-3.3664Y-10.2189
X-3.3666Y-10.2186
X-3.3668Y-10.2182
X-3.367Y-10.2179
X-3.3672Y-10.2176
X-3.3674Y-10.2172
X-3.3676Y-10.2169
X-3.3678Y-10.2166
X-3.3679Y-10.2162
X-3.3681Y-10.2159
X-3.3683Y-10.2155
X-3.3684Y-10.2152
X-3.3686Y-10.2148
X-3.3688Y-10.2145
X-3.3689Y-10.2141
X-3.3691Y-10.2138
X-3.3692Y-10.2134
X-3.3694Y-10.2131
X-3.3696Y-10.2128
X-3.3697Y-10.2124
X-3.3699Y-10.2121
X-3.3701Y-10.2117
X-3.3702Y-10.2114
X-3.3704Y-10.211
X-3.3705Y-10.2106
X-3.3706Y-10.2103
X-3.3707Y-10.2099
X-3.3709Y-10.2096
X-3.371Y-10.2092
X-3.3711Y-10.2088
X-3.3713Y-10.2085
X-3.3714Y-10.2081
X-3.3715Y-10.2078
X-3.3717Y-10.2074
X-3.3718Y-10.207
X-3.3719Y-10.2067
X-3.372Y-10.2063
X-3.3722Y-10.206
X-3.3723Y-10.2056
X-3.3724Y-10.2052
X-3.3725Y-10.2048
X-3.3726Y-10.2045
X-3.3727Y-10.2041
X-3.3728Y-10.2037
X-3.3729Y-10.2034
Y-10.203
X-3.373Y-10.2026
X-3.3731Y-10.2022
X-3.3732Y-10.2019
X-3.3733Y-10.2015
X-3.3734Y-10.2011
X-3.3735Y-10.2008
X-3.3736Y-10.2004
X-3.3737Y-10.2
X-3.3738Y-10.1996
Y-10.1993
X-3.3739Y-10.1989
X-3.374Y-10.1985
Y-10.1981
X-3.3741Y-10.1977
Y-10.1974
X-3.3742Y-10.197
Y-10.1966
X-3.3743Y-10.1962
X-3.3744Y-10.1959
Y-10.1955
X-3.3745Y-10.1951
Y-10.1947
X-3.3746Y-10.1943
Y-10.194
X-3.3747Y-10.1936
Y-10.1932
Y-10.1928
Y-10.1924
X-3.3748Y-10.192
Y-10.1917
Y-10.1913
Y-10.1909
Y-10.1905
X-3.3749Y-10.1901
Y-10.1897
Y-10.1894
Y-10.189
Y-10.1886
X-3.375Y-10.1882
Y-10.1878
Y-10.1875
Y-10.1796
Y-10.1717
Y-10.1638
Y-10.156
Y-10.1481
Y-10.1402
Y-10.1323
Y-10.1245
Y-10.1166
Y-10.1087
Y-10.1008
Y-10.093
Y-10.0851
Y-10.0772
Y-10.0693
Y-10.0615
Y-10.0536
Y-10.0457
Y-10.0378
Y-10.03
Y-10.0221
Y-10.0142
Y-10.0063
Y-9.9985
Y-9.9906
Y-9.9827
Y-9.9749
Y-9.967
Y-9.9591
Y-9.9512
Y-9.9434
Y-9.9355
Y-9.9276
Y-9.9197
Y-9.9119
Y-9.904
Y-9.8961
Y-9.8882
Y-9.8804
Y-9.8725
Y-9.8646
Y-9.8567
Y-9.8489
Y-9.841
Y-9.8331
Y-9.8252
Y-9.8174
Y-9.8095
Y-9.8016
Y-9.7937
Y-9.7859
Y-9.778
Y-9.7701
Y-9.7623
Y-9.7544
Y-9.7465
Y-9.7386
Y-9.7308
Y-9.7229
Y-9.715
Y-9.7071
Y-9.6993
Y-9.6914
Y-9.6835
Y-9.6756
Y-9.6678
Y-9.6599
Y-9.652
Y-9.6441
Y-9.6363
Y-9.6284
Y-9.6205
Y-9.6126
Y-9.6048
Y-9.5969
Y-9.589
Y-9.5812
Y-9.5733
Y-9.5654
Y-9.5575
Y-9.5497
Y-9.5418
Y-9.5339
Y-9.526
Y-9.5182
Y-9.5103
Y-9.5024
Y-9.4945
Y-9.4867
Y-9.4788
Y-9.4709
Y-9.463
Y-9.4552
Y-9.4473
Y-9.4394
Y-9.4315
Y-9.4237
Y-9.4158
Y-9.4079
Y-9.4
Y-9.3922
Y-9.3843
Y-9.3764
Y-9.3686
Y-9.3607
Y-9.3528
Y-9.3449
Y-9.3371
Y-9.3292
Y-9.3213
Y-9.3134
Y-9.3056
Y-9.2977
Y-9.2898
Y-9.2819
Y-9.2741
Y-9.2662
Y-9.2583
Y-9.2504
Y-9.2426
Y-9.2347
Y-9.2268
Y-9.2189
Y-9.2111
Y-9.2032
Y-9.1953
Y-9.1875
Y-9.1796
Y-9.1717
Y-9.1638
Y-9.156
Y-9.1481
Y-9.1402
Y-9.1323
Y-9.1245
Y-9.1166
Y-9.1087
Y-9.1008
Y-9.093
Y-9.0851
Y-9.0772
Y-9.0693
Y-9.0615
Y-9.0536
Y-9.0457
Y-9.0378
Y-9.03
Y-9.0221
Y-9.0142
Y-9.0063
Y-8.9985
Y-8.9906
Y-8.9827
Y-8.9749
Y-8.967
Y-8.9591
Y-8.9512
Y-8.9434
Y-8.9355
Y-8.9276
Y-8.9197
Y-8.914
Y-8.9061
Y-8.8983
Y-8.8904
Y-8.8825
Y-8.8746
Y-8.8668
Y-8.8589
Y-8.851
Y-8.8431
Y-8.8353
Y-8.8274
Y-8.8195
Y-8.8117
Y-8.8038
Y-8.7959
Y-8.788
Y-8.7802
Y-8.7723
Y-8.7644
Y-8.7565
Y-8.7487
Y-8.7408
Y-8.7329
Y-8.725
Y-8.7172
Y-8.7093
Y-8.7014
Y-8.6935
Y-8.6857
Y-8.6778
Y-8.6699
Y-8.662
Y-8.6542
Y-8.6463
Y-8.6384
Y-8.6305
Y-8.6227
Y-8.6148
Y-8.6069
Y-8.5991
Y-8.5912
Y-8.5833
Y-8.5754
Y-8.5676
Y-8.5597
Y-8.5518
Y-8.5439
Y-8.5361
Y-8.5282
Y-8.5203
Y-8.5124
Y-8.5046
Y-8.4967
Y-8.4888
Y-8.4809
Y-8.4731
Y-8.4652
Y-8.4573
Y-8.4494
Y-8.4416
Y-8.4337
Y-8.4258
Y-8.418
Y-8.4101
Y-8.4022
Y-8.3943
Y-8.3865
Y-8.3786
Y-8.3707
Y-8.3628
Y-8.355
Y-8.3471
Y-8.3392
Y-8.3313
Y-8.3235
Y-8.3156
Y-8.3077
Y-8.2998
Y-8.292
Y-8.2841
Y-8.2762
Y-8.2683
Y-8.2605
Y-8.2526
Y-8.2447
Y-8.2368
Y-8.229
Y-8.2211
Y-8.2132
Y-8.2054
Y-8.1975
Y-8.1896
Y-8.1817
Y-8.1739
Y-8.166
Y-8.1581
Y-8.1502
Y-8.1424
Y-8.1345
Y-8.1266
Y-8.1187
Y-8.1109
Y-8.103
Y-8.0951
Y-8.0872
Y-8.0794
Y-8.0715
Y-8.0636
Y-8.0557
Y-8.0479
Y-8.04
Y-8.0321
Y-8.0242
Y-8.0164
Y-8.0085
Y-8.0006
Y-7.9928
Y-7.9849
Y-7.977
Y-7.9691
Y-7.9613
Y-7.9534
Y-7.9455
Y-7.9376
Y-7.9298
Y-7.9219
Y-7.914
Y-7.9061
Y-7.8983
Y-7.8904
Y-7.8825
Y-7.8746
Y-7.8668
Y-7.8589
Y-7.851
Y-7.8431
Y-7.8353
Y-7.8274
Y-7.8195
Y-7.8117
Y-7.8038
Y-7.7959
Y-7.788
Y-7.7802
Y-7.7723
Y-7.7644
Y-7.7565
Y-7.7487
Y-7.7408
Y-7.7329
Y-7.725
Y-7.7172
Y-7.7093
Y-7.7014
Y-7.6935
Y-7.6857
Y-7.6778
Y-7.6699
Y-7.662
Y-7.6542
Y-7.6463
Y-7.6406
Y-7.6327
Y-7.6248
Y-7.617
Y-7.6091
Y-7.6012
Y-7.5933
Y-7.5855
Y-7.5776
Y-7.5697
Y-7.5618
Y-7.554
Y-7.5461
Y-7.5382
Y-7.5303
Y-7.5225
Y-7.5146
Y-7.5067
Y-7.4988
Y-7.491
Y-7.4831
Y-7.4752
Y-7.4673
Y-7.4595
Y-7.4516
Y-7.4437
Y-7.4359
Y-7.428
Y-7.4201
Y-7.4122
Y-7.4044
Y-7.3965
Y-7.3886
Y-7.3807
Y-7.3729
Y-7.365
Y-7.3571
Y-7.3492
Y-7.3414
Y-7.3335
Y-7.3256
Y-7.3177
Y-7.3099
Y-7.302
Y-7.2941
Y-7.2862
Y-7.2784
Y-7.2705
Y-7.2626
Y-7.2547
Y-7.2469
Y-7.239
Y-7.2311
Y-7.2233
Y-7.2154
Y-7.2075
Y-7.1996
Y-7.1918
Y-7.1839
Y-7.176
Y-7.1681
Y-7.1603
Y-7.1524
Y-7.1445
Y-7.1366
Y-7.1288
Y-7.1209
Y-7.113
Y-7.1051
Y-7.0973
Y-7.0894
Y-7.0815
Y-7.0736
Y-7.0658
Y-7.0579
Y-7.05
Y-7.0422
Y-7.0343
Y-7.0264
Y-7.0185
Y-7.0107
Y-7.0028
Y-6.9949
Y-6.987
Y-6.9792
Y-6.9713
Y-6.9634
Y-6.9555
Y-6.9477
Y-6.9398
Y-6.9319
Y-6.924
Y-6.9162
Y-6.9083
Y-6.9004
Y-6.8925
Y-6.8847
Y-6.8768
Y-6.8689
Y-6.861
Y-6.8532
Y-6.8453
Y-6.8374
Y-6.8296
Y-6.8217
Y-6.8138
Y-6.8059
Y-6.7981
Y-6.7902
Y-6.7823
Y-6.7744
Y-6.7666
Y-6.7587
Y-6.7508
Y-6.7429
Y-6.7351
Y-6.7272
Y-6.7193
Y-6.7114
Y-6.7036
Y-6.6957
Y-6.6878
Y-6.6799
Y-6.6721
Y-6.6642
Y-6.6563
Y-6.6485
Y-6.6406
Y-6.6327
Y-6.6248
Y-6.617
Y-6.6091
Y-6.6012
Y-6.5933
Y-6.5855
Y-6.5776
Y-6.5697
Y-6.5618
Y-6.554
Y-6.5461
Y-6.5382
Y-6.5303
Y-6.5225
Y-6.5146
Y-6.5067
Y-6.4988
Y-6.491
Y-6.4831
Y-6.4752
Y-6.4673
Y-6.4595
Y-6.4516
Y-6.4437
Y-6.4359
Y-6.428
Y-6.4201
Y-6.4122
Y-6.4044
Y-6.3965
Y-6.3886
Y-6.3807
Y-6.3729
Y-6.3671
Y-6.3593
Y-6.3514
Y-6.3435
Y-6.3356
Y-6.3278
Y-6.3199
Y-6.312
Y-6.3041
Y-6.2963
Y-6.2884
Y-6.2805
Y-6.2727
Y-6.2648
Y-6.2569
Y-6.249
Y-6.2412
Y-6.2333
Y-6.2254
Y-6.2175
Y-6.2097
Y-6.2018
Y-6.1939
Y-6.186
Y-6.1782
Y-6.1703
Y-6.1624
Y-6.1545
Y-6.1467
Y-6.1388
Y-6.1309
Y-6.123
Y-6.1152
Y-6.1073
Y-6.0994
Y-6.0915
Y-6.0837
Y-6.0758
Y-6.0679
Y-6.0601
Y-6.0522
Y-6.0443
Y-6.0364
Y-6.0286
Y-6.0207
Y-6.0128
Y-6.0049
Y-5.9971
Y-5.9892
Y-5.9813
Y-5.9734
Y-5.9656
Y-5.9577
Y-5.9498
Y-5.9419
Y-5.9341
Y-5.9262
Y-5.9183
Y-5.9104
Y-5.9026
Y-5.8947
Y-5.8868
Y-5.8789
Y-5.8711
Y-5.8632
Y-5.8553
Y-5.8475
Y-5.8396
Y-5.8317
Y-5.8238
Y-5.816
Y-5.8081
Y-5.8002
Y-5.7923
Y-5.7845
Y-5.7766
Y-5.7687
Y-5.7608
Y-5.753
Y-5.7451
Y-5.7372
Y-5.7293
Y-5.7215
Y-5.7136
Y-5.7057
Y-5.6978
Y-5.69
Y-5.6821
Y-5.6742
Y-5.6664
Y-5.6585
Y-5.6506
Y-5.6427
Y-5.6349
Y-5.627
Y-5.6191
Y-5.6112
Y-5.6034
Y-5.5955
Y-5.5876
Y-5.5797
Y-5.5719
Y-5.564
Y-5.5561
Y-5.5482
Y-5.5404
Y-5.5325
Y-5.5246
Y-5.5167
Y-5.5089
Y-5.501
Y-5.4931
Y-5.4852
Y-5.4774
Y-5.4695
Y-5.4616
Y-5.4538
Y-5.4459
Y-5.438
Y-5.4301
Y-5.4223
Y-5.4144
Y-5.4065
Y-5.3986
Y-5.3908
Y-5.3829
Y-5.375
Y-5.3671
Y-5.3593
Y-5.3514
Y-5.3435
Y-5.3356
Y-5.3278
Y-5.3199
Y-5.312
Y-5.3041
Y-5.2963
Y-5.2884
Y-5.2805
Y-5.2727
Y-5.2648
Y-5.2569
Y-5.249
Y-5.2412
Y-5.2333
Y-5.2254
Y-5.2175
Y-5.2097
Y-5.2018
Y-5.1939
Y-5.186
Y-5.1782
Y-5.1703
Y-5.1624
Y-5.1545
Y-5.1467
Y-5.1388
Y-5.1309
Y-5.123
Y-5.1152
Y-5.1073
Y-5.0994
Y-5.0937
Y-5.0858
Y-5.078
Y-5.0701
Y-5.0622
Y-5.0543
Y-5.0465
Y-5.0386
Y-5.0307
Y-5.0228
Y-5.015
Y-5.0071
Y-4.9992
Y-4.9913
Y-4.9835
Y-4.9756
Y-4.9677
Y-4.9598
Y-4.952
Y-4.9441
Y-4.9362
Y-4.9283
Y-4.9205
Y-4.9126
Y-4.9047
Y-4.8969
Y-4.889
Y-4.8811
Y-4.8732
Y-4.8654
Y-4.8575
Y-4.8496
Y-4.8417
Y-4.8339
Y-4.826
Y-4.8181
Y-4.8102
Y-4.8024
Y-4.7945
Y-4.7866
Y-4.7787
Y-4.7709
Y-4.763
Y-4.7551
Y-4.7472
Y-4.7394
Y-4.7315
Y-4.7236
Y-4.7157
Y-4.7079
Y-4.7
Y-4.6921
Y-4.6843
Y-4.6764
Y-4.6685
Y-4.6606
Y-4.6528
Y-4.6449
Y-4.637
Y-4.6291
Y-4.6213
Y-4.6134
Y-4.6055
Y-4.5976
Y-4.5898
Y-4.5819
Y-4.574
Y-4.5661
Y-4.5583
Y-4.5504
Y-4.5425
Y-4.5346
Y-4.5268
Y-4.5189
Y-4.511
Y-4.5031
Y-4.4953
Y-4.4874
Y-4.4795
Y-4.4717
Y-4.4638
Y-4.4559
Y-4.448
Y-4.4402
Y-4.4323
Y-4.4244
Y-4.4165
Y-4.4087
Y-4.4008
Y-4.3929
Y-4.385
Y-4.3772
Y-4.3693
Y-4.3614
Y-4.3535
Y-4.3457
Y-4.3378
Y-4.3299
Y-4.322
Y-4.3142
Y-4.3063
Y-4.2984
Y-4.2906
Y-4.2827
Y-4.2748
Y-4.2669
Y-4.2591
Y-4.2512
Y-4.2433
Y-4.2354
Y-4.2276
Y-4.2197
Y-4.2118
Y-4.2039
Y-4.1961
Y-4.1882
Y-4.1803
Y-4.1724
Y-4.1646
Y-4.1567
Y-4.1488
Y-4.1409
Y-4.1331
Y-4.1252
Y-4.1173
Y-4.1094
Y-4.1016
Y-4.0937
Y-4.0858
Y-4.078
Y-4.0701
Y-4.0622
Y-4.0543
Y-4.0465
Y-4.0386
Y-4.0307
Y-4.0228
Y-4.015
Y-4.0071
Y-3.9992
Y-3.9913
Y-3.9835
Y-3.9756
Y-3.9677
Y-3.9598
Y-3.952
Y-3.9441
Y-3.9362
Y-3.9283
Y-3.9205
Y-3.9126
Y-3.9047
Y-3.8969
Y-3.889
Y-3.8811
Y-3.8732
Y-3.8654
Y-3.8575
Y-3.8496
Y-3.8417
Y-3.8339
Y-3.826
Y-3.8203
Y-3.8124
Y-3.8045
Y-3.7966
Y-3.7888
Y-3.7809
Y-3.773
Y-3.7651
Y-3.7573
Y-3.7494
Y-3.7415
Y-3.7336
Y-3.7258
Y-3.7179
Y-3.71
Y-3.7022
Y-3.6943
Y-3.6864
Y-3.6785
Y-3.6707
Y-3.6628
Y-3.6549
Y-3.647
Y-3.6392
Y-3.6313
Y-3.6234
Y-3.6155
Y-3.6077
Y-3.5998
Y-3.5919
Y-3.584
Y-3.5762
Y-3.5683
Y-3.5604
Y-3.5525
Y-3.5447
Y-3.5368
Y-3.5289
Y-3.5211
Y-3.5132
Y-3.5053
Y-3.4974
Y-3.4896
Y-3.4817
Y-3.4738
Y-3.4659
Y-3.4581
Y-3.4502
Y-3.4423
Y-3.4344
Y-3.4266
Y-3.4187
Y-3.4108
Y-3.4029
Y-3.3951
Y-3.3872
Y-3.3793
Y-3.3714
Y-3.3636
Y-3.3557
Y-3.3478
Y-3.3399
Y-3.3321
Y-3.3242
Y-3.3163
Y-3.3085
Y-3.3006
Y-3.2927
Y-3.2848
Y-3.277
Y-3.2691
Y-3.2612
Y-3.2533
Y-3.2455
Y-3.2376
Y-3.2297
Y-3.2218
Y-3.214
Y-3.2061
Y-3.1982
Y-3.1903
Y-3.1825
Y-3.1746
Y-3.1667
Y-3.1588
Y-3.151
Y-3.1431
Y-3.1352
Y-3.1274
Y-3.1195
Y-3.1116
Y-3.1037
Y-3.0959
Y-3.088
Y-3.0801
Y-3.0722
Y-3.0644
Y-3.0565
Y-3.0486
Y-3.0407
Y-3.0329
Y-3.025
Y-3.0171
Y-3.0092
Y-3.0014
Y-2.9935
Y-2.9856
Y-2.9777
Y-2.9699
Y-2.962
Y-2.9541
Y-2.9462
Y-2.9384
Y-2.9305
Y-2.9226
Y-2.9148
Y-2.9069
Y-2.899
Y-2.8911
Y-2.8833
Y-2.8754
Y-2.8675
Y-2.8596
Y-2.8518
Y-2.8439
Y-2.836
Y-2.8281
Y-2.8203
Y-2.8124
Y-2.8045
Y-2.7966
Y-2.7888
Y-2.7809
Y-2.773
Y-2.7651
Y-2.7573
Y-2.7494
Y-2.7415
Y-2.7336
Y-2.7258
Y-2.7179
Y-2.71
Y-2.7022
Y-2.6943
Y-2.6864
Y-2.6785
Y-2.6707
Y-2.6628
Y-2.6549
Y-2.647
Y-2.6392
Y-2.6313
Y-2.6234
Y-2.6155
Y-2.6077
Y-2.5998
Y-2.5919
Y-2.584
Y-2.5762
Y-2.5683
Y-2.5604
Y-2.5525
Y-2.5468
Y-2.539
Y-2.5311
Y-2.5232
Y-2.5153
Y-2.5075
Y-2.4996
Y-2.4917
Y-2.4838
Y-2.476
Y-2.4681
Y-2.4602
Y-2.4523
Y-2.4445
Y-2.4366
Y-2.4287
Y-2.4208
Y-2.413
Y-2.4051
Y-2.3972
Y-2.3893
Y-2.3815
Y-2.3736
Y-2.3657
Y-2.3578
Y-2.35
Y-2.3421
Y-2.3342
Y-2.3264
Y-2.3185
Y-2.3106
Y-2.3027
Y-2.2949
Y-2.287
Y-2.2791
Y-2.2712
Y-2.2634
Y-2.2555
Y-2.2476
Y-2.2397
Y-2.2319
Y-2.224
Y-2.2161
Y-2.2082
Y-2.2004
Y-2.1925
Y-2.1846
Y-2.1767
Y-2.1689
Y-2.161
Y-2.1531
Y-2.1453
Y-2.1374
Y-2.1295
Y-2.1216
Y-2.1138
Y-2.1059
Y-2.098
Y-2.0901
Y-2.0823
Y-2.0744
Y-2.0665
Y-2.0586
Y-2.0508
Y-2.0429
Y-2.035
Y-2.0271
Y-2.0193
Y-2.0114
Y-2.0035
Y-1.9956
Y-1.9878
Y-1.9799
Y-1.972
Y-1.9641
Y-1.9563
Y-1.9484
Y-1.9405
Y-1.9327
Y-1.9248
Y-1.9169
Y-1.909
Y-1.9012
Y-1.8933
Y-1.8854
Y-1.8775
Y-1.8697
Y-1.8618
Y-1.8539
Y-1.846
Y-1.8382
Y-1.8303
Y-1.8224
Y-1.8145
Y-1.8067
Y-1.7988
Y-1.7909
Y-1.783
Y-1.7752
Y-1.7673
Y-1.7594
Y-1.7516
Y-1.7437
Y-1.7358
Y-1.7279
Y-1.7201
Y-1.7122
Y-1.7043
Y-1.6964
Y-1.6886
Y-1.6807
Y-1.6728
Y-1.6649
Y-1.6571
Y-1.6492
Y-1.6413
Y-1.6334
Y-1.6256
Y-1.6177
Y-1.6098
Y-1.6019
Y-1.5941
Y-1.5862
Y-1.5783
Y-1.5704
Y-1.5626
Y-1.5547
Y-1.5468
Y-1.539
Y-1.5311
Y-1.5232
Y-1.5153
Y-1.5075
Y-1.4996
Y-1.4917
Y-1.4838
Y-1.476
Y-1.4681
Y-1.4602
Y-1.4523
Y-1.4445
Y-1.4366
Y-1.4287
Y-1.4208
Y-1.413
Y-1.4051
Y-1.3972
Y-1.3893
Y-1.3815
Y-1.3736
Y-1.3657
Y-1.3578
Y-1.35
Y-1.3421
Y-1.3342
Y-1.3264
Y-1.3185
Y-1.3106
Y-1.3027
Y-1.2949
Y-1.287
Y-1.2791
Y-1.2734
Y-1.2655
Y-1.2576
Y-1.2498
Y-1.2419
Y-1.234
Y-1.2261
Y-1.2183
Y-1.2104
Y-1.2025
Y-1.1946
Y-1.1868
Y-1.1789
Y-1.171
Y-1.1632
Y-1.1553
Y-1.1474
Y-1.1395
Y-1.1317
Y-1.1238
Y-1.1159
Y-1.108
Y-1.1002
Y-1.0923
Y-1.0844
Y-1.0765
Y-1.0687
Y-1.0608
Y-1.0529
Y-1.045
Y-1.0372
Y-1.0293
Y-1.0214
Y-1.0135
Y-1.0057
Y-0.9978
Y-0.9899
Y-0.982
Y-0.9742
Y-0.9663
Y-0.9584
Y-0.9506
Y-0.9427
Y-0.9348
Y-0.9269
Y-0.9191
Y-0.9112
Y-0.9033
Y-0.8954
Y-0.8876
Y-0.8797
Y-0.8718
Y-0.8639
Y-0.8561
Y-0.8482
Y-0.8403
Y-0.8324
Y-0.8246
Y-0.8167
Y-0.8088
Y-0.8009
Y-0.7931
Y-0.7852
Y-0.7773
Y-0.7695
Y-0.7616
Y-0.7537
Y-0.7458
Y-0.738
Y-0.7301
Y-0.7222
Y-0.7143
Y-0.7065
Y-0.6986
Y-0.6907
Y-0.6828
Y-0.675
Y-0.6671
Y-0.6592
Y-0.6513
Y-0.6435
Y-0.6356
Y-0.6277
Y-0.6198
Y-0.612
Y-0.6041
Y-0.5962
Y-0.5883
Y-0.5805
Y-0.5726
Y-0.5647
Y-0.5569
Y-0.549
Y-0.5411
Y-0.5332
Y-0.5254
Y-0.5175
Y-0.5096
Y-0.5017
Y-0.4939
Y-0.486
Y-0.4781
Y-0.4702
Y-0.4624
Y-0.4545
Y-0.4466
Y-0.4387
Y-0.4309
Y-0.423
Y-0.4151
Y-0.4072
Y-0.3994
Y-0.3915
Y-0.3836
Y-0.3758
Y-0.3679
Y-0.36
Y-0.3521
Y-0.3443
Y-0.3364
Y-0.3285
Y-0.3206
Y-0.3128
Y-0.3049
Y-0.297
Y-0.2891
Y-0.2813
Y-0.2734
Y-0.2655
Y-0.2576
Y-0.2498
Y-0.2419
Y-0.234
Y-0.2261
Y-0.2183
Y-0.2104
Y-0.2025
Y-0.1946
Y-0.1868
Y-0.1789
Y-0.171
Y-0.1632
Y-0.1553
Y-0.1474
Y-0.1395
Y-0.1317
Y-0.1238
Y-0.1159
Y-0.108
Y-0.1002
Y-0.0923
Y-0.0844
Y-0.0765
Y-0.0687
Y-0.0608
Y-0.0529
Y-0.045
Y-0.0372
Y-0.0293
Y-0.0214
Y-0.0135
Y-0.0057
Y0
Y0.0078
Y0.0157
Y0.0236
Y0.0314
Y0.0393
Y0.0472
Y0.0551
Y0.0629
Y0.0708
Y0.0787
Y0.0866
Y0.0944
Y0.1023
Y0.1102
Y0.1181
Y0.1259
Y0.1338
Y0.1417
Y0.1496
Y0.1574
Y0.1653
Y0.1732
Y0.1811
Y0.1889
Y0.1968
Y0.2047
Y0.2125
Y0.2204
Y0.2283
Y0.2362
Y0.244
Y0.2519
Y0.2598
Y0.2677
Y0.2755
Y0.2834
Y0.2913
Y0.2992
Y0.307
Y0.3149
Y0.3228
Y0.3307
Y0.3385
Y0.3464
Y0.3543
Y0.3622
Y0.37
Y0.3779
Y0.3858
Y0.3937
Y0.4015
Y0.4094
Y0.4173
Y0.4251
Y0.433
Y0.4409
Y0.4488
Y0.4566
Y0.4645
Y0.4724
Y0.4803
Y0.4881
Y0.496
Y0.5039
Y0.5118
Y0.5196
Y0.5275
Y0.5354
Y0.5433
Y0.5511
Y0.559
Y0.5669
Y0.5748
Y0.5826
Y0.5905
Y0.5984
Y0.6062
Y0.6141
Y0.622
Y0.6299
Y0.6377
Y0.6456
Y0.6535
Y0.6614
Y0.6692
Y0.6771
Y0.685
Y0.6929
Y0.7007
Y0.7086
Y0.7165
Y0.7244
Y0.7322
Y0.7401
Y0.748
Y0.7559
Y0.7637
Y0.7716
Y0.7795
Y0.7874
Y0.7952
Y0.8031
Y0.811
Y0.8188
Y0.8267
Y0.8346
Y0.8425
Y0.8503
Y0.8582
Y0.8661
Y0.874
Y0.8818
Y0.8897
Y0.8976
Y0.9055
Y0.9133
Y0.9212
Y0.9291
Y0.937
Y0.9448
Y0.9527
Y0.9606
Y0.9685
Y0.9763
Y0.9842
Y0.9921
Y1
Y1.0078
Y1.0157
Y1.0236
Y1.0314
Y1.0393
Y1.0472
Y1.0551
Y1.0629
Y1.0708
Y1.0787
Y1.0866
Y1.0944
Y1.1023
Y1.1102
Y1.1181
Y1.1259
Y1.1338
Y1.1417
Y1.1496
Y1.1574
Y1.1653
Y1.1732
Y1.1811
Y1.1889
Y1.1968
Y1.2047
Y1.2125
Y1.2204
Y1.2283
Y1.2362
Y1.244
Y1.2519
Y1.2598
Y1.2677
Y1.2734
G0Z0.3937
 
