(Created with grbl post processor 2026/05/26 18:17)
G20
(G-code Generated with Fabex and NC library)
(Rapids: 196.85/min)
G17G90
(Tool: D = 0.125''  type END flutes 2)
S15000M03
G00 Z0.39 F196.85

G0X0Y0Z0.3937
X1.2734Y-3.375
G1Z-0.125F19.68
X1.2655F39.37
X1.2576
X1.2498
X1.2419
X1.234
X1.2261
X1.2183
X1.2104
X1.2025
X1.1946
X1.1868
X1.1789
X1.171
X1.1632
X1.1553
X1.1474
X1.1395
X1.1317
X1.1238
X1.1159
X1.108
X1.1002
X1.0923
X1.0844
X1.0765
X1.0687
X1.0608
X1.0529
X1.045
X1.0372
X1.0293
X1.0214
X1.0135
X1.0057
X0.9978
X0.9899
X0.982
X0.9742
X0.9663
X0.9584
X0.9506
X0.9427
X0.9348
X0.9269
X0.9191
X0.9112
X0.9033
X0.8954
X0.8876
X0.8797
X0.8718
X0.8639
X0.8561
X0.8482
X0.8403
X0.8324
X0.8246
X0.8167
X0.8088
X0.8009
X0.7931
X0.7852
X0.7773
X0.7695
X0.7616
X0.7537
X0.7458
X0.738
X0.7301
X0.7222
X0.7143
X0.7065
X0.6986
X0.6907
X0.6828
X0.675
X0.6671
X0.6592
X0.6513
X0.6435
X0.6356
X0.6277
X0.6198
X0.612
X0.6041
X0.5962
X0.5883
X0.5805
X0.5726
X0.5647
X0.5569
X0.549
X0.5411
X0.5332
X0.5254
X0.5175
X0.5096
X0.5017
X0.4939
X0.486
X0.4781
X0.4702
X0.4624
X0.4545
X0.4466
X0.4387
X0.4309
X0.423
X0.4151
X0.4072
X0.3994
X0.3915
X0.3836
X0.3758
X0.3679
X0.36
X0.3521
X0.3443
X0.3364
X0.3285
X0.3206
X0.3128
X0.3049
X0.297
X0.2891
X0.2813
X0.2734
X0.2655
X0.2576
X0.2498
X0.2419
X0.234
X0.2261
X0.2183
X0.2104
X0.2025
X0.1946
X0.1868
X0.1789
X0.171
X0.1632
X0.1553
X0.1474
X0.1395
X0.1317
X0.1238
X0.1159
X0.108
X0.1002
X0.0923
X0.0844
X0.0765
X0.0687
X0.0608
X0.0529
X0.045
X0.0372
X0.0293
X0.0214
X0.0135
X0.0057
X0
X-0.0078
X-0.0157
X-0.0236
X-0.0314
X-0.0393
X-0.0472
X-0.0551
X-0.0629
X-0.0708
X-0.0787
X-0.0866
X-0.0944
X-0.1023
X-0.1102
X-0.1181
X-0.1259
X-0.1338
X-0.1417
X-0.1496
X-0.1574
X-0.1653
X-0.1732
X-0.1811
X-0.1889
X-0.1968
X-0.2047
X-0.2125
X-0.2204
X-0.2283
X-0.2362
X-0.244
X-0.2519
X-0.2598
X-0.2677
X-0.2755
X-0.2834
X-0.2913
X-0.2992
X-0.307
X-0.3149
X-0.3228
X-0.3307
X-0.3385
X-0.3464
X-0.3543
X-0.3622
X-0.37
X-0.3779
X-0.3858
X-0.3937
X-0.4015
X-0.4094
X-0.4173
X-0.4251
X-0.433
X-0.4409
X-0.4488
X-0.4566
X-0.4645
X-0.4724
X-0.4803
X-0.4881
X-0.496
X-0.5039
X-0.5118
X-0.5196
X-0.5275
X-0.5354
X-0.5433
X-0.5511
X-0.559
X-0.5669
X-0.5748
X-0.5826
X-0.5905
X-0.5984
X-0.6062
X-0.6141
X-0.622
X-0.6299
X-0.6377
X-0.6456
X-0.6535
X-0.6614
X-0.6692
X-0.6771
X-0.685
X-0.6929
X-0.7007
X-0.7086
X-0.7165
X-0.7244
X-0.7322
X-0.7401
X-0.748
X-0.7559
X-0.7637
X-0.7716
X-0.7795
X-0.7874
X-0.7952
X-0.8031
X-0.811
X-0.8188
X-0.8267
X-0.8346
X-0.8425
X-0.8503
X-0.8582
X-0.8661
X-0.874
X-0.8818
X-0.8897
X-0.8976
X-0.9055
X-0.9133
X-0.9212
X-0.9291
X-0.937
X-0.9448
X-0.9527
X-0.9606
X-0.9685
X-0.9763
X-0.9842
X-0.9921
X-1
X-1.0078
X-1.0157
X-1.0236
X-1.0314
X-1.0393
X-1.0472
X-1.0551
X-1.0629
X-1.0708
X-1.0787
X-1.0866
X-1.0944
X-1.1023
X-1.1102
X-1.1181
X-1.1259
X-1.1338
X-1.1417
X-1.1496
X-1.1574
X-1.1653
X-1.1732
X-1.1811
X-1.1889
X-1.1968
X-1.2047
X-1.2125
X-1.2204
X-1.2283
X-1.2362
X-1.244
X-1.2519
X-1.2598
X-1.2677
X-1.2734
X-1.2813
X-1.2891
X-1.297
X-1.3049
X-1.3128
X-1.3206
X-1.3285
X-1.3364
X-1.3443
X-1.3521
X-1.36
X-1.3679
X-1.3758
X-1.3836
X-1.3915
X-1.3994
X-1.4072
X-1.4151
X-1.423
X-1.4309
X-1.4387
X-1.4466
X-1.4545
X-1.4624
X-1.4702
X-1.4781
X-1.486
X-1.4939
X-1.5017
X-1.5096
X-1.5175
X-1.5254
X-1.5332
X-1.5411
X-1.549
X-1.5569
X-1.5647
X-1.5726
X-1.5805
X-1.5883
X-1.5962
X-1.6041
X-1.612
X-1.6198
X-1.6277
X-1.6356
X-1.6435
X-1.6513
X-1.6592
X-1.6671
X-1.675
X-1.6828
X-1.6907
X-1.6986
X-1.7065
X-1.7143
X-1.7222
X-1.7301
X-1.738
X-1.7458
X-1.7537
X-1.7616
X-1.7695
X-1.7773
X-1.7852
X-1.7931
X-1.8009
X-1.8088
X-1.8167
X-1.8246
X-1.8324
X-1.8403
X-1.8482
X-1.8561
X-1.8639
X-1.8718
X-1.8797
X-1.8876
X-1.8954
X-1.9033
X-1.9112
X-1.9191
X-1.9269
X-1.9348
X-1.9427
X-1.9506
X-1.9584
X-1.9663
X-1.9742
X-1.982
X-1.9899
X-1.9978
X-2.0057
X-2.0135
X-2.0214
X-2.0293
X-2.0372
X-2.045
X-2.0529
X-2.0608
X-2.0687
X-2.0765
X-2.0844
X-2.0923
X-2.1002
X-2.108
X-2.1159
X-2.1238
X-2.1317
X-2.1395
X-2.1474
X-2.1553
X-2.1632
X-2.171
X-2.1789
X-2.1868
X-2.1946
X-2.2025
X-2.2104
X-2.2183
X-2.2261
X-2.234
X-2.2419
X-2.2498
X-2.2576
X-2.2655
X-2.2734
X-2.2813
X-2.2891
X-2.297
X-2.3049
X-2.3128
X-2.3206
X-2.3285
X-2.3364
X-2.3443
X-2.3521
X-2.36
X-2.3679
X-2.3758
X-2.3836
X-2.3915
X-2.3994
X-2.4072
X-2.4151
X-2.423
X-2.4309
X-2.4387
X-2.4466
X-2.4545
X-2.4624
X-2.4702
X-2.4781
X-2.486
X-2.4939
X-2.5017
X-2.5096
X-2.5175
X-2.5254
X-2.5332
X-2.5411
X-2.5468
X-2.5547
X-2.5626
X-2.5704
X-2.5783
X-2.5862
X-2.5941
X-2.6019
X-2.6098
X-2.6177
X-2.6256
X-2.6334
X-2.6413
X-2.6492
X-2.6571
X-2.6649
X-2.6728
X-2.6807
X-2.6886
X-2.6964
X-2.7043
X-2.7122
X-2.7201
X-2.7279
X-2.7358
X-2.7437
X-2.7515
X-2.7594
X-2.7673
X-2.7752
X-2.783
X-2.7909
X-2.7988
X-2.8067
X-2.8145
X-2.8224
X-2.8303
X-2.8382
X-2.846
X-2.8539
X-2.8618
X-2.8697
X-2.8775
X-2.8854
X-2.8933
X-2.9012
X-2.909
X-2.9169
X-2.9248
X-2.9327
X-2.9405
X-2.9484
X-2.9563
X-2.9641
X-2.972
X-2.9799
X-2.9878
X-2.9956
X-3.0035
X-3.0114
X-3.0193
X-3.0271
X-3.035
X-3.0429
X-3.0508
X-3.0586
X-3.0665
X-3.0744
X-3.0823
X-3.0901
X-3.098
X-3.1059
X-3.1138
X-3.1216
X-3.1295
X-3.1374
X-3.1453
X-3.1531
X-3.161
X-3.1689
X-3.1767
X-3.1846
X-3.1925
X-3.2004
X-3.2082
X-3.2161
X-3.224
X-3.2319
X-3.2397
X-3.2476
X-3.2555
X-3.2634
X-3.2712
X-3.2791
X-3.287
X-3.2949
X-3.3027
X-3.3106
X-3.3185
X-3.3264
X-3.3342
X-3.3421
X-3.35
X-3.3578
X-3.3657
X-3.3736
X-3.3815
X-3.3893
X-3.3972
X-3.4051
X-3.413
X-3.4208
X-3.4287
X-3.4366
X-3.4445
X-3.4523
X-3.4602
X-3.4681
X-3.476
X-3.4838
X-3.4917
X-3.4996
X-3.5075
X-3.5153
X-3.5232
X-3.5311
X-3.539
X-3.5468
X-3.5547
X-3.5626
X-3.5704
X-3.5783
X-3.5862
X-3.5941
X-3.6019
X-3.6098
X-3.6177
X-3.6256
X-3.6334
X-3.6413
X-3.6492
X-3.6571
X-3.6649
X-3.6728
X-3.6807
X-3.6886
X-3.6964
X-3.7043
X-3.7122
X-3.7201
X-3.7279
X-3.7358
X-3.7437
X-3.7515
X-3.7594
X-3.7673
X-3.7752
X-3.783
X-3.7909
X-3.7988
X-3.8067
X-3.8145
X-3.8203
X-3.8281
X-3.836
X-3.8439
X-3.8518
X-3.8596
X-3.8675
X-3.8754
X-3.8833
X-3.8911
X-3.899
X-3.9069
X-3.9148
X-3.9226
X-3.9305
X-3.9384
X-3.9462
X-3.9541
X-3.962
X-3.9699
X-3.9777
X-3.9856
X-3.9935
X-4.0014
X-4.0092
X-4.0171
X-4.025
X-4.0329
X-4.0407
X-4.0486
X-4.0565
X-4.0644
X-4.0722
X-4.0801
X-4.088
X-4.0959
X-4.1037
X-4.1116
X-4.1195
X-4.1273
X-4.1352
X-4.1431
X-4.151
X-4.1588
X-4.1667
X-4.1746
X-4.1825
X-4.1903
X-4.1982
X-4.2061
X-4.214
X-4.2218
X-4.2297
X-4.2376
X-4.2455
X-4.2533
X-4.2612
X-4.2691
X-4.277
X-4.2848
X-4.2927
X-4.3006
X-4.3085
X-4.3163
X-4.3242
X-4.3321
X-4.3399
X-4.3478
X-4.3557
X-4.3636
X-4.3714
X-4.3793
X-4.3872
X-4.3951
X-4.4029
X-4.4108
X-4.4187
X-4.4266
X-4.4344
X-4.4423
X-4.4502
X-4.4581
X-4.4659
X-4.4738
X-4.4817
X-4.4896
X-4.4974
X-4.5053
X-4.5132
X-4.5211
X-4.5289
X-4.5368
X-4.5447
X-4.5525
X-4.5604
X-4.5683
X-4.5762
X-4.584
X-4.5919
X-4.5998
X-4.6077
X-4.6155
X-4.6234
X-4.6313
X-4.6392
X-4.647
X-4.6549
X-4.6628
X-4.6707
X-4.6785
X-4.6864
X-4.6943
X-4.7022
X-4.71
X-4.7179
X-4.7258
X-4.7336
X-4.7415
X-4.7494
X-4.7573
X-4.7651
X-4.773
X-4.7809
X-4.7888
X-4.7966
X-4.8045
X-4.8124
X-4.8203
X-4.8281
X-4.836
X-4.8439
X-4.8518
X-4.8596
X-4.8675
X-4.8754
X-4.8833
X-4.8911
X-4.899
X-4.9069
X-4.9148
X-4.9226
X-4.9305
X-4.9384
X-4.9462
X-4.9541
X-4.962
X-4.9699
X-4.9777
X-4.9856
X-4.9935
X-5.0014
X-5.0092
X-5.0171
X-5.025
X-5.0329
X-5.0407
X-5.0486
X-5.0565
X-5.0644
X-5.0722
X-5.0801
X-5.088
X-5.0937
X-5.1016
X-5.1094
X-5.1173
X-5.1252
X-5.1331
X-5.1409
X-5.1488
X-5.1567
X-5.1646
X-5.1724
X-5.1803
X-5.1882
X-5.1961
X-5.2039
X-5.2118
X-5.2197
X-5.2276
X-5.2354
X-5.2433
X-5.2512
X-5.2591
X-5.2669
X-5.2748
X-5.2827
X-5.2906
X-5.2984
X-5.3063
X-5.3142
X-5.322
X-5.3299
X-5.3378
X-5.3457
X-5.3535
X-5.3614
X-5.3693
X-5.3772
X-5.385
X-5.3929
X-5.4008
X-5.4087
X-5.4165
X-5.4244
X-5.4323
X-5.4402
X-5.448
X-5.4559
X-5.4638
X-5.4717
X-5.4795
X-5.4874
X-5.4953
X-5.5031
X-5.511
X-5.5189
X-5.5268
X-5.5346
X-5.5425
X-5.5504
X-5.5583
X-5.5661
X-5.574
X-5.5819
X-5.5898
X-5.5976
X-5.6055
X-5.6134
X-5.6213
X-5.6291
X-5.637
X-5.6449
X-5.6528
X-5.6606
X-5.6685
X-5.6764
X-5.6843
X-5.6921
X-5.7
X-5.7079
X-5.7157
X-5.7236
X-5.7315
X-5.7394
X-5.7472
X-5.7551
X-5.763
X-5.7709
X-5.7787
X-5.7866
X-5.7945
X-5.8024
X-5.8102
X-5.8181
X-5.826
X-5.8339
X-5.8417
X-5.8496
X-5.8575
X-5.8654
X-5.8732
X-5.8811
X-5.889
X-5.8969
X-5.9047
X-5.9126
X-5.9205
X-5.9283
X-5.9362
X-5.9441
X-5.952
X-5.9598
X-5.9677
X-5.9756
X-5.9835
X-5.9913
X-5.9992
X-6.0071
X-6.015
X-6.0228
X-6.0307
X-6.0386
X-6.0465
X-6.0543
X-6.0622
X-6.0701
X-6.078
X-6.0858
X-6.0937
X-6.1016
X-6.1094
X-6.1173
X-6.1252
X-6.1331
X-6.1409
X-6.1488
X-6.1567
X-6.1646
X-6.1724
X-6.1803
X-6.1882
X-6.1961
X-6.2039
X-6.2118
X-6.2197
X-6.2276
X-6.2354
X-6.2433
X-6.2512
X-6.2591
X-6.2669
X-6.2748
X-6.2827
X-6.2906
X-6.2984
X-6.3063
X-6.3142
X-6.322
X-6.3299
X-6.3378
X-6.3457
X-6.3535
X-6.3614
X-6.3671
X-6.375
X-6.3829
X-6.3908
X-6.3986
X-6.4065
X-6.4144
X-6.4223
X-6.4301
X-6.438
X-6.4459
X-6.4538
X-6.4616
X-6.4695
X-6.4774
X-6.4852
X-6.4931
X-6.501
X-6.5089
X-6.5167
X-6.5246
X-6.5325
X-6.5404
X-6.5482
X-6.5561
X-6.564
X-6.5719
X-6.5797
X-6.5876
X-6.5955
X-6.6034
X-6.6112
X-6.6191
X-6.627
X-6.6349
X-6.6427
X-6.6506
X-6.6585
X-6.6664
X-6.6742
X-6.6821
X-6.69
X-6.6978
X-6.7057
X-6.7136
X-6.7215
X-6.7293
X-6.7372
X-6.7451
X-6.753
X-6.7608
X-6.7687
X-6.7766
X-6.7845
X-6.7923
X-6.8002
X-6.8081
X-6.816
X-6.8238
X-6.8317
X-6.8396
X-6.8475
X-6.8553
X-6.8632
X-6.8711
X-6.8789
X-6.8868
X-6.8947
X-6.9026
X-6.9104
X-6.9183
X-6.9262
X-6.9341
X-6.9419
X-6.9498
X-6.9577
X-6.9656
X-6.9734
X-6.9813
X-6.9892
X-6.9971
X-7.0049
X-7.0128
X-7.0207
X-7.0286
X-7.0364
X-7.0443
X-7.0522
X-7.0601
X-7.0679
X-7.0758
X-7.0837
X-7.0915
X-7.0994
X-7.1073
X-7.1152
X-7.123
X-7.1309
X-7.1388
X-7.1467
X-7.1545
X-7.1624
X-7.1703
X-7.1782
X-7.186
X-7.1939
X-7.2018
X-7.2097
X-7.2175
X-7.2254
X-7.2333
X-7.2412
X-7.249
X-7.2569
X-7.2648
X-7.2726
X-7.2805
X-7.2884
X-7.2963
X-7.3041
X-7.312
X-7.3199
X-7.3278
X-7.3356
X-7.3435
X-7.3514
X-7.3593
X-7.3671
X-7.375
X-7.3829
X-7.3908
X-7.3986
X-7.4065
X-7.4144
X-7.4223
X-7.4301
X-7.438
X-7.4459
X-7.4538
X-7.4616
X-7.4695
X-7.4774
X-7.4852
X-7.4931
X-7.501
X-7.5089
X-7.5167
X-7.5246
X-7.5325
X-7.5404
X-7.5482
X-7.5561
X-7.564
X-7.5719
X-7.5797
X-7.5876
X-7.5955
X-7.6034
X-7.6112
X-7.6191
X-7.627
X-7.6349
X-7.6406
X-7.6485
X-7.6563
X-7.6642
X-7.6721
X-7.6799
X-7.6878
X-7.6957
X-7.7036
X-7.7114
X-7.7193
X-7.7272
X-7.7351
X-7.7429
X-7.7508
X-7.7587
X-7.7666
X-7.7744
X-7.7823
X-7.7902
X-7.7981
X-7.8059
X-7.8138
X-7.8217
X-7.8296
X-7.8374
X-7.8453
X-7.8532
X-7.861
X-7.8689
X-7.8768
X-7.8847
X-7.8925
X-7.9004
X-7.9083
X-7.9162
X-7.924
X-7.9319
X-7.9398
X-7.9477
X-7.9555
X-7.9634
X-7.9713
X-7.9792
X-7.987
X-7.9949
X-8.0028
X-8.0107
X-8.0185
X-8.0264
X-8.0343
X-8.0422
X-8.05
X-8.0579
X-8.0658
X-8.0736
X-8.0815
X-8.0894
X-8.0973
X-8.1051
X-8.113
X-8.1209
X-8.1288
X-8.1366
X-8.1445
X-8.1524
X-8.1603
X-8.1681
X-8.176
X-8.1839
X-8.1918
X-8.1996
X-8.2075
X-8.2154
X-8.2233
X-8.2311
X-8.239
X-8.2469
X-8.2547
X-8.2626
X-8.2705
X-8.2784
X-8.2862
X-8.2941
X-8.302
X-8.3099
X-8.3177
X-8.3256
X-8.3335
X-8.3414
X-8.3492
X-8.3571
X-8.365
X-8.3729
X-8.3807
X-8.3886
X-8.3965
X-8.4044
X-8.4122
X-8.4201
X-8.428
X-8.4359
X-8.4437
X-8.4516
X-8.4595
X-8.4673
X-8.4752
X-8.4831
X-8.491
X-8.4988
X-8.5067
X-8.5146
X-8.5225
X-8.5303
X-8.5382
X-8.5461
X-8.554
X-8.5618
X-8.5697
X-8.5776
X-8.5855
X-8.5933
X-8.6012
X-8.6091
X-8.617
X-8.6248
X-8.6327
X-8.6406
X-8.6485
X-8.6563
X-8.6642
X-8.6721
X-8.6799
X-8.6878
X-8.6957
X-8.7036
X-8.7114
X-8.7193
X-8.7272
X-8.7351
X-8.7429
X-8.7508
X-8.7587
X-8.7666
X-8.7744
X-8.7823
X-8.7902
X-8.7981
X-8.8059
X-8.8138
X-8.8217
X-8.8296
X-8.8374
X-8.8453
X-8.8532
X-8.861
X-8.8689
X-8.8768
X-8.8847
X-8.8925
X-8.9004
X-8.9083
X-8.914
X-8.9219
X-8.9298
X-8.9376
X-8.9455
X-8.9534
X-8.9613
X-8.9691
X-8.977
X-8.9849
X-8.9928
X-9.0006
X-9.0085
X-9.0164
X-9.0242
X-9.0321
X-9.04
X-9.0479
X-9.0557
X-9.0636
X-9.0715
X-9.0794
X-9.0872
X-9.0951
X-9.103
X-9.1109
X-9.1187
X-9.1266
X-9.1345
X-9.1424
X-9.1502
X-9.1581
X-9.166
X-9.1739
X-9.1817
X-9.1896
X-9.1975
X-9.2054
X-9.2132
X-9.2211
X-9.229
X-9.2368
X-9.2447
X-9.2526
X-9.2605
X-9.2683
X-9.2762
X-9.2841
X-9.292
X-9.2998
X-9.3077
X-9.3156
X-9.3235
X-9.3313
X-9.3392
X-9.3471
X-9.355
X-9.3628
X-9.3707
X-9.3786
X-9.3865
X-9.3943
X-9.4022
X-9.4101
X-9.418
X-9.4258
X-9.4337
X-9.4416
X-9.4494
X-9.4573
X-9.4652
X-9.4731
X-9.4809
X-9.4888
X-9.4967
X-9.5046
X-9.5124
X-9.5203
X-9.5282
X-9.5361
X-9.5439
X-9.5518
X-9.5597
X-9.5676
X-9.5754
X-9.5833
X-9.5912
X-9.5991
X-9.6069
X-9.6148
X-9.6227
X-9.6305
X-9.6384
X-9.6463
X-9.6542
X-9.662
X-9.6699
X-9.6778
X-9.6857
X-9.6935
X-9.7014
X-9.7093
X-9.7172
X-9.725
X-9.7329
X-9.7408
X-9.7487
X-9.7565
X-9.7644
X-9.7723
X-9.7802
X-9.788
X-9.7959
X-9.8038
X-9.8117
X-9.8195
X-9.8274
X-9.8353
X-9.8431
X-9.851
X-9.8589
X-9.8668
X-9.8746
X-9.8825
X-9.8904
X-9.8983
X-9.9061
X-9.914
X-9.9219
X-9.9298
X-9.9376
X-9.9455
X-9.9534
X-9.9613
X-9.9691
X-9.977
X-9.9849
X-9.9928
X-10.0006
X-10.0085
X-10.0164
X-10.0242
X-10.0321
X-10.04
X-10.0479
X-10.0557
X-10.0636
X-10.0715
X-10.0794
X-10.0872
X-10.0951
X-10.103
X-10.1109
X-10.1187
X-10.1266
X-10.1345
X-10.1424
X-10.1502
X-10.1581
X-10.166
X-10.1739
X-10.1817
X-10.1875
X-10.1878
X-10.1882
X-10.1886Y-3.3749
X-10.189
X-10.1894
X-10.1898
X-10.1902
X-10.1906Y-3.3748
X-10.191
X-10.1914
X-10.1918
X-10.1922
X-10.1926Y-3.3747
X-10.193
X-10.1934
X-10.1938
X-10.1941Y-3.3746
X-10.1945
X-10.1949Y-3.3745
X-10.1953Y-3.3744
X-10.1957
X-10.1961Y-3.3743
X-10.1965
X-10.1969Y-3.3742
X-10.1973Y-3.3741
X-10.1976
X-10.198Y-3.374
X-10.1984
X-10.1988Y-3.3739
X-10.1992Y-3.3738
X-10.1996
X-10.2Y-3.3737
X-10.2004Y-3.3736
X-10.2008Y-3.3735
X-10.2011Y-3.3734
X-10.2015Y-3.3733
X-10.2019Y-3.3732
X-10.2023Y-3.3731
X-10.2027Y-3.373
X-10.203Y-3.3729
X-10.2034Y-3.3728
X-10.2038Y-3.3727
X-10.2042Y-3.3726
X-10.2046Y-3.3725
X-10.2049Y-3.3724
X-10.2053Y-3.3723
X-10.2057Y-3.3722
X-10.2061Y-3.3721
X-10.2065Y-3.372
X-10.2068Y-3.3719
X-10.2072Y-3.3717
X-10.2076Y-3.3716
X-10.2079Y-3.3715
X-10.2083Y-3.3713
X-10.2087Y-3.3712
X-10.2091Y-3.3711
X-10.2094Y-3.3709
X-10.2098Y-3.3708
X-10.2102Y-3.3706
X-10.2105Y-3.3705
X-10.2109Y-3.3704
X-10.2113Y-3.3702
X-10.2116Y-3.3701
X-10.212Y-3.37
X-10.2124Y-3.3698
X-10.2127Y-3.3696
X-10.2131Y-3.3694
X-10.2134Y-3.3693
X-10.2138Y-3.3691
X-10.2141Y-3.3689
X-10.2145Y-3.3687
X-10.2148Y-3.3686
X-10.2152Y-3.3684
X-10.2156Y-3.3682
X-10.2159Y-3.3681
X-10.2163Y-3.3679
X-10.2166Y-3.3677
X-10.217Y-3.3675
X-10.2173Y-3.3674
X-10.2177Y-3.3672
X-10.218Y-3.367
X-10.2184Y-3.3668
X-10.2187Y-3.3666
X-10.219Y-3.3664
X-10.2194Y-3.3662
X-10.2197Y-3.3659
X-10.22Y-3.3657
X-10.2204Y-3.3655
X-10.2207Y-3.3653
X-10.221Y-3.3651
X-10.2214Y-3.3649
X-10.2217Y-3.3647
X-10.222Y-3.3645
X-10.2224Y-3.3643
X-10.2227Y-3.3641
X-10.223Y-3.3639
X-10.2234Y-3.3636
X-10.2237Y-3.3634
X-10.224Y-3.3631
X-10.2243Y-3.3629
X-10.2246Y-3.3627
X-10.2249Y-3.3624
X-10.2252Y-3.3622
X-10.2255Y-3.3619
X-10.2259Y-3.3617
X-10.2262Y-3.3615
X-10.2265Y-3.3612
X-10.2268Y-3.361
X-10.2271Y-3.3607
X-10.2274Y-3.3605
X-10.2277Y-3.3603
X-10.228Y-3.36
X-10.2284Y-3.3597
X-10.2286Y-3.3595
X-10.2289Y-3.3592
X-10.2292Y-3.3589
X-10.2295Y-3.3587
X-10.2298Y-3.3584
X-10.23Y-3.3581
X-10.2303Y-3.3579
X-10.2306Y-3.3576
X-10.2309Y-3.3574
X-10.2311Y-3.3571
X-10.2314Y-3.3568
X-10.2317Y-3.3566
X-10.232Y-3.3563
X-10.2323Y-3.356
X-10.2325Y-3.3558
X-10.2328Y-3.3555
X-10.233Y-3.3552
X-10.2333Y-3.3549
X-10.2335Y-3.3546
X-10.2338Y-3.3543
X-10.2341Y-3.354
X-10.2343Y-3.3538
X-10.2346Y-3.3535
X-10.2348Y-3.3532
X-10.2351Y-3.3529
X-10.2353Y-3.3526
X-10.2356Y-3.3523
X-10.2358Y-3.352
X-10.2361Y-3.3517
X-10.2363Y-3.3514
X-10.2366Y-3.3512
X-10.2368Y-3.3508
X-10.237Y-3.3505
X-10.2372Y-3.3502
X-10.2375Y-3.3499
X-10.2377Y-3.3496
X-10.2379Y-3.3493
X-10.2381Y-3.349
X-10.2383Y-3.3487
X-10.2386Y-3.3483
X-10.2388Y-3.348
X-10.239Y-3.3477
X-10.2392Y-3.3474
X-10.2395Y-3.3471
X-10.2397Y-3.3468
X-10.2399Y-3.3465
X-10.2401Y-3.3462
X-10.2403Y-3.3458
X-10.2405Y-3.3455
X-10.2407Y-3.3452
X-10.2409Y-3.3448
X-10.2411Y-3.3445
X-10.2413Y-3.3442
X-10.2415Y-3.3438
X-10.2417Y-3.3435
X-10.2418Y-3.3432
X-10.242Y-3.3428
X-10.2422Y-3.3425
X-10.2424Y-3.3422
X-10.2426Y-3.3418
X-10.2428Y-3.3415
X-10.243Y-3.3412
X-10.2432Y-3.3408
X-10.2433Y-3.3405
X-10.2435Y-3.3401
X-10.2436Y-3.3398
X-10.2438Y-3.3394
X-10.244Y-3.3391
X-10.2441Y-3.3387
X-10.2443Y-3.3384
X-10.2444Y-3.338
X-10.2446Y-3.3377
X-10.2447Y-3.3373
X-10.2449Y-3.337
X-10.2451Y-3.3366
X-10.2452Y-3.3363
X-10.2454Y-3.3359
X-10.2455Y-3.3356
X-10.2457Y-3.3352
X-10.2458Y-3.3349
X-10.2459Y-3.3345
X-10.2461Y-3.3341
X-10.2462Y-3.3338
X-10.2463Y-3.3334
X-10.2464Y-3.3331
X-10.2465Y-3.3327
X-10.2467Y-3.3323
X-10.2468Y-3.332
X-10.2469Y-3.3316
X-10.247Y-3.3312
X-10.2472Y-3.3309
X-10.2473Y-3.3305
X-10.2474Y-3.3302
X-10.2475Y-3.3298
X-10.2476Y-3.3294
X-10.2477Y-3.3291
X-10.2478Y-3.3287
X-10.2479Y-3.3283
X-10.248Y-3.3279
X-10.2481Y-3.3276
X-10.2482Y-3.3272
Y-3.3268
X-10.2483Y-3.3264
X-10.2484Y-3.3261
X-10.2485Y-3.3257
X-10.2486Y-3.3253
X-10.2487Y-3.3249
X-10.2488Y-3.3246
Y-3.3242
X-10.2489Y-3.3238
X-10.249Y-3.3234
X-10.2491Y-3.3231
Y-3.3227
X-10.2492Y-3.3223
Y-3.3219
X-10.2493Y-3.3215
Y-3.3212
X-10.2494Y-3.3208
Y-3.3204
X-10.2495Y-3.32
Y-3.3196
X-10.2496Y-3.3193
Y-3.3189
Y-3.3185
X-10.2497Y-3.3181
Y-3.3177
X-10.2498Y-3.3174
Y-3.3171
Y-3.3167
Y-3.3164
Y-3.3161
X-10.2499Y-3.3158
Y-3.3155
Y-3.3152
Y-3.3149
Y-3.3146
Y-3.3143
Y-3.314
Y-3.3137
X-10.25Y-3.3134
Y-3.3131
Y-3.3128
Y-3.3125
Y-3.3046
Y-3.2967
Y-3.2888
Y-3.281
Y-3.2731
Y-3.2652
Y-3.2573
Y-3.2495
Y-3.2416
Y-3.2337
Y-3.2258
Y-3.218
Y-3.2101
Y-3.2022
Y-3.1943
Y-3.1865
Y-3.1786
Y-3.1707
Y-3.1628
Y-3.155
Y-3.1471
Y-3.1392
Y-3.1313
Y-3.1235
Y-3.1156
Y-3.1077
Y-3.0999
Y-3.092
Y-3.0841
Y-3.0762
Y-3.0684
Y-3.0605
Y-3.0526
Y-3.0447
Y-3.0369
Y-3.029
Y-3.0211
Y-3.0132
Y-3.0054
Y-2.9975
Y-2.9896
Y-2.9817
Y-2.9739
Y-2.966
Y-2.9581
Y-2.9502
Y-2.9424
Y-2.9345
Y-2.9266
Y-2.9187
Y-2.9109
Y-2.903
Y-2.8984
Y-2.8905
Y-2.8826
Y-2.8748
Y-2.8669
Y-2.859
Y-2.8511
Y-2.8433
Y-2.8354
Y-2.8275
Y-2.8196
Y-2.8118
Y-2.8039
Y-2.796
Y-2.7882
Y-2.7803
Y-2.7724
Y-2.7645
Y-2.7567
Y-2.7488
Y-2.7409
Y-2.733
Y-2.7252
Y-2.7173
Y-2.7094
Y-2.7015
Y-2.6937
Y-2.6858
Y-2.6779
Y-2.67
Y-2.6622
Y-2.6543
Y-2.6464
Y-2.6385
Y-2.6307
Y-2.6228
Y-2.6149
Y-2.607
Y-2.5992
Y-2.5913
Y-2.5834
Y-2.5756
Y-2.5677
Y-2.5598
Y-2.5519
Y-2.5441
Y-2.5362
Y-2.5283
Y-2.5204
Y-2.5126
Y-2.5047
Y-2.4968
Y-2.4889
Y-2.4843
Y-2.4765
Y-2.4686
Y-2.4607
Y-2.4528
Y-2.445
Y-2.4371
Y-2.4292
Y-2.4213
Y-2.4135
Y-2.4056
Y-2.3977
Y-2.3898
Y-2.382
Y-2.3741
Y-2.3662
Y-2.3583
Y-2.3505
Y-2.3426
Y-2.3347
Y-2.3268
Y-2.319
Y-2.3111
Y-2.3032
Y-2.2953
Y-2.2875
Y-2.2796
Y-2.2717
Y-2.2639
Y-2.256
Y-2.2481
Y-2.2402
Y-2.2324
Y-2.2245
Y-2.2166
Y-2.2087
Y-2.2009
Y-2.193
Y-2.1851
Y-2.1772
Y-2.1694
Y-2.1615
Y-2.1536
Y-2.1457
Y-2.1379
Y-2.13
Y-2.1221
Y-2.1142
Y-2.1064
Y-2.0985
Y-2.0906
Y-2.0828
Y-2.0749
Y-2.0703
Y-2.0624
Y-2.0545
Y-2.0466
Y-2.0388
Y-2.0309
Y-2.023
Y-2.0151
Y-2.0073
Y-1.9994
Y-1.9915
Y-1.9836
Y-1.9758
Y-1.9679
Y-1.96
Y-1.9522
Y-1.9443
Y-1.9364
Y-1.9285
Y-1.9207
Y-1.9128
Y-1.9049
Y-1.897
Y-1.8892
Y-1.8813
Y-1.8734
Y-1.8655
Y-1.8577
Y-1.8498
Y-1.8419
Y-1.834
Y-1.8262
Y-1.8183
Y-1.8104
Y-1.8025
Y-1.7947
Y-1.7868
Y-1.7789
Y-1.7711
Y-1.7632
Y-1.7553
Y-1.7474
Y-1.7396
Y-1.7317
Y-1.7238
Y-1.7159
Y-1.7081
Y-1.7002
Y-1.6923
Y-1.6844
Y-1.6766
Y-1.6687
Y-1.6608
Y-1.6562
Y-1.6483
Y-1.6405
Y-1.6326
Y-1.6247
Y-1.6168
Y-1.609
Y-1.6011
Y-1.5932
Y-1.5853
Y-1.5775
Y-1.5696
Y-1.5617
Y-1.5538
Y-1.546
Y-1.5381
Y-1.5302
Y-1.5223
Y-1.5145
Y-1.5066
Y-1.4987
Y-1.4908
Y-1.483
Y-1.4751
Y-1.4672
Y-1.4594
Y-1.4515
Y-1.4436
Y-1.4357
Y-1.4279
Y-1.42
Y-1.4121
Y-1.4042
Y-1.3964
Y-1.3885
Y-1.3806
Y-1.3727
Y-1.3649
Y-1.357
Y-1.3491
Y-1.3412
Y-1.3334
Y-1.3255
Y-1.3176
Y-1.3097
Y-1.3019
Y-1.294
Y-1.2861
Y-1.2782
Y-1.2704
Y-1.2625
Y-1.2546
Y-1.2468
Y-1.2421
Y-1.2343
Y-1.2264
Y-1.2185
Y-1.2106
Y-1.2028
Y-1.1949
Y-1.187
Y-1.1791
Y-1.1713
Y-1.1634
Y-1.1555
Y-1.1476
Y-1.1398
Y-1.1319
Y-1.124
Y-1.1162
Y-1.1083
Y-1.1004
Y-1.0925
Y-1.0847
Y-1.0768
Y-1.0689
Y-1.061
Y-1.0532
Y-1.0453
Y-1.0374
Y-1.0295
Y-1.0217
Y-1.0138
Y-1.0059
Y-0.998
Y-0.9902
Y-0.9823
Y-0.9744
Y-0.9665
Y-0.9587
Y-0.9508
Y-0.9429
Y-0.9351
Y-0.9272
Y-0.9193
Y-0.9114
Y-0.9036
Y-0.8957
Y-0.8878
Y-0.8799
Y-0.8721
Y-0.8642
Y-0.8563
Y-0.8484
Y-0.8406
Y-0.8327
Y-0.8281
Y-0.8202
Y-0.8123
Y-0.8045
Y-0.7966
Y-0.7887
Y-0.7808
Y-0.773
Y-0.7651
Y-0.7572
Y-0.7493
Y-0.7415
Y-0.7336
Y-0.7257
Y-0.7178
Y-0.71
Y-0.7021
Y-0.6942
Y-0.6863
Y-0.6785
Y-0.6706
Y-0.6627
Y-0.6548
Y-0.647
Y-0.6391
Y-0.6312
Y-0.6234
Y-0.6155
Y-0.6076
Y-0.5997
Y-0.5919
Y-0.584
Y-0.5761
Y-0.5682
Y-0.5604
Y-0.5525
Y-0.5446
Y-0.5367
Y-0.5289
Y-0.521
Y-0.5131
Y-0.5052
Y-0.4974
Y-0.4895
Y-0.4816
Y-0.4737
Y-0.4659
Y-0.458
Y-0.4501
Y-0.4422
Y-0.4344
Y-0.4265
Y-0.4186
Y-0.414
Y-0.4061
Y-0.3983
Y-0.3904
Y-0.3825
Y-0.3746
Y-0.3668
Y-0.3589
Y-0.351
Y-0.3431
Y-0.3353
Y-0.3274
Y-0.3195
Y-0.3117
Y-0.3038
Y-0.2959
Y-0.288
Y-0.2802
Y-0.2723
Y-0.2644
Y-0.2565
Y-0.2487
Y-0.2408
Y-0.2329
Y-0.225
Y-0.2172
Y-0.2093
Y-0.2014
Y-0.1935
Y-0.1857
Y-0.1778
Y-0.1699
Y-0.162
Y-0.1542
Y-0.1463
Y-0.1384
Y-0.1305
Y-0.1227
Y-0.1148
Y-0.1069
Y-0.0991
Y-0.0912
Y-0.0833
Y-0.0754
Y-0.0676
Y-0.0597
Y-0.0518
Y-0.0439
Y-0.0361
Y-0.0282
Y-0.0203
Y-0.0124
Y-0.0046
Y0
Y0.0078
Y0.0157
Y0.0236
Y0.0314
Y0.0393
Y0.0472
Y0.0551
Y0.0629
Y0.0708
Y0.0787
Y0.0866
Y0.0944
Y0.1023
Y0.1102
Y0.1181
Y0.1259
Y0.1338
Y0.1417
Y0.1496
Y0.1574
Y0.1653
Y0.1732
Y0.1811
Y0.1889
Y0.1968
Y0.2047
Y0.2125
Y0.2204
Y0.2283
Y0.2362
Y0.244
Y0.2519
Y0.2598
Y0.2677
Y0.2755
Y0.2834
Y0.2913
Y0.2992
Y0.307
Y0.3149
Y0.3228
Y0.3307
Y0.3385
Y0.3464
Y0.3543
Y0.3622
Y0.37
Y0.3779
Y0.3858
Y0.3937
Y0.4015
Y0.4094
Y0.414
Y0.4219
Y0.4298
Y0.4376
Y0.4455
Y0.4534
Y0.4613
Y0.4691
Y0.477
Y0.4849
Y0.4928
Y0.5006
Y0.5085
Y0.5164
Y0.5242
Y0.5321
Y0.54
Y0.5479
Y0.5557
Y0.5636
Y0.5715
Y0.5794
Y0.5872
Y0.5951
Y0.603
Y0.6109
Y0.6187
Y0.6266
Y0.6345
Y0.6424
Y0.6502
Y0.6581
Y0.666
Y0.6739
Y0.6817
Y0.6896
Y0.6975
Y0.7054
Y0.7132
Y0.7211
Y0.729
Y0.7368
Y0.7447
Y0.7526
Y0.7605
Y0.7683
Y0.7762
Y0.7841
Y0.792
Y0.7998
Y0.8077
Y0.8156
Y0.8235
Y0.8281
Y0.8359
Y0.8438
Y0.8517
Y0.8596
Y0.8674
Y0.8753
Y0.8832
Y0.8911
Y0.8989
Y0.9068
Y0.9147
Y0.9226
Y0.9304
Y0.9383
Y0.9462
Y0.9541
Y0.9619
Y0.9698
Y0.9777
Y0.9856
Y0.9934
Y1.0013
Y1.0092
Y1.0171
Y1.0249
Y1.0328
Y1.0407
Y1.0485
Y1.0564
Y1.0643
Y1.0722
Y1.08
Y1.0879
Y1.0958
Y1.1037
Y1.1115
Y1.1194
Y1.1273
Y1.1352
Y1.143
Y1.1509
Y1.1588
Y1.1667
Y1.1745
Y1.1824
Y1.1903
Y1.1982
Y1.206
Y1.2139
Y1.2218
Y1.2297
Y1.2375
Y1.2421
Y1.25
Y1.2579
Y1.2658
Y1.2736
Y1.2815
Y1.2894
Y1.2973
Y1.3051
Y1.313
Y1.3209
Y1.3288
Y1.3366
Y1.3445
Y1.3524
Y1.3602
Y1.3681
Y1.376
Y1.3839
Y1.3917
Y1.3996
Y1.4075
Y1.4154
Y1.4232
Y1.4311
Y1.439
Y1.4469
Y1.4547
Y1.4626
Y1.4705
Y1.4784
Y1.4862
Y1.4941
Y1.502
Y1.5099
Y1.5177
Y1.5256
Y1.5335
Y1.5414
Y1.5492
Y1.5571
Y1.565
Y1.5728
Y1.5807
Y1.5886
Y1.5965
Y1.6043
Y1.6122
Y1.6201
Y1.628
Y1.6358
Y1.6437
Y1.6516
Y1.6562
Y1.6641
Y1.6719
Y1.6798
Y1.6877
Y1.6956
Y1.7034
Y1.7113
Y1.7192
Y1.7271
Y1.7349
Y1.7428
Y1.7507
Y1.7586
Y1.7664
Y1.7743
Y1.7822
Y1.7901
Y1.7979
Y1.8058
Y1.8137
Y1.8216
Y1.8294
Y1.8373
Y1.8452
Y1.8531
Y1.8609
Y1.8688
Y1.8767
Y1.8845
Y1.8924
Y1.9003
Y1.9082
Y1.916
Y1.9239
Y1.9318
Y1.9397
Y1.9475
Y1.9554
Y1.9633
Y1.9712
Y1.979
Y1.9869
Y1.9948
Y2.0027
Y2.0105
Y2.0184
Y2.0263
Y2.0342
Y2.042
Y2.0499
Y2.0578
Y2.0656
Y2.0703
Y2.0781
Y2.086
Y2.0939
Y2.1018
Y2.1096
Y2.1175
Y2.1254
Y2.1333
Y2.1411
Y2.149
Y2.1569
Y2.1648
Y2.1726
Y2.1805
Y2.1884
Y2.1962
Y2.2041
Y2.212
Y2.2199
Y2.2277
Y2.2356
Y2.2435
Y2.2514
Y2.2592
Y2.2671
Y2.275
Y2.2829
Y2.2907
Y2.2986
Y2.3065
Y2.3144
Y2.3222
Y2.3301
Y2.338
Y2.3459
Y2.3537
Y2.3616
Y2.3695
Y2.3773
Y2.3852
Y2.3931
Y2.401
Y2.4088
Y2.4167
Y2.4246
Y2.4325
Y2.4403
Y2.4482
Y2.4561
Y2.464
Y2.4718
Y2.4797
Y2.4843
Y2.4922
Y2.5001
Y2.5079
Y2.5158
Y2.5237
Y2.5316
Y2.5394
Y2.5473
Y2.5552
Y2.5631
Y2.5709
Y2.5788
Y2.5867
Y2.5946
Y2.6024
Y2.6103
Y2.6182
Y2.6261
Y2.6339
Y2.6418
Y2.6497
Y2.6576
Y2.6654
Y2.6733
Y2.6812
Y2.689
Y2.6969
Y2.7048
Y2.7127
Y2.7205
Y2.7284
Y2.7363
Y2.7442
Y2.752
Y2.7599
Y2.7678
Y2.7757
Y2.7835
Y2.7914
Y2.7993
Y2.8072
Y2.815
Y2.8229
Y2.8308
Y2.8387
Y2.8465
Y2.8544
Y2.8623
Y2.8702
Y2.878
Y2.8859
Y2.8938
Y2.8984
Y2.9063
Y2.9141
Y2.922
Y2.9299
Y2.9378
Y2.9456
Y2.9535
Y2.9614
Y2.9693
Y2.9771
Y2.985
Y2.9929
Y3.0008
Y3.0086
Y3.0165
Y3.0244
Y3.0322
Y3.0401
Y3.048
Y3.0559
Y3.0637
Y3.0716
Y3.0795
Y3.0874
Y3.0952
Y3.1031
Y3.111
Y3.1189
Y3.1267
Y3.1346
Y3.1425
Y3.1504
Y3.1582
Y3.1661
Y3.174
Y3.1819
Y3.1897
Y3.1976
Y3.2055
Y3.2133
Y3.2212
Y3.2291
Y3.237
Y3.2448
Y3.2527
Y3.2606
Y3.2685
Y3.2763
Y3.2842
Y3.2921
Y3.3
Y3.3078
Y3.3125
Y3.3128
Y3.3132
X-10.2499Y3.3136
Y3.314
Y3.3144
Y3.3147
Y3.3151
X-10.2498Y3.3155
Y3.3159
Y3.3163
Y3.3167
Y3.317
X-10.2497Y3.3174
Y3.3178
Y3.3182
Y3.3186
X-10.2496Y3.319
Y3.3193
X-10.2495Y3.3197
Y3.3201
X-10.2494Y3.3205
Y3.3209
X-10.2493Y3.3212
X-10.2492Y3.3216
Y3.322
X-10.2491Y3.3224
Y3.3227
X-10.249Y3.3231
Y3.3235
X-10.2489Y3.3239
X-10.2488Y3.3243
Y3.3246
X-10.2487Y3.325
X-10.2486Y3.3254
X-10.2485Y3.3258
X-10.2484Y3.3261
X-10.2483Y3.3265
X-10.2482Y3.3269
X-10.2481Y3.3272
X-10.248Y3.3276
Y3.328
X-10.2479Y3.3284
X-10.2478Y3.3287
X-10.2477Y3.3291
X-10.2476Y3.3295
X-10.2475Y3.3298
X-10.2474Y3.3302
X-10.2473Y3.3306
X-10.2472Y3.331
X-10.247Y3.3313
X-10.2469Y3.3317
X-10.2468Y3.332
X-10.2467Y3.3324
X-10.2465Y3.3328
X-10.2464Y3.3331
X-10.2463Y3.3335
X-10.2461Y3.3338
X-10.246Y3.3342
X-10.2459Y3.3346
X-10.2457Y3.3349
X-10.2456Y3.3353
X-10.2455Y3.3356
X-10.2454Y3.336
X-10.2452Y3.3364
X-10.2451Y3.3367
X-10.2449Y3.3371
X-10.2447Y3.3374
X-10.2446Y3.3378
X-10.2444Y3.3381
X-10.2442Y3.3384
X-10.2441Y3.3388
X-10.2439Y3.3391
X-10.2438Y3.3395
X-10.2436Y3.3398
X-10.2434Y3.3402
X-10.2433Y3.3405
X-10.2431Y3.3409
X-10.2429Y3.3412
X-10.2428Y3.3416
X-10.2426Y3.3419
X-10.2424Y3.3422
X-10.2422Y3.3426
X-10.242Y3.3429
X-10.2418Y3.3432
X-10.2416Y3.3436
X-10.2414Y3.3439
X-10.2412Y3.3442
X-10.241Y3.3445
X-10.2408Y3.3449
X-10.2406Y3.3452
X-10.2404Y3.3455
X-10.2402Y3.3459
X-10.24Y3.3462
X-10.2399Y3.3465
X-10.2397Y3.3468
X-10.2395Y3.3472
X-10.2392Y3.3475
X-10.239Y3.3478
X-10.2388Y3.3481
X-10.2385Y3.3484
X-10.2383Y3.3487
X-10.2381Y3.349
X-10.2379Y3.3493
X-10.2376Y3.3496
X-10.2374Y3.3499
X-10.2372Y3.3503
X-10.2369Y3.3506
X-10.2367Y3.3509
X-10.2365Y3.3512
X-10.2363Y3.3515
X-10.236Y3.3518
X-10.2358Y3.3521
X-10.2355Y3.3524
X-10.2353Y3.3527
X-10.235Y3.353
X-10.2348Y3.3532
X-10.2345Y3.3535
X-10.2343Y3.3538
X-10.234Y3.3541
X-10.2337Y3.3544
X-10.2335Y3.3547
X-10.2332Y3.3549
X-10.233Y3.3552
X-10.2327Y3.3555
X-10.2325Y3.3558
X-10.2322Y3.3561
X-10.2319Y3.3564
X-10.2317Y3.3566
X-10.2314Y3.3569
X-10.2311Y3.3572
X-10.2308Y3.3575
X-10.2305Y3.3577
X-10.2302Y3.358
X-10.2299Y3.3582
X-10.2297Y3.3585
X-10.2294Y3.3587
X-10.2291Y3.359
X-10.2288Y3.3593
X-10.2285Y3.3595
X-10.2282Y3.3598
X-10.228Y3.36
X-10.2277Y3.3603
X-10.2274Y3.3605
X-10.2271Y3.3608
X-10.2268Y3.361
X-10.2265Y3.3613
X-10.2262Y3.3615
X-10.2259Y3.3617
X-10.2256Y3.3619
X-10.2253Y3.3622
X-10.2249Y3.3624
X-10.2246Y3.3626
X-10.2243Y3.3629
X-10.224Y3.3631
X-10.2237Y3.3633
X-10.2234Y3.3635
X-10.2231Y3.3638
X-10.2228Y3.364
X-10.2225Y3.3642
X-10.2222Y3.3645
X-10.2218Y3.3647
X-10.2215Y3.3649
X-10.2212Y3.365
X-10.2209Y3.3652
X-10.2205Y3.3654
X-10.2202Y3.3656
X-10.2199Y3.3658
X-10.2195Y3.366
X-10.2192Y3.3662
X-10.2189Y3.3664
X-10.2186Y3.3666
X-10.2182Y3.3668
X-10.2179Y3.367
X-10.2176Y3.3672
X-10.2172Y3.3674
X-10.2169Y3.3676
X-10.2166Y3.3678
X-10.2162Y3.3679
X-10.2159Y3.3681
X-10.2155Y3.3683
X-10.2152Y3.3684
X-10.2148Y3.3686
X-10.2145Y3.3688
X-10.2141Y3.3689
X-10.2138Y3.3691
X-10.2134Y3.3692
X-10.2131Y3.3694
X-10.2128Y3.3696
X-10.2124Y3.3697
X-10.2121Y3.3699
X-10.2117Y3.3701
X-10.2114Y3.3702
X-10.211Y3.3704
X-10.2106Y3.3705
X-10.2103Y3.3706
X-10.2099Y3.3707
X-10.2096Y3.3709
X-10.2092Y3.371
X-10.2088Y3.3711
X-10.2085Y3.3713
X-10.2081Y3.3714
X-10.2078Y3.3715
X-10.2074Y3.3717
X-10.207Y3.3718
X-10.2067Y3.3719
X-10.2063Y3.372
X-10.206Y3.3722
X-10.2056Y3.3723
X-10.2052Y3.3724
X-10.2048Y3.3725
X-10.2045Y3.3726
X-10.2041Y3.3727
X-10.2037Y3.3728
X-10.2034Y3.3729
X-10.203Y3.373
X-10.2026
X-10.2022Y3.3731
X-10.2019Y3.3732
X-10.2015Y3.3733
X-10.2011Y3.3734
X-10.2008Y3.3735
X-10.2004Y3.3736
X-10.2Y3.3737
X-10.1996Y3.3738
X-10.1993
X-10.1989Y3.3739
X-10.1985Y3.374
X-10.1981
X-10.1977Y3.3741
X-10.1974
X-10.197Y3.3742
X-10.1966
X-10.1962Y3.3743
X-10.1959Y3.3744
X-10.1955
X-10.1951Y3.3745
X-10.1947
X-10.1943Y3.3746
X-10.194
X-10.1936Y3.3747
X-10.1932
X-10.1928
X-10.1924
X-10.192Y3.3748
X-10.1917
X-10.1913
X-10.1909
X-10.1905
X-10.1901Y3.3749
X-10.1897
X-10.1894
X-10.189
X-10.1886
X-10.1882Y3.375
X-10.1878
X-10.1875
X-10.1796
X-10.1717
X-10.1638
X-10.156
X-10.1481
X-10.1402
X-10.1323
X-10.1245
X-10.1166
X-10.1087
X-10.1008
X-10.093
X-10.0851
X-10.0772
X-10.0693
X-10.0615
X-10.0536
X-10.0457
X-10.0378
X-10.03
X-10.0221
X-10.0142
X-10.0063
X-9.9985
X-9.9906
X-9.9827
X-9.9749
X-9.967
X-9.9591
X-9.9512
X-9.9434
X-9.9355
X-9.9276
X-9.9197
X-9.9119
X-9.904
X-9.8961
X-9.8882
X-9.8804
X-9.8725
X-9.8646
X-9.8567
X-9.8489
X-9.841
X-9.8331
X-9.8252
X-9.8174
X-9.8095
X-9.8016
X-9.7937
X-9.7859
X-9.778
X-9.7701
X-9.7623
X-9.7544
X-9.7465
X-9.7386
X-9.7308
X-9.7229
X-9.715
X-9.7071
X-9.6993
X-9.6914
X-9.6835
X-9.6756
X-9.6678
X-9.6599
X-9.652
X-9.6441
X-9.6363
X-9.6284
X-9.6205
X-9.6126
X-9.6048
X-9.5969
X-9.589
X-9.5812
X-9.5733
X-9.5654
X-9.5575
X-9.5497
X-9.5418
X-9.5339
X-9.526
X-9.5182
X-9.5103
X-9.5024
X-9.4945
X-9.4867
X-9.4788
X-9.4709
X-9.463
X-9.4552
X-9.4473
X-9.4394
X-9.4315
X-9.4237
X-9.4158
X-9.4079
X-9.4
X-9.3922
X-9.3843
X-9.3764
X-9.3686
X-9.3607
X-9.3528
X-9.3449
X-9.3371
X-9.3292
X-9.3213
X-9.3134
X-9.3056
X-9.2977
X-9.2898
X-9.2819
X-9.2741
X-9.2662
X-9.2583
X-9.2504
X-9.2426
X-9.2347
X-9.2268
X-9.2189
X-9.2111
X-9.2032
X-9.1953
X-9.1875
X-9.1796
X-9.1717
X-9.1638
X-9.156
X-9.1481
X-9.1402
X-9.1323
X-9.1245
X-9.1166
X-9.1087
X-9.1008
X-9.093
X-9.0851
X-9.0772
X-9.0693
X-9.0615
X-9.0536
X-9.0457
X-9.0378
X-9.03
X-9.0221
X-9.0142
X-9.0063
X-8.9985
X-8.9906
X-8.9827
X-8.9749
X-8.967
X-8.9591
X-8.9512
X-8.9434
X-8.9355
X-8.9276
X-8.9197
X-8.914
X-8.9061
X-8.8983
X-8.8904
X-8.8825
X-8.8746
X-8.8668
X-8.8589
X-8.851
X-8.8431
X-8.8353
X-8.8274
X-8.8195
X-8.8117
X-8.8038
X-8.7959
X-8.788
X-8.7802
X-8.7723
X-8.7644
X-8.7565
X-8.7487
X-8.7408
X-8.7329
X-8.725
X-8.7172
X-8.7093
X-8.7014
X-8.6935
X-8.6857
X-8.6778
X-8.6699
X-8.662
X-8.6542
X-8.6463
X-8.6384
X-8.6305
X-8.6227
X-8.6148
X-8.6069
X-8.5991
X-8.5912
X-8.5833
X-8.5754
X-8.5676
X-8.5597
X-8.5518
X-8.5439
X-8.5361
X-8.5282
X-8.5203
X-8.5124
X-8.5046
X-8.4967
X-8.4888
X-8.4809
X-8.4731
X-8.4652
X-8.4573
X-8.4494
X-8.4416
X-8.4337
X-8.4258
X-8.418
X-8.4101
X-8.4022
X-8.3943
X-8.3865
X-8.3786
X-8.3707
X-8.3628
X-8.355
X-8.3471
X-8.3392
X-8.3313
X-8.3235
X-8.3156
X-8.3077
X-8.2998
X-8.292
X-8.2841
X-8.2762
X-8.2683
X-8.2605
X-8.2526
X-8.2447
X-8.2368
X-8.229
X-8.2211
X-8.2132
X-8.2054
X-8.1975
X-8.1896
X-8.1817
X-8.1739
X-8.166
X-8.1581
X-8.1502
X-8.1424
X-8.1345
X-8.1266
X-8.1187
X-8.1109
X-8.103
X-8.0951
X-8.0872
X-8.0794
X-8.0715
X-8.0636
X-8.0557
X-8.0479
X-8.04
X-8.0321
X-8.0242
X-8.0164
X-8.0085
X-8.0006
X-7.9928
X-7.9849
X-7.977
X-7.9691
X-7.9613
X-7.9534
X-7.9455
X-7.9376
X-7.9298
X-7.9219
X-7.914
X-7.9061
X-7.8983
X-7.8904
X-7.8825
X-7.8746
X-7.8668
X-7.8589
X-7.851
X-7.8431
X-7.8353
X-7.8274
X-7.8195
X-7.8117
X-7.8038
X-7.7959
X-7.788
X-7.7802
X-7.7723
X-7.7644
X-7.7565
X-7.7487
X-7.7408
X-7.7329
X-7.725
X-7.7172
X-7.7093
X-7.7014
X-7.6935
X-7.6857
X-7.6778
X-7.6699
X-7.662
X-7.6542
X-7.6463
X-7.6406
X-7.6327
X-7.6248
X-7.617
X-7.6091
X-7.6012
X-7.5933
X-7.5855
X-7.5776
X-7.5697
X-7.5618
X-7.554
X-7.5461
X-7.5382
X-7.5303
X-7.5225
X-7.5146
X-7.5067
X-7.4988
X-7.491
X-7.4831
X-7.4752
X-7.4673
X-7.4595
X-7.4516
X-7.4437
X-7.4359
X-7.428
X-7.4201
X-7.4122
X-7.4044
X-7.3965
X-7.3886
X-7.3807
X-7.3729
X-7.365
X-7.3571
X-7.3492
X-7.3414
X-7.3335
X-7.3256
X-7.3177
X-7.3099
X-7.302
X-7.2941
X-7.2862
X-7.2784
X-7.2705
X-7.2626
X-7.2547
X-7.2469
X-7.239
X-7.2311
X-7.2233
X-7.2154
X-7.2075
X-7.1996
X-7.1918
X-7.1839
X-7.176
X-7.1681
X-7.1603
X-7.1524
X-7.1445
X-7.1366
X-7.1288
X-7.1209
X-7.113
X-7.1051
X-7.0973
X-7.0894
X-7.0815
X-7.0736
X-7.0658
X-7.0579
X-7.05
X-7.0422
X-7.0343
X-7.0264
X-7.0185
X-7.0107
X-7.0028
X-6.9949
X-6.987
X-6.9792
X-6.9713
X-6.9634
X-6.9555
X-6.9477
X-6.9398
X-6.9319
X-6.924
X-6.9162
X-6.9083
X-6.9004
X-6.8925
X-6.8847
X-6.8768
X-6.8689
X-6.861
X-6.8532
X-6.8453
X-6.8374
X-6.8296
X-6.8217
X-6.8138
X-6.8059
X-6.7981
X-6.7902
X-6.7823
X-6.7744
X-6.7666
X-6.7587
X-6.7508
X-6.7429
X-6.7351
X-6.7272
X-6.7193
X-6.7114
X-6.7036
X-6.6957
X-6.6878
X-6.6799
X-6.6721
X-6.6642
X-6.6563
X-6.6485
X-6.6406
X-6.6327
X-6.6248
X-6.617
X-6.6091
X-6.6012
X-6.5933
X-6.5855
X-6.5776
X-6.5697
X-6.5618
X-6.554
X-6.5461
X-6.5382
X-6.5303
X-6.5225
X-6.5146
X-6.5067
X-6.4988
X-6.491
X-6.4831
X-6.4752
X-6.4673
X-6.4595
X-6.4516
X-6.4437
X-6.4359
X-6.428
X-6.4201
X-6.4122
X-6.4044
X-6.3965
X-6.3886
X-6.3807
X-6.3729
X-6.3671
X-6.3593
X-6.3514
X-6.3435
X-6.3356
X-6.3278
X-6.3199
X-6.312
X-6.3041
X-6.2963
X-6.2884
X-6.2805
X-6.2727
X-6.2648
X-6.2569
X-6.249
X-6.2412
X-6.2333
X-6.2254
X-6.2175
X-6.2097
X-6.2018
X-6.1939
X-6.186
X-6.1782
X-6.1703
X-6.1624
X-6.1545
X-6.1467
X-6.1388
X-6.1309
X-6.123
X-6.1152
X-6.1073
X-6.0994
X-6.0915
X-6.0837
X-6.0758
X-6.0679
X-6.0601
X-6.0522
X-6.0443
X-6.0364
X-6.0286
X-6.0207
X-6.0128
X-6.0049
X-5.9971
X-5.9892
X-5.9813
X-5.9734
X-5.9656
X-5.9577
X-5.9498
X-5.9419
X-5.9341
X-5.9262
X-5.9183
X-5.9104
X-5.9026
X-5.8947
X-5.8868
X-5.8789
X-5.8711
X-5.8632
X-5.8553
X-5.8475
X-5.8396
X-5.8317
X-5.8238
X-5.816
X-5.8081
X-5.8002
X-5.7923
X-5.7845
X-5.7766
X-5.7687
X-5.7608
X-5.753
X-5.7451
X-5.7372
X-5.7293
X-5.7215
X-5.7136
X-5.7057
X-5.6978
X-5.69
X-5.6821
X-5.6742
X-5.6664
X-5.6585
X-5.6506
X-5.6427
X-5.6349
X-5.627
X-5.6191
X-5.6112
X-5.6034
X-5.5955
X-5.5876
X-5.5797
X-5.5719
X-5.564
X-5.5561
X-5.5482
X-5.5404
X-5.5325
X-5.5246
X-5.5167
X-5.5089
X-5.501
X-5.4931
X-5.4852
X-5.4774
X-5.4695
X-5.4616
X-5.4538
X-5.4459
X-5.438
X-5.4301
X-5.4223
X-5.4144
X-5.4065
X-5.3986
X-5.3908
X-5.3829
X-5.375
X-5.3671
X-5.3593
X-5.3514
X-5.3435
X-5.3356
X-5.3278
X-5.3199
X-5.312
X-5.3041
X-5.2963
X-5.2884
X-5.2805
X-5.2727
X-5.2648
X-5.2569
X-5.249
X-5.2412
X-5.2333
X-5.2254
X-5.2175
X-5.2097
X-5.2018
X-5.1939
X-5.186
X-5.1782
X-5.1703
X-5.1624
X-5.1545
X-5.1467
X-5.1388
X-5.1309
X-5.123
X-5.1152
X-5.1073
X-5.0994
X-5.0937
X-5.0858
X-5.078
X-5.0701
X-5.0622
X-5.0543
X-5.0465
X-5.0386
X-5.0307
X-5.0228
X-5.015
X-5.0071
X-4.9992
X-4.9913
X-4.9835
X-4.9756
X-4.9677
X-4.9598
X-4.952
X-4.9441
X-4.9362
X-4.9283
X-4.9205
X-4.9126
X-4.9047
X-4.8969
X-4.889
X-4.8811
X-4.8732
X-4.8654
X-4.8575
X-4.8496
X-4.8417
X-4.8339
X-4.826
X-4.8181
X-4.8102
X-4.8024
X-4.7945
X-4.7866
X-4.7787
X-4.7709
X-4.763
X-4.7551
X-4.7472
X-4.7394
X-4.7315
X-4.7236
X-4.7157
X-4.7079
X-4.7
X-4.6921
X-4.6843
X-4.6764
X-4.6685
X-4.6606
X-4.6528
X-4.6449
X-4.637
X-4.6291
X-4.6213
X-4.6134
X-4.6055
X-4.5976
X-4.5898
X-4.5819
X-4.574
X-4.5661
X-4.5583
X-4.5504
X-4.5425
X-4.5346
X-4.5268
X-4.5189
X-4.511
X-4.5031
X-4.4953
X-4.4874
X-4.4795
X-4.4717
X-4.4638
X-4.4559
X-4.448
X-4.4402
X-4.4323
X-4.4244
X-4.4165
X-4.4087
X-4.4008
X-4.3929
X-4.385
X-4.3772
X-4.3693
X-4.3614
X-4.3535
X-4.3457
X-4.3378
X-4.3299
X-4.322
X-4.3142
X-4.3063
X-4.2984
X-4.2906
X-4.2827
X-4.2748
X-4.2669
X-4.2591
X-4.2512
X-4.2433
X-4.2354
X-4.2276
X-4.2197
X-4.2118
X-4.2039
X-4.1961
X-4.1882
X-4.1803
X-4.1724
X-4.1646
X-4.1567
X-4.1488
X-4.1409
X-4.1331
X-4.1252
X-4.1173
X-4.1094
X-4.1016
X-4.0937
X-4.0858
X-4.078
X-4.0701
X-4.0622
X-4.0543
X-4.0465
X-4.0386
X-4.0307
X-4.0228
X-4.015
X-4.0071
X-3.9992
X-3.9913
X-3.9835
X-3.9756
X-3.9677
X-3.9598
X-3.952
X-3.9441
X-3.9362
X-3.9283
X-3.9205
X-3.9126
X-3.9047
X-3.8969
X-3.889
X-3.8811
X-3.8732
X-3.8654
X-3.8575
X-3.8496
X-3.8417
X-3.8339
X-3.826
X-3.8203
X-3.8124
X-3.8045
X-3.7966
X-3.7888
X-3.7809
X-3.773
X-3.7651
X-3.7573
X-3.7494
X-3.7415
X-3.7336
X-3.7258
X-3.7179
X-3.71
X-3.7022
X-3.6943
X-3.6864
X-3.6785
X-3.6707
X-3.6628
X-3.6549
X-3.647
X-3.6392
X-3.6313
X-3.6234
X-3.6155
X-3.6077
X-3.5998
X-3.5919
X-3.584
X-3.5762
X-3.5683
X-3.5604
X-3.5525
X-3.5447
X-3.5368
X-3.5289
X-3.5211
X-3.5132
X-3.5053
X-3.4974
X-3.4896
X-3.4817
X-3.4738
X-3.4659
X-3.4581
X-3.4502
X-3.4423
X-3.4344
X-3.4266
X-3.4187
X-3.4108
X-3.4029
X-3.3951
X-3.3872
X-3.3793
X-3.3714
X-3.3636
X-3.3557
X-3.3478
X-3.3399
X-3.3321
X-3.3242
X-3.3163
X-3.3085
X-3.3006
X-3.2927
X-3.2848
X-3.277
X-3.2691
X-3.2612
X-3.2533
X-3.2455
X-3.2376
X-3.2297
X-3.2218
X-3.214
X-3.2061
X-3.1982
X-3.1903
X-3.1825
X-3.1746
X-3.1667
X-3.1588
X-3.151
X-3.1431
X-3.1352
X-3.1273
X-3.1195
X-3.1116
X-3.1037
X-3.0959
X-3.088
X-3.0801
X-3.0722
X-3.0644
X-3.0565
X-3.0486
X-3.0407
X-3.0329
X-3.025
X-3.0171
X-3.0092
X-3.0014
X-2.9935
X-2.9856
X-2.9777
X-2.9699
X-2.962
X-2.9541
X-2.9462
X-2.9384
X-2.9305
X-2.9226
X-2.9148
X-2.9069
X-2.899
X-2.8911
X-2.8833
X-2.8754
X-2.8675
X-2.8596
X-2.8518
X-2.8439
X-2.836
X-2.8281
X-2.8203
X-2.8124
X-2.8045
X-2.7966
X-2.7888
X-2.7809
X-2.773
X-2.7651
X-2.7573
X-2.7494
X-2.7415
X-2.7336
X-2.7258
X-2.7179
X-2.71
X-2.7022
X-2.6943
X-2.6864
X-2.6785
X-2.6707
X-2.6628
X-2.6549
X-2.647
X-2.6392
X-2.6313
X-2.6234
X-2.6155
X-2.6077
X-2.5998
X-2.5919
X-2.584
X-2.5762
X-2.5683
X-2.5604
X-2.5525
X-2.5468
X-2.539
X-2.5311
X-2.5232
X-2.5153
X-2.5075
X-2.4996
X-2.4917
X-2.4838
X-2.476
X-2.4681
X-2.4602
X-2.4523
X-2.4445
X-2.4366
X-2.4287
X-2.4208
X-2.413
X-2.4051
X-2.3972
X-2.3893
X-2.3815
X-2.3736
X-2.3657
X-2.3578
X-2.35
X-2.3421
X-2.3342
X-2.3264
X-2.3185
X-2.3106
X-2.3027
X-2.2949
X-2.287
X-2.2791
X-2.2712
X-2.2634
X-2.2555
X-2.2476
X-2.2397
X-2.2319
X-2.224
X-2.2161
X-2.2082
X-2.2004
X-2.1925
X-2.1846
X-2.1767
X-2.1689
X-2.161
X-2.1531
X-2.1453
X-2.1374
X-2.1295
X-2.1216
X-2.1138
X-2.1059
X-2.098
X-2.0901
X-2.0823
X-2.0744
X-2.0665
X-2.0586
X-2.0508
X-2.0429
X-2.035
X-2.0271
X-2.0193
X-2.0114
X-2.0035
X-1.9956
X-1.9878
X-1.9799
X-1.972
X-1.9641
X-1.9563
X-1.9484
X-1.9405
X-1.9327
X-1.9248
X-1.9169
X-1.909
X-1.9012
X-1.8933
X-1.8854
X-1.8775
X-1.8697
X-1.8618
X-1.8539
X-1.846
X-1.8382
X-1.8303
X-1.8224
X-1.8145
X-1.8067
X-1.7988
X-1.7909
X-1.783
X-1.7752
X-1.7673
X-1.7594
X-1.7516
X-1.7437
X-1.7358
X-1.7279
X-1.7201
X-1.7122
X-1.7043
X-1.6964
X-1.6886
X-1.6807
X-1.6728
X-1.6649
X-1.6571
X-1.6492
X-1.6413
X-1.6334
X-1.6256
X-1.6177
X-1.6098
X-1.6019
X-1.5941
X-1.5862
X-1.5783
X-1.5704
X-1.5626
X-1.5547
X-1.5468
X-1.539
X-1.5311
X-1.5232
X-1.5153
X-1.5075
X-1.4996
X-1.4917
X-1.4838
X-1.476
X-1.4681
X-1.4602
X-1.4523
X-1.4445
X-1.4366
X-1.4287
X-1.4208
X-1.413
X-1.4051
X-1.3972
X-1.3893
X-1.3815
X-1.3736
X-1.3657
X-1.3578
X-1.35
X-1.3421
X-1.3342
X-1.3264
X-1.3185
X-1.3106
X-1.3027
X-1.2949
X-1.287
X-1.2791
X-1.2734
X-1.2655
X-1.2576
X-1.2498
X-1.2419
X-1.234
X-1.2261
X-1.2183
X-1.2104
X-1.2025
X-1.1946
X-1.1868
X-1.1789
X-1.171
X-1.1632
X-1.1553
X-1.1474
X-1.1395
X-1.1317
X-1.1238
X-1.1159
X-1.108
X-1.1002
X-1.0923
X-1.0844
X-1.0765
X-1.0687
X-1.0608
X-1.0529
X-1.045
X-1.0372
X-1.0293
X-1.0214
X-1.0135
X-1.0057
X-0.9978
X-0.9899
X-0.982
X-0.9742
X-0.9663
X-0.9584
X-0.9506
X-0.9427
X-0.9348
X-0.9269
X-0.9191
X-0.9112
X-0.9033
X-0.8954
X-0.8876
X-0.8797
X-0.8718
X-0.8639
X-0.8561
X-0.8482
X-0.8403
X-0.8324
X-0.8246
X-0.8167
X-0.8088
X-0.8009
X-0.7931
X-0.7852
X-0.7773
X-0.7695
X-0.7616
X-0.7537
X-0.7458
X-0.738
X-0.7301
X-0.7222
X-0.7143
X-0.7065
X-0.6986
X-0.6907
X-0.6828
X-0.675
X-0.6671
X-0.6592
X-0.6513
X-0.6435
X-0.6356
X-0.6277
X-0.6198
X-0.612
X-0.6041
X-0.5962
X-0.5883
X-0.5805
X-0.5726
X-0.5647
X-0.5569
X-0.549
X-0.5411
X-0.5332
X-0.5254
X-0.5175
X-0.5096
X-0.5017
X-0.4939
X-0.486
X-0.4781
X-0.4702
X-0.4624
X-0.4545
X-0.4466
X-0.4387
X-0.4309
X-0.423
X-0.4151
X-0.4072
X-0.3994
X-0.3915
X-0.3836
X-0.3758
X-0.3679
X-0.36
X-0.3521
X-0.3443
X-0.3364
X-0.3285
X-0.3206
X-0.3128
X-0.3049
X-0.297
X-0.2891
X-0.2813
X-0.2734
X-0.2655
X-0.2576
X-0.2498
X-0.2419
X-0.234
X-0.2261
X-0.2183
X-0.2104
X-0.2025
X-0.1946
X-0.1868
X-0.1789
X-0.171
X-0.1632
X-0.1553
X-0.1474
X-0.1395
X-0.1317
X-0.1238
X-0.1159
X-0.108
X-0.1002
X-0.0923
X-0.0844
X-0.0765
X-0.0687
X-0.0608
X-0.0529
X-0.045
X-0.0372
X-0.0293
X-0.0214
X-0.0135
X-0.0057
X0
X0.0078
X0.0157
X0.0236
X0.0314
X0.0393
X0.0472
X0.0551
X0.0629
X0.0708
X0.0787
X0.0866
X0.0944
X0.1023
X0.1102
X0.1181
X0.1259
X0.1338
X0.1417
X0.1496
X0.1574
X0.1653
X0.1732
X0.1811
X0.1889
X0.1968
X0.2047
X0.2125
X0.2204
X0.2283
X0.2362
X0.244
X0.2519
X0.2598
X0.2677
X0.2755
X0.2834
X0.2913
X0.2992
X0.307
X0.3149
X0.3228
X0.3307
X0.3385
X0.3464
X0.3543
X0.3622
X0.37
X0.3779
X0.3858
X0.3937
X0.4015
X0.4094
X0.4173
X0.4251
X0.433
X0.4409
X0.4488
X0.4566
X0.4645
X0.4724
X0.4803
X0.4881
X0.496
X0.5039
X0.5118
X0.5196
X0.5275
X0.5354
X0.5433
X0.5511
X0.559
X0.5669
X0.5748
X0.5826
X0.5905
X0.5984
X0.6062
X0.6141
X0.622
X0.6299
X0.6377
X0.6456
X0.6535
X0.6614
X0.6692
X0.6771
X0.685
X0.6929
X0.7007
X0.7086
X0.7165
X0.7244
X0.7322
X0.7401
X0.748
X0.7559
X0.7637
X0.7716
X0.7795
X0.7874
X0.7952
X0.8031
X0.811
X0.8188
X0.8267
X0.8346
X0.8425
X0.8503
X0.8582
X0.8661
X0.874
X0.8818
X0.8897
X0.8976
X0.9055
X0.9133
X0.9212
X0.9291
X0.937
X0.9448
X0.9527
X0.9606
X0.9685
X0.9763
X0.9842
X0.9921
X1
X1.0078
X1.0157
X1.0236
X1.0314
X1.0393
X1.0472
X1.0551
X1.0629
X1.0708
X1.0787
X1.0866
X1.0944
X1.1023
X1.1102
X1.1181
X1.1259
X1.1338
X1.1417
X1.1496
X1.1574
X1.1653
X1.1732
X1.1811
X1.1889
X1.1968
X1.2047
X1.2125
X1.2204
X1.2283
X1.2362
X1.244
X1.2519
X1.2598
X1.2677
X1.2734
G0Z0.3937
 
