(Created with grbl post processor 2026/05/26 18:17)
G20
(G-code Generated with Fabex and NC library)
(Rapids: 196.85/min)
G17G90
(Tool: D = 0.125''  type END flutes 2)
S15000M03
G00 Z0.39 F196.85

G0X0Y0Z0.3937
X-1.2734Y3.375
G1Z-0.125F19.68
X-1.2655F39.37
X-1.2576
X-1.2498
X-1.2419
X-1.234
X-1.2261
X-1.2183
X-1.2104
X-1.2025
X-1.1946
X-1.1868
X-1.1789
X-1.171
X-1.1632
X-1.1553
X-1.1474
X-1.1395
X-1.1317
X-1.1238
X-1.1159
X-1.108
X-1.1002
X-1.0923
X-1.0844
X-1.0765
X-1.0687
X-1.0608
X-1.0529
X-1.045
X-1.0372
X-1.0293
X-1.0214
X-1.0135
X-1.0057
X-0.9978
X-0.9899
X-0.982
X-0.9742
X-0.9663
X-0.9584
X-0.9506
X-0.9427
X-0.9348
X-0.9269
X-0.9191
X-0.9112
X-0.9033
X-0.8954
X-0.8876
X-0.8797
X-0.8718
X-0.8639
X-0.8561
X-0.8482
X-0.8403
X-0.8324
X-0.8246
X-0.8167
X-0.8088
X-0.8009
X-0.7931
X-0.7852
X-0.7773
X-0.7695
X-0.7616
X-0.7537
X-0.7458
X-0.738
X-0.7301
X-0.7222
X-0.7143
X-0.7065
X-0.6986
X-0.6907
X-0.6828
X-0.675
X-0.6671
X-0.6592
X-0.6513
X-0.6435
X-0.6356
X-0.6277
X-0.6198
X-0.612
X-0.6041
X-0.5962
X-0.5883
X-0.5805
X-0.5726
X-0.5647
X-0.5569
X-0.549
X-0.5411
X-0.5332
X-0.5254
X-0.5175
X-0.5096
X-0.5017
X-0.4939
X-0.486
X-0.4781
X-0.4702
X-0.4624
X-0.4545
X-0.4466
X-0.4387
X-0.4309
X-0.423
X-0.4151
X-0.4072
X-0.3994
X-0.3915
X-0.3836
X-0.3758
X-0.3679
X-0.36
X-0.3521
X-0.3443
X-0.3364
X-0.3285
X-0.3206
X-0.3128
X-0.3049
X-0.297
X-0.2891
X-0.2813
X-0.2734
X-0.2655
X-0.2576
X-0.2498
X-0.2419
X-0.234
X-0.2261
X-0.2183
X-0.2104
X-0.2025
X-0.1946
X-0.1868
X-0.1789
X-0.171
X-0.1632
X-0.1553
X-0.1474
X-0.1395
X-0.1317
X-0.1238
X-0.1159
X-0.108
X-0.1002
X-0.0923
X-0.0844
X-0.0765
X-0.0687
X-0.0608
X-0.0529
X-0.045
X-0.0372
X-0.0293
X-0.0214
X-0.0135
X-0.0057
X0
X0.0078
X0.0157
X0.0236
X0.0314
X0.0393
X0.0472
X0.0551
X0.0629
X0.0708
X0.0787
X0.0866
X0.0944
X0.1023
X0.1102
X0.1181
X0.1259
X0.1338
X0.1417
X0.1496
X0.1574
X0.1653
X0.1732
X0.1811
X0.1889
X0.1968
X0.2047
X0.2125
X0.2204
X0.2283
X0.2362
X0.244
X0.2519
X0.2598
X0.2677
X0.2755
X0.2834
X0.2913
X0.2992
X0.307
X0.3149
X0.3228
X0.3307
X0.3385
X0.3464
X0.3543
X0.3622
X0.37
X0.3779
X0.3858
X0.3937
X0.4015
X0.4094
X0.4173
X0.4251
X0.433
X0.4409
X0.4488
X0.4566
X0.4645
X0.4724
X0.4803
X0.4881
X0.496
X0.5039
X0.5118
X0.5196
X0.5275
X0.5354
X0.5433
X0.5511
X0.559
X0.5669
X0.5748
X0.5826
X0.5905
X0.5984
X0.6062
X0.6141
X0.622
X0.6299
X0.6377
X0.6456
X0.6535
X0.6614
X0.6692
X0.6771
X0.685
X0.6929
X0.7007
X0.7086
X0.7165
X0.7244
X0.7322
X0.7401
X0.748
X0.7559
X0.7637
X0.7716
X0.7795
X0.7874
X0.7952
X0.8031
X0.811
X0.8188
X0.8267
X0.8346
X0.8425
X0.8503
X0.8582
X0.8661
X0.874
X0.8818
X0.8897
X0.8976
X0.9055
X0.9133
X0.9212
X0.9291
X0.937
X0.9448
X0.9527
X0.9606
X0.9685
X0.9763
X0.9842
X0.9921
X1
X1.0078
X1.0157
X1.0236
X1.0314
X1.0393
X1.0472
X1.0551
X1.0629
X1.0708
X1.0787
X1.0866
X1.0944
X1.1023
X1.1102
X1.1181
X1.1259
X1.1338
X1.1417
X1.1496
X1.1574
X1.1653
X1.1732
X1.1811
X1.1889
X1.1968
X1.2047
X1.2125
X1.2204
X1.2283
X1.2362
X1.244
X1.2519
X1.2598
X1.2677
X1.2734
X1.2813
X1.2891
X1.297
X1.3049
X1.3128
X1.3206
X1.3285
X1.3364
X1.3443
X1.3521
X1.36
X1.3679
X1.3758
X1.3836
X1.3915
X1.3994
X1.4072
X1.4151
X1.423
X1.4309
X1.4387
X1.4466
X1.4545
X1.4624
X1.4702
X1.4781
X1.486
X1.4939
X1.5017
X1.5096
X1.5175
X1.5254
X1.5332
X1.5411
X1.549
X1.5569
X1.5647
X1.5726
X1.5805
X1.5883
X1.5962
X1.6041
X1.612
X1.6198
X1.6277
X1.6356
X1.6435
X1.6513
X1.6592
X1.6671
X1.675
X1.6828
X1.6907
X1.6986
X1.7065
X1.7143
X1.7222
X1.7301
X1.738
X1.7458
X1.7537
X1.7616
X1.7695
X1.7773
X1.7852
X1.7931
X1.8009
X1.8088
X1.8167
X1.8246
X1.8324
X1.8403
X1.8482
X1.8561
X1.8639
X1.8718
X1.8797
X1.8876
X1.8954
X1.9033
X1.9112
X1.9191
X1.9269
X1.9348
X1.9427
X1.9506
X1.9584
X1.9663
X1.9742
X1.982
X1.9899
X1.9978
X2.0057
X2.0135
X2.0214
X2.0293
X2.0372
X2.045
X2.0529
X2.0608
X2.0687
X2.0765
X2.0844
X2.0923
X2.1002
X2.108
X2.1159
X2.1238
X2.1317
X2.1395
X2.1474
X2.1553
X2.1632
X2.171
X2.1789
X2.1868
X2.1946
X2.2025
X2.2104
X2.2183
X2.2261
X2.234
X2.2419
X2.2498
X2.2576
X2.2655
X2.2734
X2.2813
X2.2891
X2.297
X2.3049
X2.3128
X2.3206
X2.3285
X2.3364
X2.3443
X2.3521
X2.36
X2.3679
X2.3758
X2.3836
X2.3915
X2.3994
X2.4072
X2.4151
X2.423
X2.4309
X2.4387
X2.4466
X2.4545
X2.4624
X2.4702
X2.4781
X2.486
X2.4939
X2.5017
X2.5096
X2.5175
X2.5254
X2.5332
X2.5411
X2.5468
X2.5547
X2.5626
X2.5704
X2.5783
X2.5862
X2.5941
X2.6019
X2.6098
X2.6177
X2.6256
X2.6334
X2.6413
X2.6492
X2.6571
X2.6649
X2.6728
X2.6807
X2.6886
X2.6964
X2.7043
X2.7122
X2.7201
X2.7279
X2.7358
X2.7437
X2.7515
X2.7594
X2.7673
X2.7752
X2.783
X2.7909
X2.7988
X2.8067
X2.8145
X2.8224
X2.8303
X2.8382
X2.846
X2.8539
X2.8618
X2.8697
X2.8775
X2.8854
X2.8933
X2.9012
X2.909
X2.9169
X2.9248
X2.9327
X2.9405
X2.9484
X2.9563
X2.9641
X2.972
X2.9799
X2.9878
X2.9956
X3.0035
X3.0114
X3.0193
X3.0271
X3.035
X3.0429
X3.0508
X3.0586
X3.0665
X3.0744
X3.0823
X3.0901
X3.098
X3.1059
X3.1138
X3.1216
X3.1295
X3.1374
X3.1453
X3.1531
X3.161
X3.1689
X3.1767
X3.1846
X3.1925
X3.2004
X3.2082
X3.2161
X3.224
X3.2319
X3.2397
X3.2476
X3.2555
X3.2634
X3.2712
X3.2791
X3.287
X3.2949
X3.3027
X3.3106
X3.3185
X3.3264
X3.3342
X3.3421
X3.35
X3.3578
X3.3657
X3.3736
X3.3815
X3.3893
X3.3972
X3.4051
X3.413
X3.4208
X3.4287
X3.4366
X3.4445
X3.4523
X3.4602
X3.4681
X3.476
X3.4838
X3.4917
X3.4996
X3.5075
X3.5153
X3.5232
X3.5311
X3.539
X3.5468
X3.5547
X3.5626
X3.5704
X3.5783
X3.5862
X3.5941
X3.6019
X3.6098
X3.6177
X3.6256
X3.6334
X3.6413
X3.6492
X3.6571
X3.6649
X3.6728
X3.6807
X3.6886
X3.6964
X3.7043
X3.7122
X3.7201
X3.7279
X3.7358
X3.7437
X3.7515
X3.7594
X3.7673
X3.7752
X3.783
X3.7909
X3.7988
X3.8067
X3.8145
X3.8203
X3.8281
X3.836
X3.8439
X3.8518
X3.8596
X3.8675
X3.8754
X3.8833
X3.8911
X3.899
X3.9069
X3.9148
X3.9226
X3.9305
X3.9384
X3.9462
X3.9541
X3.962
X3.9699
X3.9777
X3.9856
X3.9935
X4.0014
X4.0092
X4.0171
X4.025
X4.0329
X4.0407
X4.0486
X4.0565
X4.0644
X4.0722
X4.0801
X4.088
X4.0959
X4.1037
X4.1116
X4.1195
X4.1273
X4.1352
X4.1431
X4.151
X4.1588
X4.1667
X4.1746
X4.1825
X4.1903
X4.1982
X4.2061
X4.214
X4.2218
X4.2297
X4.2376
X4.2455
X4.2533
X4.2612
X4.2691
X4.277
X4.2848
X4.2927
X4.3006
X4.3085
X4.3163
X4.3242
X4.3321
X4.3399
X4.3478
X4.3557
X4.3636
X4.3714
X4.3793
X4.3872
X4.3951
X4.4029
X4.4108
X4.4187
X4.4266
X4.4344
X4.4423
X4.4502
X4.4581
X4.4659
X4.4738
X4.4817
X4.4896
X4.4974
X4.5053
X4.5132
X4.5211
X4.5289
X4.5368
X4.5447
X4.5525
X4.5604
X4.5683
X4.5762
X4.584
X4.5919
X4.5998
X4.6077
X4.6155
X4.6234
X4.6313
X4.6392
X4.647
X4.6549
X4.6628
X4.6707
X4.6785
X4.6864
X4.6943
X4.7022
X4.71
X4.7179
X4.7258
X4.7336
X4.7415
X4.7494
X4.7573
X4.7651
X4.773
X4.7809
X4.7888
X4.7966
X4.8045
X4.8124
X4.8203
X4.8281
X4.836
X4.8439
X4.8518
X4.8596
X4.8675
X4.8754
X4.8833
X4.8911
X4.899
X4.9069
X4.9148
X4.9226
X4.9305
X4.9384
X4.9462
X4.9541
X4.962
X4.9699
X4.9777
X4.9856
X4.9935
X5.0014
X5.0092
X5.0171
X5.025
X5.0329
X5.0407
X5.0486
X5.0565
X5.0644
X5.0722
X5.0801
X5.088
X5.0937
X5.1016
X5.1094
X5.1173
X5.1252
X5.1331
X5.1409
X5.1488
X5.1567
X5.1646
X5.1724
X5.1803
X5.1882
X5.1961
X5.2039
X5.2118
X5.2197
X5.2276
X5.2354
X5.2433
X5.2512
X5.2591
X5.2669
X5.2748
X5.2827
X5.2906
X5.2984
X5.3063
X5.3142
X5.322
X5.3299
X5.3378
X5.3457
X5.3535
X5.3614
X5.3693
X5.3772
X5.385
X5.3929
X5.4008
X5.4087
X5.4165
X5.4244
X5.4323
X5.4402
X5.448
X5.4559
X5.4638
X5.4717
X5.4795
X5.4874
X5.4953
X5.5031
X5.511
X5.5189
X5.5268
X5.5346
X5.5425
X5.5504
X5.5583
X5.5661
X5.574
X5.5819
X5.5898
X5.5976
X5.6055
X5.6134
X5.6213
X5.6291
X5.637
X5.6449
X5.6528
X5.6606
X5.6685
X5.6764
X5.6843
X5.6921
X5.7
X5.7079
X5.7157
X5.7236
X5.7315
X5.7394
X5.7472
X5.7551
X5.763
X5.7709
X5.7787
X5.7866
X5.7945
X5.8024
X5.8102
X5.8181
X5.826
X5.8339
X5.8417
X5.8496
X5.8575
X5.8654
X5.8732
X5.8811
X5.889
X5.8969
X5.9047
X5.9126
X5.9205
X5.9283
X5.9362
X5.9441
X5.952
X5.9598
X5.9677
X5.9756
X5.9835
X5.9913
X5.9992
X6.0071
X6.015
X6.0228
X6.0307
X6.0386
X6.0465
X6.0543
X6.0622
X6.0701
X6.078
X6.0858
X6.0937
X6.1016
X6.1094
X6.1173
X6.1252
X6.1331
X6.1409
X6.1488
X6.1567
X6.1646
X6.1724
X6.1803
X6.1882
X6.1961
X6.2039
X6.2118
X6.2197
X6.2276
X6.2354
X6.2433
X6.2512
X6.2591
X6.2669
X6.2748
X6.2827
X6.2906
X6.2984
X6.3063
X6.3142
X6.322
X6.3299
X6.3378
X6.3457
X6.3535
X6.3614
X6.3671
X6.375
X6.3829
X6.3908
X6.3986
X6.4065
X6.4144
X6.4223
X6.4301
X6.438
X6.4459
X6.4538
X6.4616
X6.4695
X6.4774
X6.4852
X6.4931
X6.501
X6.5089
X6.5167
X6.5246
X6.5325
X6.5404
X6.5482
X6.5561
X6.564
X6.5719
X6.5797
X6.5876
X6.5955
X6.6034
X6.6112
X6.6191
X6.627
X6.6349
X6.6427
X6.6506
X6.6585
X6.6664
X6.6742
X6.6821
X6.69
X6.6978
X6.7057
X6.7136
X6.7215
X6.7293
X6.7372
X6.7451
X6.753
X6.7608
X6.7687
X6.7766
X6.7845
X6.7923
X6.8002
X6.8081
X6.816
X6.8238
X6.8317
X6.8396
X6.8475
X6.8553
X6.8632
X6.8711
X6.8789
X6.8868
X6.8947
X6.9026
X6.9104
X6.9183
X6.9262
X6.9341
X6.9419
X6.9498
X6.9577
X6.9656
X6.9734
X6.9813
X6.9892
X6.9971
X7.0049
X7.0128
X7.0207
X7.0286
X7.0364
X7.0443
X7.0522
X7.0601
X7.0679
X7.0758
X7.0837
X7.0915
X7.0994
X7.1073
X7.1152
X7.123
X7.1309
X7.1388
X7.1467
X7.1545
X7.1624
X7.1703
X7.1782
X7.186
X7.1939
X7.2018
X7.2097
X7.2175
X7.2254
X7.2333
X7.2412
X7.249
X7.2569
X7.2648
X7.2726
X7.2805
X7.2884
X7.2963
X7.3041
X7.312
X7.3199
X7.3278
X7.3356
X7.3435
X7.3514
X7.3593
X7.3671
X7.375
X7.3829
X7.3908
X7.3986
X7.4065
X7.4144
X7.4223
X7.4301
X7.438
X7.4459
X7.4538
X7.4616
X7.4695
X7.4774
X7.4852
X7.4931
X7.501
X7.5089
X7.5167
X7.5246
X7.5325
X7.5404
X7.5482
X7.5561
X7.564
X7.5719
X7.5797
X7.5876
X7.5955
X7.6034
X7.6112
X7.6191
X7.627
X7.6349
X7.6406
X7.6485
X7.6563
X7.6642
X7.6721
X7.6799
X7.6878
X7.6957
X7.7036
X7.7114
X7.7193
X7.7272
X7.7351
X7.7429
X7.7508
X7.7587
X7.7666
X7.7744
X7.7823
X7.7902
X7.7981
X7.8059
X7.8138
X7.8217
X7.8296
X7.8374
X7.8453
X7.8532
X7.861
X7.8689
X7.8768
X7.8847
X7.8925
X7.9004
X7.9083
X7.9162
X7.924
X7.9319
X7.9398
X7.9477
X7.9555
X7.9634
X7.9713
X7.9792
X7.987
X7.9949
X8.0028
X8.0107
X8.0185
X8.0264
X8.0343
X8.0422
X8.05
X8.0579
X8.0658
X8.0736
X8.0815
X8.0894
X8.0973
X8.1051
X8.113
X8.1209
X8.1288
X8.1366
X8.1445
X8.1524
X8.1603
X8.1681
X8.176
X8.1839
X8.1918
X8.1996
X8.2075
X8.2154
X8.2233
X8.2311
X8.239
X8.2469
X8.2547
X8.2626
X8.2705
X8.2784
X8.2862
X8.2941
X8.302
X8.3099
X8.3177
X8.3256
X8.3335
X8.3414
X8.3492
X8.3571
X8.365
X8.3729
X8.3807
X8.3886
X8.3965
X8.4044
X8.4122
X8.4201
X8.428
X8.4359
X8.4437
X8.4516
X8.4595
X8.4673
X8.4752
X8.4831
X8.491
X8.4988
X8.5067
X8.5146
X8.5225
X8.5303
X8.5382
X8.5461
X8.554
X8.5618
X8.5697
X8.5776
X8.5855
X8.5933
X8.6012
X8.6091
X8.617
X8.6248
X8.6327
X8.6406
X8.6485
X8.6563
X8.6642
X8.6721
X8.6799
X8.6878
X8.6957
X8.7036
X8.7114
X8.7193
X8.7272
X8.7351
X8.7429
X8.7508
X8.7587
X8.7666
X8.7744
X8.7823
X8.7902
X8.7981
X8.8059
X8.8138
X8.8217
X8.8296
X8.8374
X8.8453
X8.8532
X8.861
X8.8689
X8.8768
X8.8847
X8.8925
X8.9004
X8.9083
X8.914
X8.9219
X8.9298
X8.9376
X8.9455
X8.9534
X8.9613
X8.9691
X8.977
X8.9849
X8.9928
X9.0006
X9.0085
X9.0164
X9.0242
X9.0321
X9.04
X9.0479
X9.0557
X9.0636
X9.0715
X9.0794
X9.0872
X9.0951
X9.103
X9.1109
X9.1187
X9.1266
X9.1345
X9.1424
X9.1502
X9.1581
X9.166
X9.1739
X9.1817
X9.1896
X9.1975
X9.2054
X9.2132
X9.2211
X9.229
X9.2368
X9.2447
X9.2526
X9.2605
X9.2683
X9.2762
X9.2841
X9.292
X9.2998
X9.3077
X9.3156
X9.3235
X9.3313
X9.3392
X9.3471
X9.355
X9.3628
X9.3707
X9.3786
X9.3865
X9.3943
X9.4022
X9.4101
X9.418
X9.4258
X9.4337
X9.4416
X9.4494
X9.4573
X9.4652
X9.4731
X9.4809
X9.4888
X9.4967
X9.5046
X9.5124
X9.5203
X9.5282
X9.5361
X9.5439
X9.5518
X9.5597
X9.5676
X9.5754
X9.5833
X9.5912
X9.5991
X9.6069
X9.6148
X9.6227
X9.6305
X9.6384
X9.6463
X9.6542
X9.662
X9.6699
X9.6778
X9.6857
X9.6935
X9.7014
X9.7093
X9.7172
X9.725
X9.7329
X9.7408
X9.7487
X9.7565
X9.7644
X9.7723
X9.7802
X9.788
X9.7959
X9.8038
X9.8117
X9.8195
X9.8274
X9.8353
X9.8431
X9.851
X9.8589
X9.8668
X9.8746
X9.8825
X9.8904
X9.8983
X9.9061
X9.914
X9.9219
X9.9298
X9.9376
X9.9455
X9.9534
X9.9613
X9.9691
X9.977
X9.9849
X9.9928
X10.0006
X10.0085
X10.0164
X10.0242
X10.0321
X10.04
X10.0479
X10.0557
X10.0636
X10.0715
X10.0794
X10.0872
X10.0951
X10.103
X10.1109
X10.1187
X10.1266
X10.1345
X10.1424
X10.1502
X10.1581
X10.166
X10.1739
X10.1817
X10.1875
X10.1878
X10.1882
X10.1886Y3.3749
X10.189
X10.1894
X10.1898
X10.1902
X10.1906Y3.3748
X10.191
X10.1914
X10.1918
X10.1922
X10.1926Y3.3747
X10.193
X10.1934
X10.1938
X10.1941Y3.3746
X10.1945
X10.1949Y3.3745
X10.1953Y3.3744
X10.1957
X10.1961Y3.3743
X10.1965
X10.1969Y3.3742
X10.1973Y3.3741
X10.1976
X10.198Y3.374
X10.1984
X10.1988Y3.3739
X10.1992Y3.3738
X10.1996
X10.2Y3.3737
X10.2004Y3.3736
X10.2008Y3.3735
X10.2011Y3.3734
X10.2015Y3.3733
X10.2019Y3.3732
X10.2023Y3.3731
X10.2027Y3.373
X10.203Y3.3729
X10.2034Y3.3728
X10.2038Y3.3727
X10.2042Y3.3726
X10.2046Y3.3725
X10.2049Y3.3724
X10.2053Y3.3723
X10.2057Y3.3722
X10.2061Y3.3721
X10.2065Y3.372
X10.2068Y3.3719
X10.2072Y3.3717
X10.2076Y3.3716
X10.2079Y3.3715
X10.2083Y3.3713
X10.2087Y3.3712
X10.2091Y3.3711
X10.2094Y3.3709
X10.2098Y3.3708
X10.2102Y3.3706
X10.2105Y3.3705
X10.2109Y3.3704
X10.2113Y3.3702
X10.2116Y3.3701
X10.212Y3.37
X10.2124Y3.3698
X10.2127Y3.3696
X10.2131Y3.3694
X10.2134Y3.3693
X10.2138Y3.3691
X10.2141Y3.3689
X10.2145Y3.3687
X10.2148Y3.3686
X10.2152Y3.3684
X10.2156Y3.3682
X10.2159Y3.3681
X10.2163Y3.3679
X10.2166Y3.3677
X10.217Y3.3675
X10.2173Y3.3674
X10.2177Y3.3672
X10.218Y3.367
X10.2184Y3.3668
X10.2187Y3.3666
X10.219Y3.3664
X10.2194Y3.3662
X10.2197Y3.3659
X10.22Y3.3657
X10.2204Y3.3655
X10.2207Y3.3653
X10.221Y3.3651
X10.2214Y3.3649
X10.2217Y3.3647
X10.222Y3.3645
X10.2224Y3.3643
X10.2227Y3.3641
X10.223Y3.3639
X10.2234Y3.3636
X10.2237Y3.3634
X10.224Y3.3631
X10.2243Y3.3629
X10.2246Y3.3627
X10.2249Y3.3624
X10.2252Y3.3622
X10.2255Y3.3619
X10.2259Y3.3617
X10.2262Y3.3615
X10.2265Y3.3612
X10.2268Y3.361
X10.2271Y3.3607
X10.2274Y3.3605
X10.2277Y3.3603
X10.228Y3.36
X10.2284Y3.3597
X10.2286Y3.3595
X10.2289Y3.3592
X10.2292Y3.3589
X10.2295Y3.3587
X10.2298Y3.3584
X10.23Y3.3581
X10.2303Y3.3579
X10.2306Y3.3576
X10.2309Y3.3574
X10.2311Y3.3571
X10.2314Y3.3568
X10.2317Y3.3566
X10.232Y3.3563
X10.2323Y3.356
X10.2325Y3.3558
X10.2328Y3.3555
X10.233Y3.3552
X10.2333Y3.3549
X10.2335Y3.3546
X10.2338Y3.3543
X10.2341Y3.354
X10.2343Y3.3538
X10.2346Y3.3535
X10.2348Y3.3532
X10.2351Y3.3529
X10.2353Y3.3526
X10.2356Y3.3523
X10.2358Y3.352
X10.2361Y3.3517
X10.2363Y3.3514
X10.2366Y3.3512
X10.2368Y3.3508
X10.237Y3.3505
X10.2372Y3.3502
X10.2375Y3.3499
X10.2377Y3.3496
X10.2379Y3.3493
X10.2381Y3.349
X10.2383Y3.3487
X10.2386Y3.3483
X10.2388Y3.348
X10.239Y3.3477
X10.2392Y3.3474
X10.2395Y3.3471
X10.2397Y3.3468
X10.2399Y3.3465
X10.2401Y3.3462
X10.2403Y3.3458
X10.2405Y3.3455
X10.2407Y3.3452
X10.2409Y3.3448
X10.2411Y3.3445
X10.2413Y3.3442
X10.2415Y3.3438
X10.2417Y3.3435
X10.2418Y3.3432
X10.242Y3.3428
X10.2422Y3.3425
X10.2424Y3.3422
X10.2426Y3.3418
X10.2428Y3.3415
X10.243Y3.3412
X10.2432Y3.3408
X10.2433Y3.3405
X10.2435Y3.3401
X10.2436Y3.3398
X10.2438Y3.3394
X10.244Y3.3391
X10.2441Y3.3387
X10.2443Y3.3384
X10.2444Y3.338
X10.2446Y3.3377
X10.2447Y3.3373
X10.2449Y3.337
X10.2451Y3.3366
X10.2452Y3.3363
X10.2454Y3.3359
X10.2455Y3.3356
X10.2457Y3.3352
X10.2458Y3.3349
X10.2459Y3.3345
X10.2461Y3.3341
X10.2462Y3.3338
X10.2463Y3.3334
X10.2464Y3.3331
X10.2465Y3.3327
X10.2467Y3.3323
X10.2468Y3.332
X10.2469Y3.3316
X10.247Y3.3312
X10.2472Y3.3309
X10.2473Y3.3305
X10.2474Y3.3302
X10.2475Y3.3298
X10.2476Y3.3294
X10.2477Y3.3291
X10.2478Y3.3287
X10.2479Y3.3283
X10.248Y3.3279
X10.2481Y3.3276
X10.2482Y3.3272
Y3.3268
X10.2483Y3.3264
X10.2484Y3.3261
X10.2485Y3.3257
X10.2486Y3.3253
X10.2487Y3.3249
X10.2488Y3.3246
Y3.3242
X10.2489Y3.3238
X10.249Y3.3234
X10.2491Y3.3231
Y3.3227
X10.2492Y3.3223
Y3.3219
X10.2493Y3.3215
Y3.3212
X10.2494Y3.3208
Y3.3204
X10.2495Y3.32
Y3.3196
X10.2496Y3.3193
Y3.3189
Y3.3185
X10.2497Y3.3181
Y3.3177
X10.2498Y3.3174
Y3.3171
Y3.3167
Y3.3164
Y3.3161
X10.2499Y3.3158
Y3.3155
Y3.3152
Y3.3149
Y3.3146
Y3.3143
Y3.314
Y3.3137
X10.25Y3.3134
Y3.3131
Y3.3128
Y3.3125
Y3.3046
Y3.2967
Y3.2888
Y3.281
Y3.2731
Y3.2652
Y3.2573
Y3.2495
Y3.2416
Y3.2337
Y3.2258
Y3.218
Y3.2101
Y3.2022
Y3.1943
Y3.1865
Y3.1786
Y3.1707
Y3.1628
Y3.155
Y3.1471
Y3.1392
Y3.1313
Y3.1235
Y3.1156
Y3.1077
Y3.0999
Y3.092
Y3.0841
Y3.0762
Y3.0684
Y3.0605
Y3.0526
Y3.0447
Y3.0369
Y3.029
Y3.0211
Y3.0132
Y3.0054
Y2.9975
Y2.9896
Y2.9817
Y2.9739
Y2.966
Y2.9581
Y2.9502
Y2.9424
Y2.9345
Y2.9266
Y2.9187
Y2.9109
Y2.903
Y2.8984
Y2.8905
Y2.8826
Y2.8748
Y2.8669
Y2.859
Y2.8511
Y2.8433
Y2.8354
Y2.8275
Y2.8196
Y2.8118
Y2.8039
Y2.796
Y2.7882
Y2.7803
Y2.7724
Y2.7645
Y2.7567
Y2.7488
Y2.7409
Y2.733
Y2.7252
Y2.7173
Y2.7094
Y2.7015
Y2.6937
Y2.6858
Y2.6779
Y2.67
Y2.6622
Y2.6543
Y2.6464
Y2.6385
Y2.6307
Y2.6228
Y2.6149
Y2.607
Y2.5992
Y2.5913
Y2.5834
Y2.5756
Y2.5677
Y2.5598
Y2.5519
Y2.5441
Y2.5362
Y2.5283
Y2.5204
Y2.5126
Y2.5047
Y2.4968
Y2.4889
Y2.4843
Y2.4765
Y2.4686
Y2.4607
Y2.4528
Y2.445
Y2.4371
Y2.4292
Y2.4213
Y2.4135
Y2.4056
Y2.3977
Y2.3898
Y2.382
Y2.3741
Y2.3662
Y2.3583
Y2.3505
Y2.3426
Y2.3347
Y2.3268
Y2.319
Y2.3111
Y2.3032
Y2.2953
Y2.2875
Y2.2796
Y2.2717
Y2.2639
Y2.256
Y2.2481
Y2.2402
Y2.2324
Y2.2245
Y2.2166
Y2.2087
Y2.2009
Y2.193
Y2.1851
Y2.1772
Y2.1694
Y2.1615
Y2.1536
Y2.1457
Y2.1379
Y2.13
Y2.1221
Y2.1142
Y2.1064
Y2.0985
Y2.0906
Y2.0828
Y2.0749
Y2.0703
Y2.0624
Y2.0545
Y2.0466
Y2.0388
Y2.0309
Y2.023
Y2.0151
Y2.0073
Y1.9994
Y1.9915
Y1.9836
Y1.9758
Y1.9679
Y1.96
Y1.9522
Y1.9443
Y1.9364
Y1.9285
Y1.9207
Y1.9128
Y1.9049
Y1.897
Y1.8892
Y1.8813
Y1.8734
Y1.8655
Y1.8577
Y1.8498
Y1.8419
Y1.834
Y1.8262
Y1.8183
Y1.8104
Y1.8025
Y1.7947
Y1.7868
Y1.7789
Y1.7711
Y1.7632
Y1.7553
Y1.7474
Y1.7396
Y1.7317
Y1.7238
Y1.7159
Y1.7081
Y1.7002
Y1.6923
Y1.6844
Y1.6766
Y1.6687
Y1.6608
Y1.6562
Y1.6483
Y1.6405
Y1.6326
Y1.6247
Y1.6168
Y1.609
Y1.6011
Y1.5932
Y1.5853
Y1.5775
Y1.5696
Y1.5617
Y1.5538
Y1.546
Y1.5381
Y1.5302
Y1.5223
Y1.5145
Y1.5066
Y1.4987
Y1.4908
Y1.483
Y1.4751
Y1.4672
Y1.4594
Y1.4515
Y1.4436
Y1.4357
Y1.4279
Y1.42
Y1.4121
Y1.4042
Y1.3964
Y1.3885
Y1.3806
Y1.3727
Y1.3649
Y1.357
Y1.3491
Y1.3412
Y1.3334
Y1.3255
Y1.3176
Y1.3097
Y1.3019
Y1.294
Y1.2861
Y1.2782
Y1.2704
Y1.2625
Y1.2546
Y1.2468
Y1.2421
Y1.2343
Y1.2264
Y1.2185
Y1.2106
Y1.2028
Y1.1949
Y1.187
Y1.1791
Y1.1713
Y1.1634
Y1.1555
Y1.1476
Y1.1398
Y1.1319
Y1.124
Y1.1162
Y1.1083
Y1.1004
Y1.0925
Y1.0847
Y1.0768
Y1.0689
Y1.061
Y1.0532
Y1.0453
Y1.0374
Y1.0295
Y1.0217
Y1.0138
Y1.0059
Y0.998
Y0.9902
Y0.9823
Y0.9744
Y0.9665
Y0.9587
Y0.9508
Y0.9429
Y0.9351
Y0.9272
Y0.9193
Y0.9114
Y0.9036
Y0.8957
Y0.8878
Y0.8799
Y0.8721
Y0.8642
Y0.8563
Y0.8484
Y0.8406
Y0.8327
Y0.8281
Y0.8202
Y0.8123
Y0.8045
Y0.7966
Y0.7887
Y0.7808
Y0.773
Y0.7651
Y0.7572
Y0.7493
Y0.7415
Y0.7336
Y0.7257
Y0.7178
Y0.71
Y0.7021
Y0.6942
Y0.6863
Y0.6785
Y0.6706
Y0.6627
Y0.6548
Y0.647
Y0.6391
Y0.6312
Y0.6234
Y0.6155
Y0.6076
Y0.5997
Y0.5919
Y0.584
Y0.5761
Y0.5682
Y0.5604
Y0.5525
Y0.5446
Y0.5367
Y0.5289
Y0.521
Y0.5131
Y0.5052
Y0.4974
Y0.4895
Y0.4816
Y0.4737
Y0.4659
Y0.458
Y0.4501
Y0.4422
Y0.4344
Y0.4265
Y0.4186
Y0.414
Y0.4061
Y0.3983
Y0.3904
Y0.3825
Y0.3746
Y0.3668
Y0.3589
Y0.351
Y0.3431
Y0.3353
Y0.3274
Y0.3195
Y0.3117
Y0.3038
Y0.2959
Y0.288
Y0.2802
Y0.2723
Y0.2644
Y0.2565
Y0.2487
Y0.2408
Y0.2329
Y0.225
Y0.2172
Y0.2093
Y0.2014
Y0.1935
Y0.1857
Y0.1778
Y0.1699
Y0.162
Y0.1542
Y0.1463
Y0.1384
Y0.1305
Y0.1227
Y0.1148
Y0.1069
Y0.0991
Y0.0912
Y0.0833
Y0.0754
Y0.0676
Y0.0597
Y0.0518
Y0.0439
Y0.0361
Y0.0282
Y0.0203
Y0.0124
Y0.0046
Y0
Y-0.0078
Y-0.0157
Y-0.0236
Y-0.0314
Y-0.0393
Y-0.0472
Y-0.0551
Y-0.0629
Y-0.0708
Y-0.0787
Y-0.0866
Y-0.0944
Y-0.1023
Y-0.1102
Y-0.1181
Y-0.1259
Y-0.1338
Y-0.1417
Y-0.1496
Y-0.1574
Y-0.1653
Y-0.1732
Y-0.1811
Y-0.1889
Y-0.1968
Y-0.2047
Y-0.2125
Y-0.2204
Y-0.2283
Y-0.2362
Y-0.244
Y-0.2519
Y-0.2598
Y-0.2677
Y-0.2755
Y-0.2834
Y-0.2913
Y-0.2992
Y-0.307
Y-0.3149
Y-0.3228
Y-0.3307
Y-0.3385
Y-0.3464
Y-0.3543
Y-0.3622
Y-0.37
Y-0.3779
Y-0.3858
Y-0.3937
Y-0.4015
Y-0.4094
Y-0.414
Y-0.4219
Y-0.4298
Y-0.4376
Y-0.4455
Y-0.4534
Y-0.4613
Y-0.4691
Y-0.477
Y-0.4849
Y-0.4928
Y-0.5006
Y-0.5085
Y-0.5164
Y-0.5242
Y-0.5321
Y-0.54
Y-0.5479
Y-0.5557
Y-0.5636
Y-0.5715
Y-0.5794
Y-0.5872
Y-0.5951
Y-0.603
Y-0.6109
Y-0.6187
Y-0.6266
Y-0.6345
Y-0.6424
Y-0.6502
Y-0.6581
Y-0.666
Y-0.6739
Y-0.6817
Y-0.6896
Y-0.6975
Y-0.7054
Y-0.7132
Y-0.7211
Y-0.729
Y-0.7368
Y-0.7447
Y-0.7526
Y-0.7605
Y-0.7683
Y-0.7762
Y-0.7841
Y-0.792
Y-0.7998
Y-0.8077
Y-0.8156
Y-0.8235
Y-0.8281
Y-0.8359
Y-0.8438
Y-0.8517
Y-0.8596
Y-0.8674
Y-0.8753
Y-0.8832
Y-0.8911
Y-0.8989
Y-0.9068
Y-0.9147
Y-0.9226
Y-0.9304
Y-0.9383
Y-0.9462
Y-0.9541
Y-0.9619
Y-0.9698
Y-0.9777
Y-0.9856
Y-0.9934
Y-1.0013
Y-1.0092
Y-1.0171
Y-1.0249
Y-1.0328
Y-1.0407
Y-1.0485
Y-1.0564
Y-1.0643
Y-1.0722
Y-1.08
Y-1.0879
Y-1.0958
Y-1.1037
Y-1.1115
Y-1.1194
Y-1.1273
Y-1.1352
Y-1.143
Y-1.1509
Y-1.1588
Y-1.1667
Y-1.1745
Y-1.1824
Y-1.1903
Y-1.1982
Y-1.206
Y-1.2139
Y-1.2218
Y-1.2297
Y-1.2375
Y-1.2421
Y-1.25
Y-1.2579
Y-1.2658
Y-1.2736
Y-1.2815
Y-1.2894
Y-1.2973
Y-1.3051
Y-1.313
Y-1.3209
Y-1.3288
Y-1.3366
Y-1.3445
Y-1.3524
Y-1.3602
Y-1.3681
Y-1.376
Y-1.3839
Y-1.3917
Y-1.3996
Y-1.4075
Y-1.4154
Y-1.4232
Y-1.4311
Y-1.439
Y-1.4469
Y-1.4547
Y-1.4626
Y-1.4705
Y-1.4784
Y-1.4862
Y-1.4941
Y-1.502
Y-1.5099
Y-1.5177
Y-1.5256
Y-1.5335
Y-1.5414
Y-1.5492
Y-1.5571
Y-1.565
Y-1.5728
Y-1.5807
Y-1.5886
Y-1.5965
Y-1.6043
Y-1.6122
Y-1.6201
Y-1.628
Y-1.6358
Y-1.6437
Y-1.6516
Y-1.6562
Y-1.6641
Y-1.6719
Y-1.6798
Y-1.6877
Y-1.6956
Y-1.7034
Y-1.7113
Y-1.7192
Y-1.7271
Y-1.7349
Y-1.7428
Y-1.7507
Y-1.7586
Y-1.7664
Y-1.7743
Y-1.7822
Y-1.7901
Y-1.7979
Y-1.8058
Y-1.8137
Y-1.8216
Y-1.8294
Y-1.8373
Y-1.8452
Y-1.8531
Y-1.8609
Y-1.8688
Y-1.8767
Y-1.8845
Y-1.8924
Y-1.9003
Y-1.9082
Y-1.916
Y-1.9239
Y-1.9318
Y-1.9397
Y-1.9475
Y-1.9554
Y-1.9633
Y-1.9712
Y-1.979
Y-1.9869
Y-1.9948
Y-2.0027
Y-2.0105
Y-2.0184
Y-2.0263
Y-2.0342
Y-2.042
Y-2.0499
Y-2.0578
Y-2.0656
Y-2.0703
Y-2.0781
Y-2.086
Y-2.0939
Y-2.1018
Y-2.1096
Y-2.1175
Y-2.1254
Y-2.1333
Y-2.1411
Y-2.149
Y-2.1569
Y-2.1648
Y-2.1726
Y-2.1805
Y-2.1884
Y-2.1962
Y-2.2041
Y-2.212
Y-2.2199
Y-2.2277
Y-2.2356
Y-2.2435
Y-2.2514
Y-2.2592
Y-2.2671
Y-2.275
Y-2.2829
Y-2.2907
Y-2.2986
Y-2.3065
Y-2.3144
Y-2.3222
Y-2.3301
Y-2.338
Y-2.3459
Y-2.3537
Y-2.3616
Y-2.3695
Y-2.3773
Y-2.3852
Y-2.3931
Y-2.401
Y-2.4088
Y-2.4167
Y-2.4246
Y-2.4325
Y-2.4403
Y-2.4482
Y-2.4561
Y-2.464
Y-2.4718
Y-2.4797
Y-2.4843
Y-2.4922
Y-2.5001
Y-2.5079
Y-2.5158
Y-2.5237
Y-2.5316
Y-2.5394
Y-2.5473
Y-2.5552
Y-2.5631
Y-2.5709
Y-2.5788
Y-2.5867
Y-2.5946
Y-2.6024
Y-2.6103
Y-2.6182
Y-2.6261
Y-2.6339
Y-2.6418
Y-2.6497
Y-2.6576
Y-2.6654
Y-2.6733
Y-2.6812
Y-2.689
Y-2.6969
Y-2.7048
Y-2.7127
Y-2.7205
Y-2.7284
Y-2.7363
Y-2.7442
Y-2.752
Y-2.7599
Y-2.7678
Y-2.7757
Y-2.7835
Y-2.7914
Y-2.7993
Y-2.8072
Y-2.815
Y-2.8229
Y-2.8308
Y-2.8387
Y-2.8465
Y-2.8544
Y-2.8623
Y-2.8702
Y-2.878
Y-2.8859
Y-2.8938
Y-2.8984
Y-2.9063
Y-2.9141
Y-2.922
Y-2.9299
Y-2.9378
Y-2.9456
Y-2.9535
Y-2.9614
Y-2.9693
Y-2.9771
Y-2.985
Y-2.9929
Y-3.0008
Y-3.0086
Y-3.0165
Y-3.0244
Y-3.0322
Y-3.0401
Y-3.048
Y-3.0559
Y-3.0637
Y-3.0716
Y-3.0795
Y-3.0874
Y-3.0952
Y-3.1031
Y-3.111
Y-3.1189
Y-3.1267
Y-3.1346
Y-3.1425
Y-3.1504
Y-3.1582
Y-3.1661
Y-3.174
Y-3.1819
Y-3.1897
Y-3.1976
Y-3.2055
Y-3.2133
Y-3.2212
Y-3.2291
Y-3.237
Y-3.2448
Y-3.2527
Y-3.2606
Y-3.2685
Y-3.2763
Y-3.2842
Y-3.2921
Y-3.3
Y-3.3078
Y-3.3125
Y-3.3128
Y-3.3132
X10.2499Y-3.3136
Y-3.314
Y-3.3144
Y-3.3147
Y-3.3151
X10.2498Y-3.3155
Y-3.3159
Y-3.3163
Y-3.3167
Y-3.317
X10.2497Y-3.3174
Y-3.3178
Y-3.3182
Y-3.3186
X10.2496Y-3.319
Y-3.3193
X10.2495Y-3.3197
Y-3.3201
X10.2494Y-3.3205
Y-3.3209
X10.2493Y-3.3212
X10.2492Y-3.3216
Y-3.322
X10.2491Y-3.3224
Y-3.3227
X10.249Y-3.3231
Y-3.3235
X10.2489Y-3.3239
X10.2488Y-3.3243
Y-3.3246
X10.2487Y-3.325
X10.2486Y-3.3254
X10.2485Y-3.3258
X10.2484Y-3.3261
X10.2483Y-3.3265
X10.2482Y-3.3269
X10.2481Y-3.3272
X10.248Y-3.3276
Y-3.328
X10.2479Y-3.3284
X10.2478Y-3.3287
X10.2477Y-3.3291
X10.2476Y-3.3295
X10.2475Y-3.3298
X10.2474Y-3.3302
X10.2473Y-3.3306
X10.2472Y-3.331
X10.247Y-3.3313
X10.2469Y-3.3317
X10.2468Y-3.332
X10.2467Y-3.3324
X10.2465Y-3.3328
X10.2464Y-3.3331
X10.2463Y-3.3335
X10.2461Y-3.3338
X10.246Y-3.3342
X10.2459Y-3.3346
X10.2457Y-3.3349
X10.2456Y-3.3353
X10.2455Y-3.3356
X10.2454Y-3.336
X10.2452Y-3.3364
X10.2451Y-3.3367
X10.2449Y-3.3371
X10.2447Y-3.3374
X10.2446Y-3.3378
X10.2444Y-3.3381
X10.2442Y-3.3384
X10.2441Y-3.3388
X10.2439Y-3.3391
X10.2438Y-3.3395
X10.2436Y-3.3398
X10.2434Y-3.3402
X10.2433Y-3.3405
X10.2431Y-3.3409
X10.2429Y-3.3412
X10.2428Y-3.3416
X10.2426Y-3.3419
X10.2424Y-3.3422
X10.2422Y-3.3426
X10.242Y-3.3429
X10.2418Y-3.3432
X10.2416Y-3.3436
X10.2414Y-3.3439
X10.2412Y-3.3442
X10.241Y-3.3445
X10.2408Y-3.3449
X10.2406Y-3.3452
X10.2404Y-3.3455
X10.2402Y-3.3459
X10.24Y-3.3462
X10.2399Y-3.3465
X10.2397Y-3.3468
X10.2395Y-3.3472
X10.2392Y-3.3475
X10.239Y-3.3478
X10.2388Y-3.3481
X10.2385Y-3.3484
X10.2383Y-3.3487
X10.2381Y-3.349
X10.2379Y-3.3493
X10.2376Y-3.3496
X10.2374Y-3.3499
X10.2372Y-3.3503
X10.2369Y-3.3506
X10.2367Y-3.3509
X10.2365Y-3.3512
X10.2363Y-3.3515
X10.236Y-3.3518
X10.2358Y-3.3521
X10.2355Y-3.3524
X10.2353Y-3.3527
X10.235Y-3.353
X10.2348Y-3.3532
X10.2345Y-3.3535
X10.2343Y-3.3538
X10.234Y-3.3541
X10.2337Y-3.3544
X10.2335Y-3.3547
X10.2332Y-3.3549
X10.233Y-3.3552
X10.2327Y-3.3555
X10.2325Y-3.3558
X10.2322Y-3.3561
X10.2319Y-3.3564
X10.2317Y-3.3566
X10.2314Y-3.3569
X10.2311Y-3.3572
X10.2308Y-3.3575
X10.2305Y-3.3577
X10.2302Y-3.358
X10.2299Y-3.3582
X10.2297Y-3.3585
X10.2294Y-3.3587
X10.2291Y-3.359
X10.2288Y-3.3593
X10.2285Y-3.3595
X10.2282Y-3.3598
X10.228Y-3.36
X10.2277Y-3.3603
X10.2274Y-3.3605
X10.2271Y-3.3608
X10.2268Y-3.361
X10.2265Y-3.3613
X10.2262Y-3.3615
X10.2259Y-3.3617
X10.2256Y-3.3619
X10.2253Y-3.3622
X10.2249Y-3.3624
X10.2246Y-3.3626
X10.2243Y-3.3629
X10.224Y-3.3631
X10.2237Y-3.3633
X10.2234Y-3.3635
X10.2231Y-3.3638
X10.2228Y-3.364
X10.2225Y-3.3642
X10.2222Y-3.3645
X10.2218Y-3.3647
X10.2215Y-3.3649
X10.2212Y-3.365
X10.2209Y-3.3652
X10.2205Y-3.3654
X10.2202Y-3.3656
X10.2199Y-3.3658
X10.2195Y-3.366
X10.2192Y-3.3662
X10.2189Y-3.3664
X10.2186Y-3.3666
X10.2182Y-3.3668
X10.2179Y-3.367
X10.2176Y-3.3672
X10.2172Y-3.3674
X10.2169Y-3.3676
X10.2166Y-3.3678
X10.2162Y-3.3679
X10.2159Y-3.3681
X10.2155Y-3.3683
X10.2152Y-3.3684
X10.2148Y-3.3686
X10.2145Y-3.3688
X10.2141Y-3.3689
X10.2138Y-3.3691
X10.2134Y-3.3692
X10.2131Y-3.3694
X10.2128Y-3.3696
X10.2124Y-3.3697
X10.2121Y-3.3699
X10.2117Y-3.3701
X10.2114Y-3.3702
X10.211Y-3.3704
X10.2106Y-3.3705
X10.2103Y-3.3706
X10.2099Y-3.3707
X10.2096Y-3.3709
X10.2092Y-3.371
X10.2088Y-3.3711
X10.2085Y-3.3713
X10.2081Y-3.3714
X10.2078Y-3.3715
X10.2074Y-3.3717
X10.207Y-3.3718
X10.2067Y-3.3719
X10.2063Y-3.372
X10.206Y-3.3722
X10.2056Y-3.3723
X10.2052Y-3.3724
X10.2048Y-3.3725
X10.2045Y-3.3726
X10.2041Y-3.3727
X10.2037Y-3.3728
X10.2034Y-3.3729
X10.203Y-3.373
X10.2026
X10.2022Y-3.3731
X10.2019Y-3.3732
X10.2015Y-3.3733
X10.2011Y-3.3734
X10.2008Y-3.3735
X10.2004Y-3.3736
X10.2Y-3.3737
X10.1996Y-3.3738
X10.1993
X10.1989Y-3.3739
X10.1985Y-3.374
X10.1981
X10.1977Y-3.3741
X10.1974
X10.197Y-3.3742
X10.1966
X10.1962Y-3.3743
X10.1959Y-3.3744
X10.1955
X10.1951Y-3.3745
X10.1947
X10.1943Y-3.3746
X10.194
X10.1936Y-3.3747
X10.1932
X10.1928
X10.1924
X10.192Y-3.3748
X10.1917
X10.1913
X10.1909
X10.1905
X10.1901Y-3.3749
X10.1897
X10.1894
X10.189
X10.1886
X10.1882Y-3.375
X10.1878
X10.1875
X10.1796
X10.1717
X10.1638
X10.156
X10.1481
X10.1402
X10.1323
X10.1245
X10.1166
X10.1087
X10.1008
X10.093
X10.0851
X10.0772
X10.0693
X10.0615
X10.0536
X10.0457
X10.0378
X10.03
X10.0221
X10.0142
X10.0063
X9.9985
X9.9906
X9.9827
X9.9749
X9.967
X9.9591
X9.9512
X9.9434
X9.9355
X9.9276
X9.9197
X9.9119
X9.904
X9.8961
X9.8882
X9.8804
X9.8725
X9.8646
X9.8567
X9.8489
X9.841
X9.8331
X9.8252
X9.8174
X9.8095
X9.8016
X9.7937
X9.7859
X9.778
X9.7701
X9.7623
X9.7544
X9.7465
X9.7386
X9.7308
X9.7229
X9.715
X9.7071
X9.6993
X9.6914
X9.6835
X9.6756
X9.6678
X9.6599
X9.652
X9.6441
X9.6363
X9.6284
X9.6205
X9.6126
X9.6048
X9.5969
X9.589
X9.5812
X9.5733
X9.5654
X9.5575
X9.5497
X9.5418
X9.5339
X9.526
X9.5182
X9.5103
X9.5024
X9.4945
X9.4867
X9.4788
X9.4709
X9.463
X9.4552
X9.4473
X9.4394
X9.4315
X9.4237
X9.4158
X9.4079
X9.4
X9.3922
X9.3843
X9.3764
X9.3686
X9.3607
X9.3528
X9.3449
X9.3371
X9.3292
X9.3213
X9.3134
X9.3056
X9.2977
X9.2898
X9.2819
X9.2741
X9.2662
X9.2583
X9.2504
X9.2426
X9.2347
X9.2268
X9.2189
X9.2111
X9.2032
X9.1953
X9.1875
X9.1796
X9.1717
X9.1638
X9.156
X9.1481
X9.1402
X9.1323
X9.1245
X9.1166
X9.1087
X9.1008
X9.093
X9.0851
X9.0772
X9.0693
X9.0615
X9.0536
X9.0457
X9.0378
X9.03
X9.0221
X9.0142
X9.0063
X8.9985
X8.9906
X8.9827
X8.9749
X8.967
X8.9591
X8.9512
X8.9434
X8.9355
X8.9276
X8.9197
X8.914
X8.9061
X8.8983
X8.8904
X8.8825
X8.8746
X8.8668
X8.8589
X8.851
X8.8431
X8.8353
X8.8274
X8.8195
X8.8117
X8.8038
X8.7959
X8.788
X8.7802
X8.7723
X8.7644
X8.7565
X8.7487
X8.7408
X8.7329
X8.725
X8.7172
X8.7093
X8.7014
X8.6935
X8.6857
X8.6778
X8.6699
X8.662
X8.6542
X8.6463
X8.6384
X8.6305
X8.6227
X8.6148
X8.6069
X8.5991
X8.5912
X8.5833
X8.5754
X8.5676
X8.5597
X8.5518
X8.5439
X8.5361
X8.5282
X8.5203
X8.5124
X8.5046
X8.4967
X8.4888
X8.4809
X8.4731
X8.4652
X8.4573
X8.4494
X8.4416
X8.4337
X8.4258
X8.418
X8.4101
X8.4022
X8.3943
X8.3865
X8.3786
X8.3707
X8.3628
X8.355
X8.3471
X8.3392
X8.3313
X8.3235
X8.3156
X8.3077
X8.2998
X8.292
X8.2841
X8.2762
X8.2683
X8.2605
X8.2526
X8.2447
X8.2368
X8.229
X8.2211
X8.2132
X8.2054
X8.1975
X8.1896
X8.1817
X8.1739
X8.166
X8.1581
X8.1502
X8.1424
X8.1345
X8.1266
X8.1187
X8.1109
X8.103
X8.0951
X8.0872
X8.0794
X8.0715
X8.0636
X8.0557
X8.0479
X8.04
X8.0321
X8.0242
X8.0164
X8.0085
X8.0006
X7.9928
X7.9849
X7.977
X7.9691
X7.9613
X7.9534
X7.9455
X7.9376
X7.9298
X7.9219
X7.914
X7.9061
X7.8983
X7.8904
X7.8825
X7.8746
X7.8668
X7.8589
X7.851
X7.8431
X7.8353
X7.8274
X7.8195
X7.8117
X7.8038
X7.7959
X7.788
X7.7802
X7.7723
X7.7644
X7.7565
X7.7487
X7.7408
X7.7329
X7.725
X7.7172
X7.7093
X7.7014
X7.6935
X7.6857
X7.6778
X7.6699
X7.662
X7.6542
X7.6463
X7.6406
X7.6327
X7.6248
X7.617
X7.6091
X7.6012
X7.5933
X7.5855
X7.5776
X7.5697
X7.5618
X7.554
X7.5461
X7.5382
X7.5303
X7.5225
X7.5146
X7.5067
X7.4988
X7.491
X7.4831
X7.4752
X7.4673
X7.4595
X7.4516
X7.4437
X7.4359
X7.428
X7.4201
X7.4122
X7.4044
X7.3965
X7.3886
X7.3807
X7.3729
X7.365
X7.3571
X7.3492
X7.3414
X7.3335
X7.3256
X7.3177
X7.3099
X7.302
X7.2941
X7.2862
X7.2784
X7.2705
X7.2626
X7.2547
X7.2469
X7.239
X7.2311
X7.2233
X7.2154
X7.2075
X7.1996
X7.1918
X7.1839
X7.176
X7.1681
X7.1603
X7.1524
X7.1445
X7.1366
X7.1288
X7.1209
X7.113
X7.1051
X7.0973
X7.0894
X7.0815
X7.0736
X7.0658
X7.0579
X7.05
X7.0422
X7.0343
X7.0264
X7.0185
X7.0107
X7.0028
X6.9949
X6.987
X6.9792
X6.9713
X6.9634
X6.9555
X6.9477
X6.9398
X6.9319
X6.924
X6.9162
X6.9083
X6.9004
X6.8925
X6.8847
X6.8768
X6.8689
X6.861
X6.8532
X6.8453
X6.8374
X6.8296
X6.8217
X6.8138
X6.8059
X6.7981
X6.7902
X6.7823
X6.7744
X6.7666
X6.7587
X6.7508
X6.7429
X6.7351
X6.7272
X6.7193
X6.7114
X6.7036
X6.6957
X6.6878
X6.6799
X6.6721
X6.6642
X6.6563
X6.6485
X6.6406
X6.6327
X6.6248
X6.617
X6.6091
X6.6012
X6.5933
X6.5855
X6.5776
X6.5697
X6.5618
X6.554
X6.5461
X6.5382
X6.5303
X6.5225
X6.5146
X6.5067
X6.4988
X6.491
X6.4831
X6.4752
X6.4673
X6.4595
X6.4516
X6.4437
X6.4359
X6.428
X6.4201
X6.4122
X6.4044
X6.3965
X6.3886
X6.3807
X6.3729
X6.3671
X6.3593
X6.3514
X6.3435
X6.3356
X6.3278
X6.3199
X6.312
X6.3041
X6.2963
X6.2884
X6.2805
X6.2727
X6.2648
X6.2569
X6.249
X6.2412
X6.2333
X6.2254
X6.2175
X6.2097
X6.2018
X6.1939
X6.186
X6.1782
X6.1703
X6.1624
X6.1545
X6.1467
X6.1388
X6.1309
X6.123
X6.1152
X6.1073
X6.0994
X6.0915
X6.0837
X6.0758
X6.0679
X6.0601
X6.0522
X6.0443
X6.0364
X6.0286
X6.0207
X6.0128
X6.0049
X5.9971
X5.9892
X5.9813
X5.9734
X5.9656
X5.9577
X5.9498
X5.9419
X5.9341
X5.9262
X5.9183
X5.9104
X5.9026
X5.8947
X5.8868
X5.8789
X5.8711
X5.8632
X5.8553
X5.8475
X5.8396
X5.8317
X5.8238
X5.816
X5.8081
X5.8002
X5.7923
X5.7845
X5.7766
X5.7687
X5.7608
X5.753
X5.7451
X5.7372
X5.7293
X5.7215
X5.7136
X5.7057
X5.6978
X5.69
X5.6821
X5.6742
X5.6664
X5.6585
X5.6506
X5.6427
X5.6349
X5.627
X5.6191
X5.6112
X5.6034
X5.5955
X5.5876
X5.5797
X5.5719
X5.564
X5.5561
X5.5482
X5.5404
X5.5325
X5.5246
X5.5167
X5.5089
X5.501
X5.4931
X5.4852
X5.4774
X5.4695
X5.4616
X5.4538
X5.4459
X5.438
X5.4301
X5.4223
X5.4144
X5.4065
X5.3986
X5.3908
X5.3829
X5.375
X5.3671
X5.3593
X5.3514
X5.3435
X5.3356
X5.3278
X5.3199
X5.312
X5.3041
X5.2963
X5.2884
X5.2805
X5.2727
X5.2648
X5.2569
X5.249
X5.2412
X5.2333
X5.2254
X5.2175
X5.2097
X5.2018
X5.1939
X5.186
X5.1782
X5.1703
X5.1624
X5.1545
X5.1467
X5.1388
X5.1309
X5.123
X5.1152
X5.1073
X5.0994
X5.0937
X5.0858
X5.078
X5.0701
X5.0622
X5.0543
X5.0465
X5.0386
X5.0307
X5.0228
X5.015
X5.0071
X4.9992
X4.9913
X4.9835
X4.9756
X4.9677
X4.9598
X4.952
X4.9441
X4.9362
X4.9283
X4.9205
X4.9126
X4.9047
X4.8969
X4.889
X4.8811
X4.8732
X4.8654
X4.8575
X4.8496
X4.8417
X4.8339
X4.826
X4.8181
X4.8102
X4.8024
X4.7945
X4.7866
X4.7787
X4.7709
X4.763
X4.7551
X4.7472
X4.7394
X4.7315
X4.7236
X4.7157
X4.7079
X4.7
X4.6921
X4.6843
X4.6764
X4.6685
X4.6606
X4.6528
X4.6449
X4.637
X4.6291
X4.6213
X4.6134
X4.6055
X4.5976
X4.5898
X4.5819
X4.574
X4.5661
X4.5583
X4.5504
X4.5425
X4.5346
X4.5268
X4.5189
X4.511
X4.5031
X4.4953
X4.4874
X4.4795
X4.4717
X4.4638
X4.4559
X4.448
X4.4402
X4.4323
X4.4244
X4.4165
X4.4087
X4.4008
X4.3929
X4.385
X4.3772
X4.3693
X4.3614
X4.3535
X4.3457
X4.3378
X4.3299
X4.322
X4.3142
X4.3063
X4.2984
X4.2906
X4.2827
X4.2748
X4.2669
X4.2591
X4.2512
X4.2433
X4.2354
X4.2276
X4.2197
X4.2118
X4.2039
X4.1961
X4.1882
X4.1803
X4.1724
X4.1646
X4.1567
X4.1488
X4.1409
X4.1331
X4.1252
X4.1173
X4.1094
X4.1016
X4.0937
X4.0858
X4.078
X4.0701
X4.0622
X4.0543
X4.0465
X4.0386
X4.0307
X4.0228
X4.015
X4.0071
X3.9992
X3.9913
X3.9835
X3.9756
X3.9677
X3.9598
X3.952
X3.9441
X3.9362
X3.9283
X3.9205
X3.9126
X3.9047
X3.8969
X3.889
X3.8811
X3.8732
X3.8654
X3.8575
X3.8496
X3.8417
X3.8339
X3.826
X3.8203
X3.8124
X3.8045
X3.7966
X3.7888
X3.7809
X3.773
X3.7651
X3.7573
X3.7494
X3.7415
X3.7336
X3.7258
X3.7179
X3.71
X3.7022
X3.6943
X3.6864
X3.6785
X3.6707
X3.6628
X3.6549
X3.647
X3.6392
X3.6313
X3.6234
X3.6155
X3.6077
X3.5998
X3.5919
X3.584
X3.5762
X3.5683
X3.5604
X3.5525
X3.5447
X3.5368
X3.5289
X3.5211
X3.5132
X3.5053
X3.4974
X3.4896
X3.4817
X3.4738
X3.4659
X3.4581
X3.4502
X3.4423
X3.4344
X3.4266
X3.4187
X3.4108
X3.4029
X3.3951
X3.3872
X3.3793
X3.3714
X3.3636
X3.3557
X3.3478
X3.3399
X3.3321
X3.3242
X3.3163
X3.3085
X3.3006
X3.2927
X3.2848
X3.277
X3.2691
X3.2612
X3.2533
X3.2455
X3.2376
X3.2297
X3.2218
X3.214
X3.2061
X3.1982
X3.1903
X3.1825
X3.1746
X3.1667
X3.1588
X3.151
X3.1431
X3.1352
X3.1273
X3.1195
X3.1116
X3.1037
X3.0959
X3.088
X3.0801
X3.0722
X3.0644
X3.0565
X3.0486
X3.0407
X3.0329
X3.025
X3.0171
X3.0092
X3.0014
X2.9935
X2.9856
X2.9777
X2.9699
X2.962
X2.9541
X2.9462
X2.9384
X2.9305
X2.9226
X2.9148
X2.9069
X2.899
X2.8911
X2.8833
X2.8754
X2.8675
X2.8596
X2.8518
X2.8439
X2.836
X2.8281
X2.8203
X2.8124
X2.8045
X2.7966
X2.7888
X2.7809
X2.773
X2.7651
X2.7573
X2.7494
X2.7415
X2.7336
X2.7258
X2.7179
X2.71
X2.7022
X2.6943
X2.6864
X2.6785
X2.6707
X2.6628
X2.6549
X2.647
X2.6392
X2.6313
X2.6234
X2.6155
X2.6077
X2.5998
X2.5919
X2.584
X2.5762
X2.5683
X2.5604
X2.5525
X2.5468
X2.539
X2.5311
X2.5232
X2.5153
X2.5075
X2.4996
X2.4917
X2.4838
X2.476
X2.4681
X2.4602
X2.4523
X2.4445
X2.4366
X2.4287
X2.4208
X2.413
X2.4051
X2.3972
X2.3893
X2.3815
X2.3736
X2.3657
X2.3578
X2.35
X2.3421
X2.3342
X2.3264
X2.3185
X2.3106
X2.3027
X2.2949
X2.287
X2.2791
X2.2712
X2.2634
X2.2555
X2.2476
X2.2397
X2.2319
X2.224
X2.2161
X2.2082
X2.2004
X2.1925
X2.1846
X2.1767
X2.1689
X2.161
X2.1531
X2.1453
X2.1374
X2.1295
X2.1216
X2.1138
X2.1059
X2.098
X2.0901
X2.0823
X2.0744
X2.0665
X2.0586
X2.0508
X2.0429
X2.035
X2.0271
X2.0193
X2.0114
X2.0035
X1.9956
X1.9878
X1.9799
X1.972
X1.9641
X1.9563
X1.9484
X1.9405
X1.9327
X1.9248
X1.9169
X1.909
X1.9012
X1.8933
X1.8854
X1.8775
X1.8697
X1.8618
X1.8539
X1.846
X1.8382
X1.8303
X1.8224
X1.8145
X1.8067
X1.7988
X1.7909
X1.783
X1.7752
X1.7673
X1.7594
X1.7516
X1.7437
X1.7358
X1.7279
X1.7201
X1.7122
X1.7043
X1.6964
X1.6886
X1.6807
X1.6728
X1.6649
X1.6571
X1.6492
X1.6413
X1.6334
X1.6256
X1.6177
X1.6098
X1.6019
X1.5941
X1.5862
X1.5783
X1.5704
X1.5626
X1.5547
X1.5468
X1.539
X1.5311
X1.5232
X1.5153
X1.5075
X1.4996
X1.4917
X1.4838
X1.476
X1.4681
X1.4602
X1.4523
X1.4445
X1.4366
X1.4287
X1.4208
X1.413
X1.4051
X1.3972
X1.3893
X1.3815
X1.3736
X1.3657
X1.3578
X1.35
X1.3421
X1.3342
X1.3264
X1.3185
X1.3106
X1.3027
X1.2949
X1.287
X1.2791
X1.2734
X1.2655
X1.2576
X1.2498
X1.2419
X1.234
X1.2261
X1.2183
X1.2104
X1.2025
X1.1946
X1.1868
X1.1789
X1.171
X1.1632
X1.1553
X1.1474
X1.1395
X1.1317
X1.1238
X1.1159
X1.108
X1.1002
X1.0923
X1.0844
X1.0765
X1.0687
X1.0608
X1.0529
X1.045
X1.0372
X1.0293
X1.0214
X1.0135
X1.0057
X0.9978
X0.9899
X0.982
X0.9742
X0.9663
X0.9584
X0.9506
X0.9427
X0.9348
X0.9269
X0.9191
X0.9112
X0.9033
X0.8954
X0.8876
X0.8797
X0.8718
X0.8639
X0.8561
X0.8482
X0.8403
X0.8324
X0.8246
X0.8167
X0.8088
X0.8009
X0.7931
X0.7852
X0.7773
X0.7695
X0.7616
X0.7537
X0.7458
X0.738
X0.7301
X0.7222
X0.7143
X0.7065
X0.6986
X0.6907
X0.6828
X0.675
X0.6671
X0.6592
X0.6513
X0.6435
X0.6356
X0.6277
X0.6198
X0.612
X0.6041
X0.5962
X0.5883
X0.5805
X0.5726
X0.5647
X0.5569
X0.549
X0.5411
X0.5332
X0.5254
X0.5175
X0.5096
X0.5017
X0.4939
X0.486
X0.4781
X0.4702
X0.4624
X0.4545
X0.4466
X0.4387
X0.4309
X0.423
X0.4151
X0.4072
X0.3994
X0.3915
X0.3836
X0.3758
X0.3679
X0.36
X0.3521
X0.3443
X0.3364
X0.3285
X0.3206
X0.3128
X0.3049
X0.297
X0.2891
X0.2813
X0.2734
X0.2655
X0.2576
X0.2498
X0.2419
X0.234
X0.2261
X0.2183
X0.2104
X0.2025
X0.1946
X0.1868
X0.1789
X0.171
X0.1632
X0.1553
X0.1474
X0.1395
X0.1317
X0.1238
X0.1159
X0.108
X0.1002
X0.0923
X0.0844
X0.0765
X0.0687
X0.0608
X0.0529
X0.045
X0.0372
X0.0293
X0.0214
X0.0135
X0.0057
X0
X-0.0078
X-0.0157
X-0.0236
X-0.0314
X-0.0393
X-0.0472
X-0.0551
X-0.0629
X-0.0708
X-0.0787
X-0.0866
X-0.0944
X-0.1023
X-0.1102
X-0.1181
X-0.1259
X-0.1338
X-0.1417
X-0.1496
X-0.1574
X-0.1653
X-0.1732
X-0.1811
X-0.1889
X-0.1968
X-0.2047
X-0.2125
X-0.2204
X-0.2283
X-0.2362
X-0.244
X-0.2519
X-0.2598
X-0.2677
X-0.2755
X-0.2834
X-0.2913
X-0.2992
X-0.307
X-0.3149
X-0.3228
X-0.3307
X-0.3385
X-0.3464
X-0.3543
X-0.3622
X-0.37
X-0.3779
X-0.3858
X-0.3937
X-0.4015
X-0.4094
X-0.4173
X-0.4251
X-0.433
X-0.4409
X-0.4488
X-0.4566
X-0.4645
X-0.4724
X-0.4803
X-0.4881
X-0.496
X-0.5039
X-0.5118
X-0.5196
X-0.5275
X-0.5354
X-0.5433
X-0.5511
X-0.559
X-0.5669
X-0.5748
X-0.5826
X-0.5905
X-0.5984
X-0.6062
X-0.6141
X-0.622
X-0.6299
X-0.6377
X-0.6456
X-0.6535
X-0.6614
X-0.6692
X-0.6771
X-0.685
X-0.6929
X-0.7007
X-0.7086
X-0.7165
X-0.7244
X-0.7322
X-0.7401
X-0.748
X-0.7559
X-0.7637
X-0.7716
X-0.7795
X-0.7874
X-0.7952
X-0.8031
X-0.811
X-0.8188
X-0.8267
X-0.8346
X-0.8425
X-0.8503
X-0.8582
X-0.8661
X-0.874
X-0.8818
X-0.8897
X-0.8976
X-0.9055
X-0.9133
X-0.9212
X-0.9291
X-0.937
X-0.9448
X-0.9527
X-0.9606
X-0.9685
X-0.9763
X-0.9842
X-0.9921
X-1
X-1.0078
X-1.0157
X-1.0236
X-1.0314
X-1.0393
X-1.0472
X-1.0551
X-1.0629
X-1.0708
X-1.0787
X-1.0866
X-1.0944
X-1.1023
X-1.1102
X-1.1181
X-1.1259
X-1.1338
X-1.1417
X-1.1496
X-1.1574
X-1.1653
X-1.1732
X-1.1811
X-1.1889
X-1.1968
X-1.2047
X-1.2125
X-1.2204
X-1.2283
X-1.2362
X-1.244
X-1.2519
X-1.2598
X-1.2677
X-1.2734
G0Z0.3937
 
