(Created with grbl post processor 2026/05/27 17:42)
G20
(G-code Generated with Fabex and NC library)
(Rapids: 196.85/min)
G17G90
(Tool: D = 0.1181''  type END flutes 2)
S15000M03
G00 Z0.2 F196.85

G0X0Y0Z0.2
X0.1875Y-6.7935
G1Z-0.0608F19.68
Y7.1653F39.37
X1.625Y5.7552
Y-5.5453
G0Z0.2
(Tool: D = 0.0625''  type END flutes 2)
S15000M03
G00 Z0.2 F196.85

X0.5294Y-0.0034
G1Z-0.0624F19.68
X0.9062Y0.3629F39.37
X1.283Y-0.0034
X0.9062Y-0.3697
X0.5294Y-0.0034
X0.5743
X0.9062Y0.3193
X1.2382Y-0.0034
X0.9062Y-0.3261
X0.5743Y-0.0034
G0Z0.2
X0.9099Y-0.6869
G1Z-0.0624F19.68
X0.8881Y-0.6657F39.37
X0.4965Y-0.3047
Y-2.6188
G0Z0.2
X1.3175
G1Z-0.0624F19.68
Y-0.3047F39.37
X0.9317Y-0.6657
X0.9099Y-0.6869
G0Z0.2
Y0.6801
G1Z-0.0624F19.68
X0.8881Y0.6589F39.37
X0.4965Y0.2979
Y2.612
G0Z0.2
X1.3175
G1Z-0.0624F19.68
Y0.2979F39.37
X0.9317Y0.6589
X0.9099Y0.6801
G0Z0.2
X1.3488Y2.612
G1Z-0.0624F19.68
Y0.2237F39.37
X0.9099Y0.6365
X0.4652Y0.2237
Y2.612
G0Z0.2
X0.7211Y5.1226
G1Z-0.0624F19.68
Y0.8275F39.37
X0.9099Y0.9933
X1.0893Y0.8275
Y4.7544
G0Z0.2
X1.3488Y-2.6188
G1Z-0.0624F19.68
Y-0.2305F39.37
X0.9099Y-0.6433
X0.4652Y-0.2305
Y-2.6188
G0Z0.2
X0.7211Y-5.128
G1Z-0.0624F19.68
Y-0.8343F39.37
X0.9099Y-1.0001
X1.0893Y-0.8343
Y-4.7626
G0Z0.2
X0.5294Y-0.0034
G1Z-0.125F19.68
X0.9062Y0.3629F39.37
X1.283Y-0.0034
X0.9062Y-0.3697
X0.5294Y-0.0034
X0.5743
X0.9062Y0.3193
X1.2382Y-0.0034
X0.9062Y-0.3261
X0.5743Y-0.0034
G0Z0.2
X0.9099Y-0.6869
G1Z-0.125F19.68
X0.8881Y-0.6657F39.37
X0.4965Y-0.3047
Y-2.6188
G0Z0.2
X1.3175
G1Z-0.125F19.68
Y-0.3047F39.37
X0.9317Y-0.6657
X0.9099Y-0.6869
G0Z0.2
Y0.6801
G1Z-0.125F19.68
X0.8881Y0.6589F39.37
X0.4965Y0.2979
Y2.612
G0Z0.2
X1.3175
G1Z-0.125F19.68
Y0.2979F39.37
X0.9317Y0.6589
X0.9099Y0.6801
G0Z0.2
X1.3488Y2.612
G1Z-0.125F19.68
Y0.2237F39.37
X0.9099Y0.6365
X0.4652Y0.2237
Y2.612
G0Z0.2
X0.7211Y5.1226
G1Z-0.125F19.68
Y0.8275F39.37
X0.9099Y0.9933
X1.0893Y0.8275
Y4.7544
G0Z0.2
X1.3488Y-2.6188
G1Z-0.125F19.68
Y-0.2305F39.37
X0.9099Y-0.6433
X0.4652Y-0.2305
Y-2.6188
G0Z0.2
X0.7211Y-5.128
G1Z-0.125F19.68
Y-0.8343F39.37
X0.9099Y-1.0001
X1.0893Y-0.8343
Y-4.7626
G0Z0.2
 
