(Created with grbl post processor 2026/05/27 17:42)
G20
(G-code Generated with Fabex and NC library)
(Rapids: 196.85/min)
G17G90
(Tool: D = 0.1181''  type END flutes 2)
S15000M03
G00 Z0.2 F196.85

G0X0Y0Z0.2
X1.4374Y-5.9651
G1Z-0.0312F19.68
Y6.0048F39.37
X1.3124Y7.0334
Y-6.8117
X1.1874
Y7.0334
X1.0624
Y-6.8117
X0.9374
Y7.0334
X0.8124
Y-6.8117
X0.6874
Y7.0334
X0.5625Y7.0428
Y-6.9319
G0Z0.2
X1.4374Y-5.9651
G1Z-0.0624F19.68
Y6.0048F39.37
X1.3124Y7.0334
Y-6.8117
X1.1874
Y7.0334
X1.0624
Y-6.8117
X0.9374
Y7.0334
X0.8124
Y-6.8117
X0.6874
Y7.0334
X0.5625Y7.0428
Y-6.9319
G0Z0.2
 
