(Created with grbl post processor 2026/05/25 18:35)
G20
(G-code Generated with Fabex and NC library)
(Rapids: 196.85/min)
G17G90
(Tool: D = 0.125''  type END flutes 2)
S15000M03
G00 Z0.2 F196.85

G0X0Y0Z0.2
X-0.1875Y0.9375
G1Z-0.0624F19.68
X0.5311F39.37
X0.5352Y0.9376
X0.5515Y0.9387
X0.5596Y0.9398
X0.5757Y0.9429
X0.5836Y0.9451
X0.5991Y0.9503
X0.6066Y0.9535
X0.6213Y0.9607
X0.6283Y0.9648
X0.6419Y0.9739
X0.6484Y0.9788
X0.6607Y0.9896
X0.6665Y0.9954
X0.6773Y1.0077
X0.6823Y1.0142
X0.6913Y1.0278
X0.6954Y1.0348
X0.7027Y1.0495
X0.7058Y1.0571
X0.711Y1.0725
X0.7132Y1.0804
X0.7164Y1.0965
X0.7174Y1.1046
X0.7185Y1.1209
X0.7186Y1.125
Y6.9908
X0.7185Y6.9948
X0.7174Y7.0112
X0.7164Y7.0193
X0.7132Y7.0353
X0.711Y7.0432
X0.7058Y7.0587
X0.7027Y7.0662
X0.6954Y7.0809
X0.6913Y7.088
X0.6823Y7.1016
X0.6773Y7.1081
X0.6665Y7.1204
X0.6637Y7.1233
X-0.0549Y7.842
X-0.0579Y7.8448
X-0.0702Y7.8556
X-0.0767Y7.8606
X-0.0903Y7.8697
X-0.0974Y7.8738
X-0.112Y7.881
X-0.1196Y7.8841
X-0.1351Y7.8894
X-0.143Y7.8915
X-0.159Y7.8947
X-0.1671Y7.8958
X-0.1834Y7.8968
X-0.1916
X-0.2079Y7.8958
X-0.216Y7.8947
X-0.232Y7.8915
X-0.2399Y7.8894
X-0.2554Y7.8841
X-0.263Y7.881
X-0.2776Y7.8738
X-0.2847Y7.8697
X-0.2983Y7.8606
X-0.3048Y7.8556
X-0.3171Y7.8448
X-0.3229Y7.8391
X-0.3337Y7.8268
X-0.3386Y7.8203
X-0.3477Y7.8067
X-0.3518Y7.7996
X-0.359Y7.7849
X-0.3622Y7.7774
X-0.3674Y7.7619
X-0.3695Y7.754
X-0.3727Y7.738
X-0.3738Y7.7299
X-0.3749Y7.7135
X-0.375Y7.7095
Y1.125
X-0.3749Y1.1209
X-0.3738Y1.1046
X-0.3727Y1.0965
X-0.3695Y1.0804
X-0.3674Y1.0725
X-0.3622Y1.0571
X-0.359Y1.0495
X-0.3518Y1.0348
X-0.3477Y1.0278
X-0.3386Y1.0142
X-0.3337Y1.0077
X-0.3229Y0.9954
X-0.3171Y0.9896
X-0.3048Y0.9788
X-0.2983Y0.9739
X-0.2847Y0.9648
X-0.2776Y0.9607
X-0.263Y0.9535
X-0.2554Y0.9503
X-0.2399Y0.9451
X-0.232Y0.9429
X-0.216Y0.9398
X-0.2079Y0.9387
X-0.1916Y0.9376
X-0.1875Y0.9375
Z-0.125F19.68
X0.5311F39.37
X0.5352Y0.9376
X0.5515Y0.9387
X0.5596Y0.9398
X0.5757Y0.9429
X0.5836Y0.9451
X0.5991Y0.9503
X0.6066Y0.9535
X0.6213Y0.9607
X0.6283Y0.9648
X0.6419Y0.9739
X0.6484Y0.9788
X0.6607Y0.9896
X0.6665Y0.9954
X0.6773Y1.0077
X0.6823Y1.0142
X0.6913Y1.0278
X0.6954Y1.0348
X0.7027Y1.0495
X0.7058Y1.0571
X0.711Y1.0725
X0.7132Y1.0804
X0.7164Y1.0965
X0.7174Y1.1046
X0.7185Y1.1209
X0.7186Y1.125
Y6.9908
X0.7185Y6.9948
X0.7174Y7.0112
X0.7164Y7.0193
X0.7132Y7.0353
X0.711Y7.0432
X0.7058Y7.0587
X0.7027Y7.0662
X0.6954Y7.0809
X0.6913Y7.088
X0.6823Y7.1016
X0.6773Y7.1081
X0.6665Y7.1204
X0.6637Y7.1233
X-0.0549Y7.842
X-0.0579Y7.8448
X-0.0702Y7.8556
X-0.0767Y7.8606
X-0.0903Y7.8697
X-0.0974Y7.8738
X-0.112Y7.881
X-0.1196Y7.8841
X-0.1351Y7.8894
X-0.143Y7.8915
X-0.159Y7.8947
X-0.1671Y7.8958
X-0.1834Y7.8968
X-0.1916
X-0.2079Y7.8958
X-0.216Y7.8947
X-0.232Y7.8915
X-0.2399Y7.8894
X-0.2554Y7.8841
X-0.263Y7.881
X-0.2776Y7.8738
X-0.2847Y7.8697
X-0.2983Y7.8606
X-0.3048Y7.8556
X-0.3171Y7.8448
X-0.3229Y7.8391
X-0.3337Y7.8268
X-0.3386Y7.8203
X-0.3477Y7.8067
X-0.3518Y7.7996
X-0.359Y7.7849
X-0.3622Y7.7774
X-0.3674Y7.7619
X-0.3695Y7.754
X-0.3727Y7.738
X-0.3738Y7.7299
X-0.3749Y7.7135
X-0.375Y7.7095
Y1.125
X-0.3749Y1.1209
X-0.3738Y1.1046
X-0.3727Y1.0965
X-0.3695Y1.0804
X-0.3674Y1.0725
X-0.3622Y1.0571
X-0.359Y1.0495
X-0.3518Y1.0348
X-0.3477Y1.0278
X-0.3386Y1.0142
X-0.3337Y1.0077
X-0.3229Y0.9954
X-0.3171Y0.9896
X-0.3048Y0.9788
X-0.2983Y0.9739
X-0.2847Y0.9648
X-0.2776Y0.9607
X-0.263Y0.9535
X-0.2554Y0.9503
X-0.2399Y0.9451
X-0.232Y0.9429
X-0.216Y0.9398
X-0.2079Y0.9387
X-0.1916Y0.9376
X-0.1875Y0.9375
Z-0.1874F19.68
X0.5311F39.37
X0.5352Y0.9376
X0.5515Y0.9387
X0.5596Y0.9398
X0.5757Y0.9429
X0.5836Y0.9451
X0.5991Y0.9503
X0.6066Y0.9535
X0.6213Y0.9607
X0.6283Y0.9648
X0.6419Y0.9739
X0.6484Y0.9788
X0.6607Y0.9896
X0.6665Y0.9954
X0.6773Y1.0077
X0.6823Y1.0142
X0.6913Y1.0278
X0.6954Y1.0348
X0.7027Y1.0495
X0.7058Y1.0571
X0.711Y1.0725
X0.7132Y1.0804
X0.7164Y1.0965
X0.7174Y1.1046
X0.7185Y1.1209
X0.7186Y1.125
Y6.9908
X0.7185Y6.9948
X0.7174Y7.0112
X0.7164Y7.0193
X0.7132Y7.0353
X0.711Y7.0432
X0.7058Y7.0587
X0.7027Y7.0662
X0.6954Y7.0809
X0.6913Y7.088
X0.6823Y7.1016
X0.6773Y7.1081
X0.6665Y7.1204
X0.6637Y7.1233
X-0.0549Y7.842
X-0.0579Y7.8448
X-0.0702Y7.8556
X-0.0767Y7.8606
X-0.0903Y7.8697
X-0.0974Y7.8738
X-0.112Y7.881
X-0.1196Y7.8841
X-0.1351Y7.8894
X-0.143Y7.8915
X-0.159Y7.8947
X-0.1671Y7.8958
X-0.1834Y7.8968
X-0.1916
X-0.2079Y7.8958
X-0.216Y7.8947
X-0.232Y7.8915
X-0.2399Y7.8894
X-0.2554Y7.8841
X-0.263Y7.881
X-0.2776Y7.8738
X-0.2847Y7.8697
X-0.2983Y7.8606
X-0.3048Y7.8556
X-0.3171Y7.8448
X-0.3229Y7.8391
X-0.3337Y7.8268
X-0.3386Y7.8203
X-0.3477Y7.8067
X-0.3518Y7.7996
X-0.359Y7.7849
X-0.3622Y7.7774
X-0.3674Y7.7619
X-0.3695Y7.754
X-0.3727Y7.738
X-0.3738Y7.7299
X-0.3749Y7.7135
X-0.375Y7.7095
Y1.125
X-0.3749Y1.1209
X-0.3738Y1.1046
X-0.3727Y1.0965
X-0.3695Y1.0804
X-0.3674Y1.0725
X-0.3622Y1.0571
X-0.359Y1.0495
X-0.3518Y1.0348
X-0.3477Y1.0278
X-0.3386Y1.0142
X-0.3337Y1.0077
X-0.3229Y0.9954
X-0.3171Y0.9896
X-0.3048Y0.9788
X-0.2983Y0.9739
X-0.2847Y0.9648
X-0.2776Y0.9607
X-0.263Y0.9535
X-0.2554Y0.9503
X-0.2399Y0.9451
X-0.232Y0.9429
X-0.216Y0.9398
X-0.2079Y0.9387
X-0.1916Y0.9376
X-0.1875Y0.9375
Z-0.25F19.68
X0.5311F39.37
X0.5352Y0.9376
X0.5515Y0.9387
X0.5596Y0.9398
X0.5757Y0.9429
X0.5836Y0.9451
X0.5991Y0.9503
X0.6066Y0.9535
X0.6213Y0.9607
X0.6283Y0.9648
X0.6419Y0.9739
X0.6484Y0.9788
X0.6607Y0.9896
X0.6665Y0.9954
X0.6773Y1.0077
X0.6823Y1.0142
X0.6913Y1.0278
X0.6954Y1.0348
X0.7027Y1.0495
X0.7058Y1.0571
X0.711Y1.0725
X0.7132Y1.0804
X0.7164Y1.0965
X0.7174Y1.1046
X0.7185Y1.1209
X0.7186Y1.125
Y6.9908
X0.7185Y6.9948
X0.7174Y7.0112
X0.7164Y7.0193
X0.7132Y7.0353
X0.711Y7.0432
X0.7058Y7.0587
X0.7027Y7.0662
X0.6954Y7.0809
X0.6913Y7.088
X0.6823Y7.1016
X0.6773Y7.1081
X0.6665Y7.1204
X0.6637Y7.1233
X-0.0549Y7.842
X-0.0579Y7.8448
X-0.0702Y7.8556
X-0.0767Y7.8606
X-0.0903Y7.8697
X-0.0974Y7.8738
X-0.112Y7.881
X-0.1196Y7.8841
X-0.1351Y7.8894
X-0.143Y7.8915
X-0.159Y7.8947
X-0.1671Y7.8958
X-0.1834Y7.8968
X-0.1916
X-0.2079Y7.8958
X-0.216Y7.8947
X-0.232Y7.8915
X-0.2399Y7.8894
X-0.2554Y7.8841
X-0.263Y7.881
X-0.2776Y7.8738
X-0.2847Y7.8697
X-0.2983Y7.8606
X-0.3048Y7.8556
X-0.3171Y7.8448
X-0.3229Y7.8391
X-0.3337Y7.8268
X-0.3386Y7.8203
X-0.3477Y7.8067
X-0.3518Y7.7996
X-0.359Y7.7849
X-0.3622Y7.7774
X-0.3674Y7.7619
X-0.3695Y7.754
X-0.3727Y7.738
X-0.3738Y7.7299
X-0.3749Y7.7135
X-0.375Y7.7095
Y1.125
X-0.3749Y1.1209
X-0.3738Y1.1046
X-0.3727Y1.0965
X-0.3695Y1.0804
X-0.3674Y1.0725
X-0.3622Y1.0571
X-0.359Y1.0495
X-0.3518Y1.0348
X-0.3477Y1.0278
X-0.3386Y1.0142
X-0.3337Y1.0077
X-0.3229Y0.9954
X-0.3171Y0.9896
X-0.3048Y0.9788
X-0.2983Y0.9739
X-0.2847Y0.9648
X-0.2776Y0.9607
X-0.263Y0.9535
X-0.2554Y0.9503
X-0.2399Y0.9451
X-0.232Y0.9429
X-0.216Y0.9398
X-0.2079Y0.9387
X-0.1916Y0.9376
X-0.1875Y0.9375
Z-0.3124F19.68
X0.5311F39.37
X0.5352Y0.9376
X0.5515Y0.9387
X0.5596Y0.9398
X0.5757Y0.9429
X0.5836Y0.9451
X0.5991Y0.9503
X0.6066Y0.9535
X0.6213Y0.9607
X0.6283Y0.9648
X0.6419Y0.9739
X0.6484Y0.9788
X0.6607Y0.9896
X0.6665Y0.9954
X0.6773Y1.0077
X0.6823Y1.0142
X0.6913Y1.0278
X0.6954Y1.0348
X0.7027Y1.0495
X0.7058Y1.0571
X0.711Y1.0725
X0.7132Y1.0804
X0.7164Y1.0965
X0.7174Y1.1046
X0.7185Y1.1209
X0.7186Y1.125
Y6.9908
X0.7185Y6.9948
X0.7174Y7.0112
X0.7164Y7.0193
X0.7132Y7.0353
X0.711Y7.0432
X0.7058Y7.0587
X0.7027Y7.0662
X0.6954Y7.0809
X0.6913Y7.088
X0.6823Y7.1016
X0.6773Y7.1081
X0.6665Y7.1204
X0.6637Y7.1233
X-0.0549Y7.842
X-0.0579Y7.8448
X-0.0702Y7.8556
X-0.0767Y7.8606
X-0.0903Y7.8697
X-0.0974Y7.8738
X-0.112Y7.881
X-0.1196Y7.8841
X-0.1351Y7.8894
X-0.143Y7.8915
X-0.159Y7.8947
X-0.1671Y7.8958
X-0.1834Y7.8968
X-0.1916
X-0.2079Y7.8958
X-0.216Y7.8947
X-0.232Y7.8915
X-0.2399Y7.8894
X-0.2554Y7.8841
X-0.263Y7.881
X-0.2776Y7.8738
X-0.2847Y7.8697
X-0.2983Y7.8606
X-0.3048Y7.8556
X-0.3171Y7.8448
X-0.3229Y7.8391
X-0.3337Y7.8268
X-0.3386Y7.8203
X-0.3477Y7.8067
X-0.3518Y7.7996
X-0.359Y7.7849
X-0.3622Y7.7774
X-0.3674Y7.7619
X-0.3695Y7.754
X-0.3727Y7.738
X-0.3738Y7.7299
X-0.3749Y7.7135
X-0.375Y7.7095
Y1.125
X-0.3749Y1.1209
X-0.3738Y1.1046
X-0.3727Y1.0965
X-0.3695Y1.0804
X-0.3674Y1.0725
X-0.3622Y1.0571
X-0.359Y1.0495
X-0.3518Y1.0348
X-0.3477Y1.0278
X-0.3386Y1.0142
X-0.3337Y1.0077
X-0.3229Y0.9954
X-0.3171Y0.9896
X-0.3048Y0.9788
X-0.2983Y0.9739
X-0.2847Y0.9648
X-0.2776Y0.9607
X-0.263Y0.9535
X-0.2554Y0.9503
X-0.2399Y0.9451
X-0.232Y0.9429
X-0.216Y0.9398
X-0.2079Y0.9387
X-0.1916Y0.9376
X-0.1875Y0.9375
Z-0.3125F19.68
X0.5311F39.37
X0.5352Y0.9376
X0.5515Y0.9387
X0.5596Y0.9398
X0.5757Y0.9429
X0.5836Y0.9451
X0.5991Y0.9503
X0.6066Y0.9535
X0.6213Y0.9607
X0.6283Y0.9648
X0.6419Y0.9739
X0.6484Y0.9788
X0.6607Y0.9896
X0.6665Y0.9954
X0.6773Y1.0077
X0.6823Y1.0142
X0.6913Y1.0278
X0.6954Y1.0348
X0.7027Y1.0495
X0.7058Y1.0571
X0.711Y1.0725
X0.7132Y1.0804
X0.7164Y1.0965
X0.7174Y1.1046
X0.7185Y1.1209
X0.7186Y1.125
Y6.9908
X0.7185Y6.9948
X0.7174Y7.0112
X0.7164Y7.0193
X0.7132Y7.0353
X0.711Y7.0432
X0.7058Y7.0587
X0.7027Y7.0662
X0.6954Y7.0809
X0.6913Y7.088
X0.6823Y7.1016
X0.6773Y7.1081
X0.6665Y7.1204
X0.6637Y7.1233
X-0.0549Y7.842
X-0.0579Y7.8448
X-0.0702Y7.8556
X-0.0767Y7.8606
X-0.0903Y7.8697
X-0.0974Y7.8738
X-0.112Y7.881
X-0.1196Y7.8841
X-0.1351Y7.8894
X-0.143Y7.8915
X-0.159Y7.8947
X-0.1671Y7.8958
X-0.1834Y7.8968
X-0.1916
X-0.2079Y7.8958
X-0.216Y7.8947
X-0.232Y7.8915
X-0.2399Y7.8894
X-0.2554Y7.8841
X-0.263Y7.881
X-0.2776Y7.8738
X-0.2847Y7.8697
X-0.2983Y7.8606
X-0.3048Y7.8556
X-0.3171Y7.8448
X-0.3229Y7.8391
X-0.3337Y7.8268
X-0.3386Y7.8203
X-0.3477Y7.8067
X-0.3518Y7.7996
X-0.359Y7.7849
X-0.3622Y7.7774
X-0.3674Y7.7619
X-0.3695Y7.754
X-0.3727Y7.738
X-0.3738Y7.7299
X-0.3749Y7.7135
X-0.375Y7.7095
Y1.125
X-0.3749Y1.1209
X-0.3738Y1.1046
X-0.3727Y1.0965
X-0.3695Y1.0804
X-0.3674Y1.0725
X-0.3622Y1.0571
X-0.359Y1.0495
X-0.3518Y1.0348
X-0.3477Y1.0278
X-0.3386Y1.0142
X-0.3337Y1.0077
X-0.3229Y0.9954
X-0.3171Y0.9896
X-0.3048Y0.9788
X-0.2983Y0.9739
X-0.2847Y0.9648
X-0.2776Y0.9607
X-0.263Y0.9535
X-0.2554Y0.9503
X-0.2399Y0.9451
X-0.232Y0.9429
X-0.216Y0.9398
X-0.2079Y0.9387
X-0.1916Y0.9376
X-0.1875Y0.9375
G0Z0.2
X1.1124
G1Z-0.0624F19.68
X1.8311F39.37
X1.8352Y0.9376
X1.8515Y0.9387
X1.8596Y0.9398
X1.8757Y0.9429
X1.8836Y0.9451
X1.8991Y0.9503
X1.9066Y0.9535
X1.9213Y0.9607
X1.9283Y0.9648
X1.9419Y0.9739
X1.9484Y0.9788
X1.9607Y0.9896
X1.9665Y0.9954
X1.9773Y1.0077
X1.9823Y1.0142
X1.9913Y1.0278
X1.9954Y1.0348
X2.0027Y1.0495
X2.0058Y1.0571
X2.011Y1.0725
X2.0132Y1.0804
X2.0164Y1.0965
X2.0174Y1.1046
X2.0185Y1.1209
X2.0186Y1.125
Y6.9908
X2.0185Y6.9948
X2.0174Y7.0112
X2.0164Y7.0193
X2.0132Y7.0353
X2.011Y7.0432
X2.0058Y7.0587
X2.0027Y7.0662
X1.9954Y7.0809
X1.9913Y7.088
X1.9823Y7.1016
X1.9773Y7.1081
X1.9665Y7.1204
X1.9637Y7.1233
X1.245Y7.842
X1.242Y7.8448
X1.2297Y7.8556
X1.2232Y7.8606
X1.2096Y7.8697
X1.2025Y7.8738
X1.1879Y7.881
X1.1803Y7.8841
X1.1648Y7.8894
X1.1569Y7.8915
X1.1409Y7.8947
X1.1328Y7.8958
X1.1165Y7.8968
X1.1083
X1.092Y7.8958
X1.0839Y7.8947
X1.0679Y7.8915
X1.06Y7.8894
X1.0445Y7.8841
X1.0369Y7.881
X1.0223Y7.8738
X1.0152Y7.8697
X1.0016Y7.8606
X0.9951Y7.8556
X0.9828Y7.8448
X0.977Y7.8391
X0.9662Y7.8268
X0.9613Y7.8203
X0.9522Y7.8067
X0.9481Y7.7996
X0.9409Y7.7849
X0.9377Y7.7774
X0.9325Y7.7619
X0.9304Y7.754
X0.9272Y7.738
X0.9261Y7.7299
X0.925Y7.7135
X0.9249Y7.7095
Y1.125
X0.925Y1.1209
X0.9261Y1.1046
X0.9272Y1.0965
X0.9304Y1.0804
X0.9325Y1.0725
X0.9377Y1.0571
X0.9409Y1.0495
X0.9481Y1.0348
X0.9522Y1.0278
X0.9613Y1.0142
X0.9662Y1.0077
X0.977Y0.9954
X0.9828Y0.9896
X0.9951Y0.9788
X1.0016Y0.9739
X1.0152Y0.9648
X1.0223Y0.9607
X1.0369Y0.9535
X1.0445Y0.9503
X1.06Y0.9451
X1.0679Y0.9429
X1.0839Y0.9398
X1.092Y0.9387
X1.1083Y0.9376
X1.1124Y0.9375
Z-0.125F19.68
X1.8311F39.37
X1.8352Y0.9376
X1.8515Y0.9387
X1.8596Y0.9398
X1.8757Y0.9429
X1.8836Y0.9451
X1.8991Y0.9503
X1.9066Y0.9535
X1.9213Y0.9607
X1.9283Y0.9648
X1.9419Y0.9739
X1.9484Y0.9788
X1.9607Y0.9896
X1.9665Y0.9954
X1.9773Y1.0077
X1.9823Y1.0142
X1.9913Y1.0278
X1.9954Y1.0348
X2.0027Y1.0495
X2.0058Y1.0571
X2.011Y1.0725
X2.0132Y1.0804
X2.0164Y1.0965
X2.0174Y1.1046
X2.0185Y1.1209
X2.0186Y1.125
Y6.9908
X2.0185Y6.9948
X2.0174Y7.0112
X2.0164Y7.0193
X2.0132Y7.0353
X2.011Y7.0432
X2.0058Y7.0587
X2.0027Y7.0662
X1.9954Y7.0809
X1.9913Y7.088
X1.9823Y7.1016
X1.9773Y7.1081
X1.9665Y7.1204
X1.9637Y7.1233
X1.245Y7.842
X1.242Y7.8448
X1.2297Y7.8556
X1.2232Y7.8606
X1.2096Y7.8697
X1.2025Y7.8738
X1.1879Y7.881
X1.1803Y7.8841
X1.1648Y7.8894
X1.1569Y7.8915
X1.1409Y7.8947
X1.1328Y7.8958
X1.1165Y7.8968
X1.1083
X1.092Y7.8958
X1.0839Y7.8947
X1.0679Y7.8915
X1.06Y7.8894
X1.0445Y7.8841
X1.0369Y7.881
X1.0223Y7.8738
X1.0152Y7.8697
X1.0016Y7.8606
X0.9951Y7.8556
X0.9828Y7.8448
X0.977Y7.8391
X0.9662Y7.8268
X0.9613Y7.8203
X0.9522Y7.8067
X0.9481Y7.7996
X0.9409Y7.7849
X0.9377Y7.7774
X0.9325Y7.7619
X0.9304Y7.754
X0.9272Y7.738
X0.9261Y7.7299
X0.925Y7.7135
X0.9249Y7.7095
Y1.125
X0.925Y1.1209
X0.9261Y1.1046
X0.9272Y1.0965
X0.9304Y1.0804
X0.9325Y1.0725
X0.9377Y1.0571
X0.9409Y1.0495
X0.9481Y1.0348
X0.9522Y1.0278
X0.9613Y1.0142
X0.9662Y1.0077
X0.977Y0.9954
X0.9828Y0.9896
X0.9951Y0.9788
X1.0016Y0.9739
X1.0152Y0.9648
X1.0223Y0.9607
X1.0369Y0.9535
X1.0445Y0.9503
X1.06Y0.9451
X1.0679Y0.9429
X1.0839Y0.9398
X1.092Y0.9387
X1.1083Y0.9376
X1.1124Y0.9375
Z-0.1874F19.68
X1.8311F39.37
X1.8352Y0.9376
X1.8515Y0.9387
X1.8596Y0.9398
X1.8757Y0.9429
X1.8836Y0.9451
X1.8991Y0.9503
X1.9066Y0.9535
X1.9213Y0.9607
X1.9283Y0.9648
X1.9419Y0.9739
X1.9484Y0.9788
X1.9607Y0.9896
X1.9665Y0.9954
X1.9773Y1.0077
X1.9823Y1.0142
X1.9913Y1.0278
X1.9954Y1.0348
X2.0027Y1.0495
X2.0058Y1.0571
X2.011Y1.0725
X2.0132Y1.0804
X2.0164Y1.0965
X2.0174Y1.1046
X2.0185Y1.1209
X2.0186Y1.125
Y6.9908
X2.0185Y6.9948
X2.0174Y7.0112
X2.0164Y7.0193
X2.0132Y7.0353
X2.011Y7.0432
X2.0058Y7.0587
X2.0027Y7.0662
X1.9954Y7.0809
X1.9913Y7.088
X1.9823Y7.1016
X1.9773Y7.1081
X1.9665Y7.1204
X1.9637Y7.1233
X1.245Y7.842
X1.242Y7.8448
X1.2297Y7.8556
X1.2232Y7.8606
X1.2096Y7.8697
X1.2025Y7.8738
X1.1879Y7.881
X1.1803Y7.8841
X1.1648Y7.8894
X1.1569Y7.8915
X1.1409Y7.8947
X1.1328Y7.8958
X1.1165Y7.8968
X1.1083
X1.092Y7.8958
X1.0839Y7.8947
X1.0679Y7.8915
X1.06Y7.8894
X1.0445Y7.8841
X1.0369Y7.881
X1.0223Y7.8738
X1.0152Y7.8697
X1.0016Y7.8606
X0.9951Y7.8556
X0.9828Y7.8448
X0.977Y7.8391
X0.9662Y7.8268
X0.9613Y7.8203
X0.9522Y7.8067
X0.9481Y7.7996
X0.9409Y7.7849
X0.9377Y7.7774
X0.9325Y7.7619
X0.9304Y7.754
X0.9272Y7.738
X0.9261Y7.7299
X0.925Y7.7135
X0.9249Y7.7095
Y1.125
X0.925Y1.1209
X0.9261Y1.1046
X0.9272Y1.0965
X0.9304Y1.0804
X0.9325Y1.0725
X0.9377Y1.0571
X0.9409Y1.0495
X0.9481Y1.0348
X0.9522Y1.0278
X0.9613Y1.0142
X0.9662Y1.0077
X0.977Y0.9954
X0.9828Y0.9896
X0.9951Y0.9788
X1.0016Y0.9739
X1.0152Y0.9648
X1.0223Y0.9607
X1.0369Y0.9535
X1.0445Y0.9503
X1.06Y0.9451
X1.0679Y0.9429
X1.0839Y0.9398
X1.092Y0.9387
X1.1083Y0.9376
X1.1124Y0.9375
Z-0.25F19.68
X1.8311F39.37
X1.8352Y0.9376
X1.8515Y0.9387
X1.8596Y0.9398
X1.8757Y0.9429
X1.8836Y0.9451
X1.8991Y0.9503
X1.9066Y0.9535
X1.9213Y0.9607
X1.9283Y0.9648
X1.9419Y0.9739
X1.9484Y0.9788
X1.9607Y0.9896
X1.9665Y0.9954
X1.9773Y1.0077
X1.9823Y1.0142
X1.9913Y1.0278
X1.9954Y1.0348
X2.0027Y1.0495
X2.0058Y1.0571
X2.011Y1.0725
X2.0132Y1.0804
X2.0164Y1.0965
X2.0174Y1.1046
X2.0185Y1.1209
X2.0186Y1.125
Y6.9908
X2.0185Y6.9948
X2.0174Y7.0112
X2.0164Y7.0193
X2.0132Y7.0353
X2.011Y7.0432
X2.0058Y7.0587
X2.0027Y7.0662
X1.9954Y7.0809
X1.9913Y7.088
X1.9823Y7.1016
X1.9773Y7.1081
X1.9665Y7.1204
X1.9637Y7.1233
X1.245Y7.842
X1.242Y7.8448
X1.2297Y7.8556
X1.2232Y7.8606
X1.2096Y7.8697
X1.2025Y7.8738
X1.1879Y7.881
X1.1803Y7.8841
X1.1648Y7.8894
X1.1569Y7.8915
X1.1409Y7.8947
X1.1328Y7.8958
X1.1165Y7.8968
X1.1083
X1.092Y7.8958
X1.0839Y7.8947
X1.0679Y7.8915
X1.06Y7.8894
X1.0445Y7.8841
X1.0369Y7.881
X1.0223Y7.8738
X1.0152Y7.8697
X1.0016Y7.8606
X0.9951Y7.8556
X0.9828Y7.8448
X0.977Y7.8391
X0.9662Y7.8268
X0.9613Y7.8203
X0.9522Y7.8067
X0.9481Y7.7996
X0.9409Y7.7849
X0.9377Y7.7774
X0.9325Y7.7619
X0.9304Y7.754
X0.9272Y7.738
X0.9261Y7.7299
X0.925Y7.7135
X0.9249Y7.7095
Y1.125
X0.925Y1.1209
X0.9261Y1.1046
X0.9272Y1.0965
X0.9304Y1.0804
X0.9325Y1.0725
X0.9377Y1.0571
X0.9409Y1.0495
X0.9481Y1.0348
X0.9522Y1.0278
X0.9613Y1.0142
X0.9662Y1.0077
X0.977Y0.9954
X0.9828Y0.9896
X0.9951Y0.9788
X1.0016Y0.9739
X1.0152Y0.9648
X1.0223Y0.9607
X1.0369Y0.9535
X1.0445Y0.9503
X1.06Y0.9451
X1.0679Y0.9429
X1.0839Y0.9398
X1.092Y0.9387
X1.1083Y0.9376
X1.1124Y0.9375
Z-0.3124F19.68
X1.8311F39.37
X1.8352Y0.9376
X1.8515Y0.9387
X1.8596Y0.9398
X1.8757Y0.9429
X1.8836Y0.9451
X1.8991Y0.9503
X1.9066Y0.9535
X1.9213Y0.9607
X1.9283Y0.9648
X1.9419Y0.9739
X1.9484Y0.9788
X1.9607Y0.9896
X1.9665Y0.9954
X1.9773Y1.0077
X1.9823Y1.0142
X1.9913Y1.0278
X1.9954Y1.0348
X2.0027Y1.0495
X2.0058Y1.0571
X2.011Y1.0725
X2.0132Y1.0804
X2.0164Y1.0965
X2.0174Y1.1046
X2.0185Y1.1209
X2.0186Y1.125
Y6.9908
X2.0185Y6.9948
X2.0174Y7.0112
X2.0164Y7.0193
X2.0132Y7.0353
X2.011Y7.0432
X2.0058Y7.0587
X2.0027Y7.0662
X1.9954Y7.0809
X1.9913Y7.088
X1.9823Y7.1016
X1.9773Y7.1081
X1.9665Y7.1204
X1.9637Y7.1233
X1.245Y7.842
X1.242Y7.8448
X1.2297Y7.8556
X1.2232Y7.8606
X1.2096Y7.8697
X1.2025Y7.8738
X1.1879Y7.881
X1.1803Y7.8841
X1.1648Y7.8894
X1.1569Y7.8915
X1.1409Y7.8947
X1.1328Y7.8958
X1.1165Y7.8968
X1.1083
X1.092Y7.8958
X1.0839Y7.8947
X1.0679Y7.8915
X1.06Y7.8894
X1.0445Y7.8841
X1.0369Y7.881
X1.0223Y7.8738
X1.0152Y7.8697
X1.0016Y7.8606
X0.9951Y7.8556
X0.9828Y7.8448
X0.977Y7.8391
X0.9662Y7.8268
X0.9613Y7.8203
X0.9522Y7.8067
X0.9481Y7.7996
X0.9409Y7.7849
X0.9377Y7.7774
X0.9325Y7.7619
X0.9304Y7.754
X0.9272Y7.738
X0.9261Y7.7299
X0.925Y7.7135
X0.9249Y7.7095
Y1.125
X0.925Y1.1209
X0.9261Y1.1046
X0.9272Y1.0965
X0.9304Y1.0804
X0.9325Y1.0725
X0.9377Y1.0571
X0.9409Y1.0495
X0.9481Y1.0348
X0.9522Y1.0278
X0.9613Y1.0142
X0.9662Y1.0077
X0.977Y0.9954
X0.9828Y0.9896
X0.9951Y0.9788
X1.0016Y0.9739
X1.0152Y0.9648
X1.0223Y0.9607
X1.0369Y0.9535
X1.0445Y0.9503
X1.06Y0.9451
X1.0679Y0.9429
X1.0839Y0.9398
X1.092Y0.9387
X1.1083Y0.9376
X1.1124Y0.9375
Z-0.3125F19.68
X1.8311F39.37
X1.8352Y0.9376
X1.8515Y0.9387
X1.8596Y0.9398
X1.8757Y0.9429
X1.8836Y0.9451
X1.8991Y0.9503
X1.9066Y0.9535
X1.9213Y0.9607
X1.9283Y0.9648
X1.9419Y0.9739
X1.9484Y0.9788
X1.9607Y0.9896
X1.9665Y0.9954
X1.9773Y1.0077
X1.9823Y1.0142
X1.9913Y1.0278
X1.9954Y1.0348
X2.0027Y1.0495
X2.0058Y1.0571
X2.011Y1.0725
X2.0132Y1.0804
X2.0164Y1.0965
X2.0174Y1.1046
X2.0185Y1.1209
X2.0186Y1.125
Y6.9908
X2.0185Y6.9948
X2.0174Y7.0112
X2.0164Y7.0193
X2.0132Y7.0353
X2.011Y7.0432
X2.0058Y7.0587
X2.0027Y7.0662
X1.9954Y7.0809
X1.9913Y7.088
X1.9823Y7.1016
X1.9773Y7.1081
X1.9665Y7.1204
X1.9637Y7.1233
X1.245Y7.842
X1.242Y7.8448
X1.2297Y7.8556
X1.2232Y7.8606
X1.2096Y7.8697
X1.2025Y7.8738
X1.1879Y7.881
X1.1803Y7.8841
X1.1648Y7.8894
X1.1569Y7.8915
X1.1409Y7.8947
X1.1328Y7.8958
X1.1165Y7.8968
X1.1083
X1.092Y7.8958
X1.0839Y7.8947
X1.0679Y7.8915
X1.06Y7.8894
X1.0445Y7.8841
X1.0369Y7.881
X1.0223Y7.8738
X1.0152Y7.8697
X1.0016Y7.8606
X0.9951Y7.8556
X0.9828Y7.8448
X0.977Y7.8391
X0.9662Y7.8268
X0.9613Y7.8203
X0.9522Y7.8067
X0.9481Y7.7996
X0.9409Y7.7849
X0.9377Y7.7774
X0.9325Y7.7619
X0.9304Y7.754
X0.9272Y7.738
X0.9261Y7.7299
X0.925Y7.7135
X0.9249Y7.7095
Y1.125
X0.925Y1.1209
X0.9261Y1.1046
X0.9272Y1.0965
X0.9304Y1.0804
X0.9325Y1.0725
X0.9377Y1.0571
X0.9409Y1.0495
X0.9481Y1.0348
X0.9522Y1.0278
X0.9613Y1.0142
X0.9662Y1.0077
X0.977Y0.9954
X0.9828Y0.9896
X0.9951Y0.9788
X1.0016Y0.9739
X1.0152Y0.9648
X1.0223Y0.9607
X1.0369Y0.9535
X1.0445Y0.9503
X1.06Y0.9451
X1.0679Y0.9429
X1.0839Y0.9398
X1.092Y0.9387
X1.1083Y0.9376
X1.1124Y0.9375
G0Z0.2
X2.4124
G1Z-0.0624F19.68
X3.1311F39.37
X3.1352Y0.9376
X3.1515Y0.9387
X3.1596Y0.9398
X3.1757Y0.9429
X3.1836Y0.9451
X3.1991Y0.9503
X3.2066Y0.9535
X3.2213Y0.9607
X3.2283Y0.9648
X3.2419Y0.9739
X3.2484Y0.9788
X3.2607Y0.9896
X3.2665Y0.9954
X3.2773Y1.0077
X3.2823Y1.0142
X3.2913Y1.0278
X3.2954Y1.0348
X3.3027Y1.0495
X3.3058Y1.0571
X3.311Y1.0725
X3.3132Y1.0804
X3.3164Y1.0965
X3.3174Y1.1046
X3.3185Y1.1209
X3.3186Y1.125
Y6.9908
X3.3185Y6.9948
X3.3174Y7.0112
X3.3164Y7.0193
X3.3132Y7.0353
X3.311Y7.0432
X3.3058Y7.0587
X3.3027Y7.0662
X3.2954Y7.0809
X3.2913Y7.088
X3.2823Y7.1016
X3.2773Y7.1081
X3.2665Y7.1204
X3.2637Y7.1233
X2.545Y7.842
X2.542Y7.8448
X2.5297Y7.8556
X2.5232Y7.8606
X2.5096Y7.8697
X2.5025Y7.8738
X2.4879Y7.881
X2.4803Y7.8841
X2.4648Y7.8894
X2.4569Y7.8915
X2.4409Y7.8947
X2.4328Y7.8958
X2.4165Y7.8968
X2.4083
X2.392Y7.8958
X2.3839Y7.8947
X2.3679Y7.8915
X2.36Y7.8894
X2.3445Y7.8841
X2.3369Y7.881
X2.3223Y7.8738
X2.3152Y7.8697
X2.3016Y7.8606
X2.2951Y7.8556
X2.2828Y7.8448
X2.277Y7.8391
X2.2662Y7.8268
X2.2613Y7.8203
X2.2522Y7.8067
X2.2481Y7.7996
X2.2409Y7.7849
X2.2377Y7.7774
X2.2325Y7.7619
X2.2304Y7.754
X2.2272Y7.738
X2.2261Y7.7299
X2.225Y7.7135
X2.2249Y7.7095
Y1.125
X2.225Y1.1209
X2.2261Y1.1046
X2.2272Y1.0965
X2.2304Y1.0804
X2.2325Y1.0725
X2.2377Y1.0571
X2.2409Y1.0495
X2.2481Y1.0348
X2.2522Y1.0278
X2.2613Y1.0142
X2.2662Y1.0077
X2.277Y0.9954
X2.2828Y0.9896
X2.2951Y0.9788
X2.3016Y0.9739
X2.3152Y0.9648
X2.3223Y0.9607
X2.3369Y0.9535
X2.3445Y0.9503
X2.36Y0.9451
X2.3679Y0.9429
X2.3839Y0.9398
X2.392Y0.9387
X2.4083Y0.9376
X2.4124Y0.9375
Z-0.125F19.68
X3.1311F39.37
X3.1352Y0.9376
X3.1515Y0.9387
X3.1596Y0.9398
X3.1757Y0.9429
X3.1836Y0.9451
X3.1991Y0.9503
X3.2066Y0.9535
X3.2213Y0.9607
X3.2283Y0.9648
X3.2419Y0.9739
X3.2484Y0.9788
X3.2607Y0.9896
X3.2665Y0.9954
X3.2773Y1.0077
X3.2823Y1.0142
X3.2913Y1.0278
X3.2954Y1.0348
X3.3027Y1.0495
X3.3058Y1.0571
X3.311Y1.0725
X3.3132Y1.0804
X3.3164Y1.0965
X3.3174Y1.1046
X3.3185Y1.1209
X3.3186Y1.125
Y6.9908
X3.3185Y6.9948
X3.3174Y7.0112
X3.3164Y7.0193
X3.3132Y7.0353
X3.311Y7.0432
X3.3058Y7.0587
X3.3027Y7.0662
X3.2954Y7.0809
X3.2913Y7.088
X3.2823Y7.1016
X3.2773Y7.1081
X3.2665Y7.1204
X3.2637Y7.1233
X2.545Y7.842
X2.542Y7.8448
X2.5297Y7.8556
X2.5232Y7.8606
X2.5096Y7.8697
X2.5025Y7.8738
X2.4879Y7.881
X2.4803Y7.8841
X2.4648Y7.8894
X2.4569Y7.8915
X2.4409Y7.8947
X2.4328Y7.8958
X2.4165Y7.8968
X2.4083
X2.392Y7.8958
X2.3839Y7.8947
X2.3679Y7.8915
X2.36Y7.8894
X2.3445Y7.8841
X2.3369Y7.881
X2.3223Y7.8738
X2.3152Y7.8697
X2.3016Y7.8606
X2.2951Y7.8556
X2.2828Y7.8448
X2.277Y7.8391
X2.2662Y7.8268
X2.2613Y7.8203
X2.2522Y7.8067
X2.2481Y7.7996
X2.2409Y7.7849
X2.2377Y7.7774
X2.2325Y7.7619
X2.2304Y7.754
X2.2272Y7.738
X2.2261Y7.7299
X2.225Y7.7135
X2.2249Y7.7095
Y1.125
X2.225Y1.1209
X2.2261Y1.1046
X2.2272Y1.0965
X2.2304Y1.0804
X2.2325Y1.0725
X2.2377Y1.0571
X2.2409Y1.0495
X2.2481Y1.0348
X2.2522Y1.0278
X2.2613Y1.0142
X2.2662Y1.0077
X2.277Y0.9954
X2.2828Y0.9896
X2.2951Y0.9788
X2.3016Y0.9739
X2.3152Y0.9648
X2.3223Y0.9607
X2.3369Y0.9535
X2.3445Y0.9503
X2.36Y0.9451
X2.3679Y0.9429
X2.3839Y0.9398
X2.392Y0.9387
X2.4083Y0.9376
X2.4124Y0.9375
Z-0.1874F19.68
X3.1311F39.37
X3.1352Y0.9376
X3.1515Y0.9387
X3.1596Y0.9398
X3.1757Y0.9429
X3.1836Y0.9451
X3.1991Y0.9503
X3.2066Y0.9535
X3.2213Y0.9607
X3.2283Y0.9648
X3.2419Y0.9739
X3.2484Y0.9788
X3.2607Y0.9896
X3.2665Y0.9954
X3.2773Y1.0077
X3.2823Y1.0142
X3.2913Y1.0278
X3.2954Y1.0348
X3.3027Y1.0495
X3.3058Y1.0571
X3.311Y1.0725
X3.3132Y1.0804
X3.3164Y1.0965
X3.3174Y1.1046
X3.3185Y1.1209
X3.3186Y1.125
Y6.9908
X3.3185Y6.9948
X3.3174Y7.0112
X3.3164Y7.0193
X3.3132Y7.0353
X3.311Y7.0432
X3.3058Y7.0587
X3.3027Y7.0662
X3.2954Y7.0809
X3.2913Y7.088
X3.2823Y7.1016
X3.2773Y7.1081
X3.2665Y7.1204
X3.2637Y7.1233
X2.545Y7.842
X2.542Y7.8448
X2.5297Y7.8556
X2.5232Y7.8606
X2.5096Y7.8697
X2.5025Y7.8738
X2.4879Y7.881
X2.4803Y7.8841
X2.4648Y7.8894
X2.4569Y7.8915
X2.4409Y7.8947
X2.4328Y7.8958
X2.4165Y7.8968
X2.4083
X2.392Y7.8958
X2.3839Y7.8947
X2.3679Y7.8915
X2.36Y7.8894
X2.3445Y7.8841
X2.3369Y7.881
X2.3223Y7.8738
X2.3152Y7.8697
X2.3016Y7.8606
X2.2951Y7.8556
X2.2828Y7.8448
X2.277Y7.8391
X2.2662Y7.8268
X2.2613Y7.8203
X2.2522Y7.8067
X2.2481Y7.7996
X2.2409Y7.7849
X2.2377Y7.7774
X2.2325Y7.7619
X2.2304Y7.754
X2.2272Y7.738
X2.2261Y7.7299
X2.225Y7.7135
X2.2249Y7.7095
Y1.125
X2.225Y1.1209
X2.2261Y1.1046
X2.2272Y1.0965
X2.2304Y1.0804
X2.2325Y1.0725
X2.2377Y1.0571
X2.2409Y1.0495
X2.2481Y1.0348
X2.2522Y1.0278
X2.2613Y1.0142
X2.2662Y1.0077
X2.277Y0.9954
X2.2828Y0.9896
X2.2951Y0.9788
X2.3016Y0.9739
X2.3152Y0.9648
X2.3223Y0.9607
X2.3369Y0.9535
X2.3445Y0.9503
X2.36Y0.9451
X2.3679Y0.9429
X2.3839Y0.9398
X2.392Y0.9387
X2.4083Y0.9376
X2.4124Y0.9375
Z-0.25F19.68
X3.1311F39.37
X3.1352Y0.9376
X3.1515Y0.9387
X3.1596Y0.9398
X3.1757Y0.9429
X3.1836Y0.9451
X3.1991Y0.9503
X3.2066Y0.9535
X3.2213Y0.9607
X3.2283Y0.9648
X3.2419Y0.9739
X3.2484Y0.9788
X3.2607Y0.9896
X3.2665Y0.9954
X3.2773Y1.0077
X3.2823Y1.0142
X3.2913Y1.0278
X3.2954Y1.0348
X3.3027Y1.0495
X3.3058Y1.0571
X3.311Y1.0725
X3.3132Y1.0804
X3.3164Y1.0965
X3.3174Y1.1046
X3.3185Y1.1209
X3.3186Y1.125
Y6.9908
X3.3185Y6.9948
X3.3174Y7.0112
X3.3164Y7.0193
X3.3132Y7.0353
X3.311Y7.0432
X3.3058Y7.0587
X3.3027Y7.0662
X3.2954Y7.0809
X3.2913Y7.088
X3.2823Y7.1016
X3.2773Y7.1081
X3.2665Y7.1204
X3.2637Y7.1233
X2.545Y7.842
X2.542Y7.8448
X2.5297Y7.8556
X2.5232Y7.8606
X2.5096Y7.8697
X2.5025Y7.8738
X2.4879Y7.881
X2.4803Y7.8841
X2.4648Y7.8894
X2.4569Y7.8915
X2.4409Y7.8947
X2.4328Y7.8958
X2.4165Y7.8968
X2.4083
X2.392Y7.8958
X2.3839Y7.8947
X2.3679Y7.8915
X2.36Y7.8894
X2.3445Y7.8841
X2.3369Y7.881
X2.3223Y7.8738
X2.3152Y7.8697
X2.3016Y7.8606
X2.2951Y7.8556
X2.2828Y7.8448
X2.277Y7.8391
X2.2662Y7.8268
X2.2613Y7.8203
X2.2522Y7.8067
X2.2481Y7.7996
X2.2409Y7.7849
X2.2377Y7.7774
X2.2325Y7.7619
X2.2304Y7.754
X2.2272Y7.738
X2.2261Y7.7299
X2.225Y7.7135
X2.2249Y7.7095
Y1.125
X2.225Y1.1209
X2.2261Y1.1046
X2.2272Y1.0965
X2.2304Y1.0804
X2.2325Y1.0725
X2.2377Y1.0571
X2.2409Y1.0495
X2.2481Y1.0348
X2.2522Y1.0278
X2.2613Y1.0142
X2.2662Y1.0077
X2.277Y0.9954
X2.2828Y0.9896
X2.2951Y0.9788
X2.3016Y0.9739
X2.3152Y0.9648
X2.3223Y0.9607
X2.3369Y0.9535
X2.3445Y0.9503
X2.36Y0.9451
X2.3679Y0.9429
X2.3839Y0.9398
X2.392Y0.9387
X2.4083Y0.9376
X2.4124Y0.9375
Z-0.3124F19.68
X3.1311F39.37
X3.1352Y0.9376
X3.1515Y0.9387
X3.1596Y0.9398
X3.1757Y0.9429
X3.1836Y0.9451
X3.1991Y0.9503
X3.2066Y0.9535
X3.2213Y0.9607
X3.2283Y0.9648
X3.2419Y0.9739
X3.2484Y0.9788
X3.2607Y0.9896
X3.2665Y0.9954
X3.2773Y1.0077
X3.2823Y1.0142
X3.2913Y1.0278
X3.2954Y1.0348
X3.3027Y1.0495
X3.3058Y1.0571
X3.311Y1.0725
X3.3132Y1.0804
X3.3164Y1.0965
X3.3174Y1.1046
X3.3185Y1.1209
X3.3186Y1.125
Y6.9908
X3.3185Y6.9948
X3.3174Y7.0112
X3.3164Y7.0193
X3.3132Y7.0353
X3.311Y7.0432
X3.3058Y7.0587
X3.3027Y7.0662
X3.2954Y7.0809
X3.2913Y7.088
X3.2823Y7.1016
X3.2773Y7.1081
X3.2665Y7.1204
X3.2637Y7.1233
X2.545Y7.842
X2.542Y7.8448
X2.5297Y7.8556
X2.5232Y7.8606
X2.5096Y7.8697
X2.5025Y7.8738
X2.4879Y7.881
X2.4803Y7.8841
X2.4648Y7.8894
X2.4569Y7.8915
X2.4409Y7.8947
X2.4328Y7.8958
X2.4165Y7.8968
X2.4083
X2.392Y7.8958
X2.3839Y7.8947
X2.3679Y7.8915
X2.36Y7.8894
X2.3445Y7.8841
X2.3369Y7.881
X2.3223Y7.8738
X2.3152Y7.8697
X2.3016Y7.8606
X2.2951Y7.8556
X2.2828Y7.8448
X2.277Y7.8391
X2.2662Y7.8268
X2.2613Y7.8203
X2.2522Y7.8067
X2.2481Y7.7996
X2.2409Y7.7849
X2.2377Y7.7774
X2.2325Y7.7619
X2.2304Y7.754
X2.2272Y7.738
X2.2261Y7.7299
X2.225Y7.7135
X2.2249Y7.7095
Y1.125
X2.225Y1.1209
X2.2261Y1.1046
X2.2272Y1.0965
X2.2304Y1.0804
X2.2325Y1.0725
X2.2377Y1.0571
X2.2409Y1.0495
X2.2481Y1.0348
X2.2522Y1.0278
X2.2613Y1.0142
X2.2662Y1.0077
X2.277Y0.9954
X2.2828Y0.9896
X2.2951Y0.9788
X2.3016Y0.9739
X2.3152Y0.9648
X2.3223Y0.9607
X2.3369Y0.9535
X2.3445Y0.9503
X2.36Y0.9451
X2.3679Y0.9429
X2.3839Y0.9398
X2.392Y0.9387
X2.4083Y0.9376
X2.4124Y0.9375
Z-0.3125F19.68
X3.1311F39.37
X3.1352Y0.9376
X3.1515Y0.9387
X3.1596Y0.9398
X3.1757Y0.9429
X3.1836Y0.9451
X3.1991Y0.9503
X3.2066Y0.9535
X3.2213Y0.9607
X3.2283Y0.9648
X3.2419Y0.9739
X3.2484Y0.9788
X3.2607Y0.9896
X3.2665Y0.9954
X3.2773Y1.0077
X3.2823Y1.0142
X3.2913Y1.0278
X3.2954Y1.0348
X3.3027Y1.0495
X3.3058Y1.0571
X3.311Y1.0725
X3.3132Y1.0804
X3.3164Y1.0965
X3.3174Y1.1046
X3.3185Y1.1209
X3.3186Y1.125
Y6.9908
X3.3185Y6.9948
X3.3174Y7.0112
X3.3164Y7.0193
X3.3132Y7.0353
X3.311Y7.0432
X3.3058Y7.0587
X3.3027Y7.0662
X3.2954Y7.0809
X3.2913Y7.088
X3.2823Y7.1016
X3.2773Y7.1081
X3.2665Y7.1204
X3.2637Y7.1233
X2.545Y7.842
X2.542Y7.8448
X2.5297Y7.8556
X2.5232Y7.8606
X2.5096Y7.8697
X2.5025Y7.8738
X2.4879Y7.881
X2.4803Y7.8841
X2.4648Y7.8894
X2.4569Y7.8915
X2.4409Y7.8947
X2.4328Y7.8958
X2.4165Y7.8968
X2.4083
X2.392Y7.8958
X2.3839Y7.8947
X2.3679Y7.8915
X2.36Y7.8894
X2.3445Y7.8841
X2.3369Y7.881
X2.3223Y7.8738
X2.3152Y7.8697
X2.3016Y7.8606
X2.2951Y7.8556
X2.2828Y7.8448
X2.277Y7.8391
X2.2662Y7.8268
X2.2613Y7.8203
X2.2522Y7.8067
X2.2481Y7.7996
X2.2409Y7.7849
X2.2377Y7.7774
X2.2325Y7.7619
X2.2304Y7.754
X2.2272Y7.738
X2.2261Y7.7299
X2.225Y7.7135
X2.2249Y7.7095
Y1.125
X2.225Y1.1209
X2.2261Y1.1046
X2.2272Y1.0965
X2.2304Y1.0804
X2.2325Y1.0725
X2.2377Y1.0571
X2.2409Y1.0495
X2.2481Y1.0348
X2.2522Y1.0278
X2.2613Y1.0142
X2.2662Y1.0077
X2.277Y0.9954
X2.2828Y0.9896
X2.2951Y0.9788
X2.3016Y0.9739
X2.3152Y0.9648
X2.3223Y0.9607
X2.3369Y0.9535
X2.3445Y0.9503
X2.36Y0.9451
X2.3679Y0.9429
X2.3839Y0.9398
X2.392Y0.9387
X2.4083Y0.9376
X2.4124Y0.9375
G0Z0.2
X3.7124
G1Z-0.0624F19.68
X4.4311F39.37
X4.4352Y0.9376
X4.4515Y0.9387
X4.4596Y0.9398
X4.4757Y0.9429
X4.4836Y0.9451
X4.4991Y0.9503
X4.5066Y0.9535
X4.5213Y0.9607
X4.5283Y0.9648
X4.5419Y0.9739
X4.5484Y0.9788
X4.5607Y0.9896
X4.5665Y0.9954
X4.5773Y1.0077
X4.5823Y1.0142
X4.5913Y1.0278
X4.5954Y1.0348
X4.6027Y1.0495
X4.6058Y1.0571
X4.611Y1.0725
X4.6132Y1.0804
X4.6164Y1.0965
X4.6174Y1.1046
X4.6185Y1.1209
X4.6186Y1.125
Y6.9908
X4.6185Y6.9948
X4.6174Y7.0112
X4.6164Y7.0193
X4.6132Y7.0353
X4.611Y7.0432
X4.6058Y7.0587
X4.6027Y7.0662
X4.5954Y7.0809
X4.5913Y7.088
X4.5823Y7.1016
X4.5773Y7.1081
X4.5665Y7.1204
X4.5637Y7.1233
X3.845Y7.842
X3.842Y7.8448
X3.8297Y7.8556
X3.8232Y7.8606
X3.8096Y7.8697
X3.8025Y7.8738
X3.7879Y7.881
X3.7803Y7.8841
X3.7648Y7.8894
X3.7569Y7.8915
X3.7409Y7.8947
X3.7328Y7.8958
X3.7165Y7.8968
X3.7083
X3.692Y7.8958
X3.6839Y7.8947
X3.6679Y7.8915
X3.66Y7.8894
X3.6445Y7.8841
X3.6369Y7.881
X3.6223Y7.8738
X3.6152Y7.8697
X3.6016Y7.8606
X3.5951Y7.8556
X3.5828Y7.8448
X3.577Y7.8391
X3.5662Y7.8268
X3.5613Y7.8203
X3.5522Y7.8067
X3.5481Y7.7996
X3.5409Y7.7849
X3.5377Y7.7774
X3.5325Y7.7619
X3.5304Y7.754
X3.5272Y7.738
X3.5261Y7.7299
X3.525Y7.7135
X3.5249Y7.7095
Y1.125
X3.525Y1.1209
X3.5261Y1.1046
X3.5272Y1.0965
X3.5304Y1.0804
X3.5325Y1.0725
X3.5377Y1.0571
X3.5409Y1.0495
X3.5481Y1.0348
X3.5522Y1.0278
X3.5613Y1.0142
X3.5662Y1.0077
X3.577Y0.9954
X3.5828Y0.9896
X3.5951Y0.9788
X3.6016Y0.9739
X3.6152Y0.9648
X3.6223Y0.9607
X3.6369Y0.9535
X3.6445Y0.9503
X3.66Y0.9451
X3.6679Y0.9429
X3.6839Y0.9398
X3.692Y0.9387
X3.7083Y0.9376
X3.7124Y0.9375
Z-0.125F19.68
X4.4311F39.37
X4.4352Y0.9376
X4.4515Y0.9387
X4.4596Y0.9398
X4.4757Y0.9429
X4.4836Y0.9451
X4.4991Y0.9503
X4.5066Y0.9535
X4.5213Y0.9607
X4.5283Y0.9648
X4.5419Y0.9739
X4.5484Y0.9788
X4.5607Y0.9896
X4.5665Y0.9954
X4.5773Y1.0077
X4.5823Y1.0142
X4.5913Y1.0278
X4.5954Y1.0348
X4.6027Y1.0495
X4.6058Y1.0571
X4.611Y1.0725
X4.6132Y1.0804
X4.6164Y1.0965
X4.6174Y1.1046
X4.6185Y1.1209
X4.6186Y1.125
Y6.9908
X4.6185Y6.9948
X4.6174Y7.0112
X4.6164Y7.0193
X4.6132Y7.0353
X4.611Y7.0432
X4.6058Y7.0587
X4.6027Y7.0662
X4.5954Y7.0809
X4.5913Y7.088
X4.5823Y7.1016
X4.5773Y7.1081
X4.5665Y7.1204
X4.5637Y7.1233
X3.845Y7.842
X3.842Y7.8448
X3.8297Y7.8556
X3.8232Y7.8606
X3.8096Y7.8697
X3.8025Y7.8738
X3.7879Y7.881
X3.7803Y7.8841
X3.7648Y7.8894
X3.7569Y7.8915
X3.7409Y7.8947
X3.7328Y7.8958
X3.7165Y7.8968
X3.7083
X3.692Y7.8958
X3.6839Y7.8947
X3.6679Y7.8915
X3.66Y7.8894
X3.6445Y7.8841
X3.6369Y7.881
X3.6223Y7.8738
X3.6152Y7.8697
X3.6016Y7.8606
X3.5951Y7.8556
X3.5828Y7.8448
X3.577Y7.8391
X3.5662Y7.8268
X3.5613Y7.8203
X3.5522Y7.8067
X3.5481Y7.7996
X3.5409Y7.7849
X3.5377Y7.7774
X3.5325Y7.7619
X3.5304Y7.754
X3.5272Y7.738
X3.5261Y7.7299
X3.525Y7.7135
X3.5249Y7.7095
Y1.125
X3.525Y1.1209
X3.5261Y1.1046
X3.5272Y1.0965
X3.5304Y1.0804
X3.5325Y1.0725
X3.5377Y1.0571
X3.5409Y1.0495
X3.5481Y1.0348
X3.5522Y1.0278
X3.5613Y1.0142
X3.5662Y1.0077
X3.577Y0.9954
X3.5828Y0.9896
X3.5951Y0.9788
X3.6016Y0.9739
X3.6152Y0.9648
X3.6223Y0.9607
X3.6369Y0.9535
X3.6445Y0.9503
X3.66Y0.9451
X3.6679Y0.9429
X3.6839Y0.9398
X3.692Y0.9387
X3.7083Y0.9376
X3.7124Y0.9375
Z-0.1874F19.68
X4.4311F39.37
X4.4352Y0.9376
X4.4515Y0.9387
X4.4596Y0.9398
X4.4757Y0.9429
X4.4836Y0.9451
X4.4991Y0.9503
X4.5066Y0.9535
X4.5213Y0.9607
X4.5283Y0.9648
X4.5419Y0.9739
X4.5484Y0.9788
X4.5607Y0.9896
X4.5665Y0.9954
X4.5773Y1.0077
X4.5823Y1.0142
X4.5913Y1.0278
X4.5954Y1.0348
X4.6027Y1.0495
X4.6058Y1.0571
X4.611Y1.0725
X4.6132Y1.0804
X4.6164Y1.0965
X4.6174Y1.1046
X4.6185Y1.1209
X4.6186Y1.125
Y6.9908
X4.6185Y6.9948
X4.6174Y7.0112
X4.6164Y7.0193
X4.6132Y7.0353
X4.611Y7.0432
X4.6058Y7.0587
X4.6027Y7.0662
X4.5954Y7.0809
X4.5913Y7.088
X4.5823Y7.1016
X4.5773Y7.1081
X4.5665Y7.1204
X4.5637Y7.1233
X3.845Y7.842
X3.842Y7.8448
X3.8297Y7.8556
X3.8232Y7.8606
X3.8096Y7.8697
X3.8025Y7.8738
X3.7879Y7.881
X3.7803Y7.8841
X3.7648Y7.8894
X3.7569Y7.8915
X3.7409Y7.8947
X3.7328Y7.8958
X3.7165Y7.8968
X3.7083
X3.692Y7.8958
X3.6839Y7.8947
X3.6679Y7.8915
X3.66Y7.8894
X3.6445Y7.8841
X3.6369Y7.881
X3.6223Y7.8738
X3.6152Y7.8697
X3.6016Y7.8606
X3.5951Y7.8556
X3.5828Y7.8448
X3.577Y7.8391
X3.5662Y7.8268
X3.5613Y7.8203
X3.5522Y7.8067
X3.5481Y7.7996
X3.5409Y7.7849
X3.5377Y7.7774
X3.5325Y7.7619
X3.5304Y7.754
X3.5272Y7.738
X3.5261Y7.7299
X3.525Y7.7135
X3.5249Y7.7095
Y1.125
X3.525Y1.1209
X3.5261Y1.1046
X3.5272Y1.0965
X3.5304Y1.0804
X3.5325Y1.0725
X3.5377Y1.0571
X3.5409Y1.0495
X3.5481Y1.0348
X3.5522Y1.0278
X3.5613Y1.0142
X3.5662Y1.0077
X3.577Y0.9954
X3.5828Y0.9896
X3.5951Y0.9788
X3.6016Y0.9739
X3.6152Y0.9648
X3.6223Y0.9607
X3.6369Y0.9535
X3.6445Y0.9503
X3.66Y0.9451
X3.6679Y0.9429
X3.6839Y0.9398
X3.692Y0.9387
X3.7083Y0.9376
X3.7124Y0.9375
Z-0.25F19.68
X4.4311F39.37
X4.4352Y0.9376
X4.4515Y0.9387
X4.4596Y0.9398
X4.4757Y0.9429
X4.4836Y0.9451
X4.4991Y0.9503
X4.5066Y0.9535
X4.5213Y0.9607
X4.5283Y0.9648
X4.5419Y0.9739
X4.5484Y0.9788
X4.5607Y0.9896
X4.5665Y0.9954
X4.5773Y1.0077
X4.5823Y1.0142
X4.5913Y1.0278
X4.5954Y1.0348
X4.6027Y1.0495
X4.6058Y1.0571
X4.611Y1.0725
X4.6132Y1.0804
X4.6164Y1.0965
X4.6174Y1.1046
X4.6185Y1.1209
X4.6186Y1.125
Y6.9908
X4.6185Y6.9948
X4.6174Y7.0112
X4.6164Y7.0193
X4.6132Y7.0353
X4.611Y7.0432
X4.6058Y7.0587
X4.6027Y7.0662
X4.5954Y7.0809
X4.5913Y7.088
X4.5823Y7.1016
X4.5773Y7.1081
X4.5665Y7.1204
X4.5637Y7.1233
X3.845Y7.842
X3.842Y7.8448
X3.8297Y7.8556
X3.8232Y7.8606
X3.8096Y7.8697
X3.8025Y7.8738
X3.7879Y7.881
X3.7803Y7.8841
X3.7648Y7.8894
X3.7569Y7.8915
X3.7409Y7.8947
X3.7328Y7.8958
X3.7165Y7.8968
X3.7083
X3.692Y7.8958
X3.6839Y7.8947
X3.6679Y7.8915
X3.66Y7.8894
X3.6445Y7.8841
X3.6369Y7.881
X3.6223Y7.8738
X3.6152Y7.8697
X3.6016Y7.8606
X3.5951Y7.8556
X3.5828Y7.8448
X3.577Y7.8391
X3.5662Y7.8268
X3.5613Y7.8203
X3.5522Y7.8067
X3.5481Y7.7996
X3.5409Y7.7849
X3.5377Y7.7774
X3.5325Y7.7619
X3.5304Y7.754
X3.5272Y7.738
X3.5261Y7.7299
X3.525Y7.7135
X3.5249Y7.7095
Y1.125
X3.525Y1.1209
X3.5261Y1.1046
X3.5272Y1.0965
X3.5304Y1.0804
X3.5325Y1.0725
X3.5377Y1.0571
X3.5409Y1.0495
X3.5481Y1.0348
X3.5522Y1.0278
X3.5613Y1.0142
X3.5662Y1.0077
X3.577Y0.9954
X3.5828Y0.9896
X3.5951Y0.9788
X3.6016Y0.9739
X3.6152Y0.9648
X3.6223Y0.9607
X3.6369Y0.9535
X3.6445Y0.9503
X3.66Y0.9451
X3.6679Y0.9429
X3.6839Y0.9398
X3.692Y0.9387
X3.7083Y0.9376
X3.7124Y0.9375
Z-0.3124F19.68
X4.4311F39.37
X4.4352Y0.9376
X4.4515Y0.9387
X4.4596Y0.9398
X4.4757Y0.9429
X4.4836Y0.9451
X4.4991Y0.9503
X4.5066Y0.9535
X4.5213Y0.9607
X4.5283Y0.9648
X4.5419Y0.9739
X4.5484Y0.9788
X4.5607Y0.9896
X4.5665Y0.9954
X4.5773Y1.0077
X4.5823Y1.0142
X4.5913Y1.0278
X4.5954Y1.0348
X4.6027Y1.0495
X4.6058Y1.0571
X4.611Y1.0725
X4.6132Y1.0804
X4.6164Y1.0965
X4.6174Y1.1046
X4.6185Y1.1209
X4.6186Y1.125
Y6.9908
X4.6185Y6.9948
X4.6174Y7.0112
X4.6164Y7.0193
X4.6132Y7.0353
X4.611Y7.0432
X4.6058Y7.0587
X4.6027Y7.0662
X4.5954Y7.0809
X4.5913Y7.088
X4.5823Y7.1016
X4.5773Y7.1081
X4.5665Y7.1204
X4.5637Y7.1233
X3.845Y7.842
X3.842Y7.8448
X3.8297Y7.8556
X3.8232Y7.8606
X3.8096Y7.8697
X3.8025Y7.8738
X3.7879Y7.881
X3.7803Y7.8841
X3.7648Y7.8894
X3.7569Y7.8915
X3.7409Y7.8947
X3.7328Y7.8958
X3.7165Y7.8968
X3.7083
X3.692Y7.8958
X3.6839Y7.8947
X3.6679Y7.8915
X3.66Y7.8894
X3.6445Y7.8841
X3.6369Y7.881
X3.6223Y7.8738
X3.6152Y7.8697
X3.6016Y7.8606
X3.5951Y7.8556
X3.5828Y7.8448
X3.577Y7.8391
X3.5662Y7.8268
X3.5613Y7.8203
X3.5522Y7.8067
X3.5481Y7.7996
X3.5409Y7.7849
X3.5377Y7.7774
X3.5325Y7.7619
X3.5304Y7.754
X3.5272Y7.738
X3.5261Y7.7299
X3.525Y7.7135
X3.5249Y7.7095
Y1.125
X3.525Y1.1209
X3.5261Y1.1046
X3.5272Y1.0965
X3.5304Y1.0804
X3.5325Y1.0725
X3.5377Y1.0571
X3.5409Y1.0495
X3.5481Y1.0348
X3.5522Y1.0278
X3.5613Y1.0142
X3.5662Y1.0077
X3.577Y0.9954
X3.5828Y0.9896
X3.5951Y0.9788
X3.6016Y0.9739
X3.6152Y0.9648
X3.6223Y0.9607
X3.6369Y0.9535
X3.6445Y0.9503
X3.66Y0.9451
X3.6679Y0.9429
X3.6839Y0.9398
X3.692Y0.9387
X3.7083Y0.9376
X3.7124Y0.9375
Z-0.3125F19.68
X4.4311F39.37
X4.4352Y0.9376
X4.4515Y0.9387
X4.4596Y0.9398
X4.4757Y0.9429
X4.4836Y0.9451
X4.4991Y0.9503
X4.5066Y0.9535
X4.5213Y0.9607
X4.5283Y0.9648
X4.5419Y0.9739
X4.5484Y0.9788
X4.5607Y0.9896
X4.5665Y0.9954
X4.5773Y1.0077
X4.5823Y1.0142
X4.5913Y1.0278
X4.5954Y1.0348
X4.6027Y1.0495
X4.6058Y1.0571
X4.611Y1.0725
X4.6132Y1.0804
X4.6164Y1.0965
X4.6174Y1.1046
X4.6185Y1.1209
X4.6186Y1.125
Y6.9908
X4.6185Y6.9948
X4.6174Y7.0112
X4.6164Y7.0193
X4.6132Y7.0353
X4.611Y7.0432
X4.6058Y7.0587
X4.6027Y7.0662
X4.5954Y7.0809
X4.5913Y7.088
X4.5823Y7.1016
X4.5773Y7.1081
X4.5665Y7.1204
X4.5637Y7.1233
X3.845Y7.842
X3.842Y7.8448
X3.8297Y7.8556
X3.8232Y7.8606
X3.8096Y7.8697
X3.8025Y7.8738
X3.7879Y7.881
X3.7803Y7.8841
X3.7648Y7.8894
X3.7569Y7.8915
X3.7409Y7.8947
X3.7328Y7.8958
X3.7165Y7.8968
X3.7083
X3.692Y7.8958
X3.6839Y7.8947
X3.6679Y7.8915
X3.66Y7.8894
X3.6445Y7.8841
X3.6369Y7.881
X3.6223Y7.8738
X3.6152Y7.8697
X3.6016Y7.8606
X3.5951Y7.8556
X3.5828Y7.8448
X3.577Y7.8391
X3.5662Y7.8268
X3.5613Y7.8203
X3.5522Y7.8067
X3.5481Y7.7996
X3.5409Y7.7849
X3.5377Y7.7774
X3.5325Y7.7619
X3.5304Y7.754
X3.5272Y7.738
X3.5261Y7.7299
X3.525Y7.7135
X3.5249Y7.7095
Y1.125
X3.525Y1.1209
X3.5261Y1.1046
X3.5272Y1.0965
X3.5304Y1.0804
X3.5325Y1.0725
X3.5377Y1.0571
X3.5409Y1.0495
X3.5481Y1.0348
X3.5522Y1.0278
X3.5613Y1.0142
X3.5662Y1.0077
X3.577Y0.9954
X3.5828Y0.9896
X3.5951Y0.9788
X3.6016Y0.9739
X3.6152Y0.9648
X3.6223Y0.9607
X3.6369Y0.9535
X3.6445Y0.9503
X3.66Y0.9451
X3.6679Y0.9429
X3.6839Y0.9398
X3.692Y0.9387
X3.7083Y0.9376
X3.7124Y0.9375
G0Z0.2
(Tool: D = 0.125''  type END flutes 2)
S15000M03
G00 Z0.2 F196.85

X0.7682Y6.4851
G1Z-0.0624F19.68
X0.7626Y6.4907F39.37
X0.7571Y6.4963
X0.7515Y6.5018
X0.7459Y6.5074
X0.7404Y6.513
X0.7348Y6.5186
X0.7292Y6.5241
X0.7237Y6.5297
X0.7181Y6.5353
X0.7125Y6.5408
X0.707Y6.5464
X0.7014Y6.552
X0.6958Y6.5575
X0.6903Y6.5631
X0.6847Y6.5687
X0.6791Y6.5742
X0.6736Y6.5798
X0.668Y6.5854
X0.6624Y6.5909
X0.6568Y6.5965
X0.6513Y6.6021
X0.6457Y6.6076
X0.6401Y6.6132
X0.6346Y6.6188
X0.629Y6.6243
X0.6234Y6.6299
X0.6179Y6.6355
X0.6123Y6.641
X0.6067Y6.6466
X0.6012Y6.6522
X0.5956Y6.6577
X0.59Y6.6633
X0.5845Y6.6689
X0.5789Y6.6744
X0.5733Y6.68
X0.5678Y6.6856
X0.5622Y6.6912
X0.5566Y6.6967
X0.5511Y6.7023
X0.5455Y6.7079
X0.5399Y6.7134
X0.5344Y6.719
X0.5288Y6.7246
X0.5232Y6.7301
X0.5177Y6.7357
X0.5121Y6.7413
X0.5065Y6.7468
X0.5009Y6.7524
X0.4954Y6.758
X0.4898Y6.7635
X0.4842Y6.7691
X0.4787Y6.7747
X0.4731Y6.7802
X0.4675Y6.7858
X0.462Y6.7914
X0.4564Y6.7969
X0.4508Y6.8025
X0.4453Y6.8081
X0.4397Y6.8136
X0.4341Y6.8192
X0.4286Y6.8248
X0.423Y6.8303
X0.4174Y6.8359
X0.4119Y6.8415
X0.4063Y6.847
X0.4007Y6.8526
X0.3952Y6.8582
X0.3896Y6.8637
X0.384Y6.8693
X0.3785Y6.8749
X0.3729Y6.8805
X0.3673Y6.886
X0.3617Y6.8916
X0.3562Y6.8972
X0.3506Y6.9027
X0.345Y6.9083
X0.3395Y6.9139
X0.3339Y6.9194
X0.3283Y6.925
X0.3228Y6.9306
X0.3172Y6.9361
X0.3116Y6.9417
X0.3061Y6.9473
X0.3005Y6.9528
X0.2949Y6.9584
X0.2894Y6.964
X0.2838Y6.9695
X0.2782Y6.9751
X0.2727Y6.9807
X0.2671Y6.9862
X0.2615Y6.9918
X0.256Y6.9974
X0.2504Y7.0029
X0.2448Y7.0085
X0.2393Y7.0141
X0.2337Y7.0196
X0.2281Y7.0252
X0.2226Y7.0308
X0.217Y7.0363
X0.2114Y7.0419
X0.2058Y7.0475
X0.2003Y7.053
X0.1947Y7.0586
X0.1891Y7.0642
X0.1836Y7.0698
X0.178Y7.0753
X0.1724Y7.0809
X0.1669Y7.0865
X0.1613Y7.092
X0.1557Y7.0976
X0.1515Y7.1019
X0.1459Y7.1074
X0.1403Y7.113
X0.1347Y7.1186
X0.1292Y7.1241
X0.1236Y7.1297
X0.118Y7.1353
X0.1125Y7.1408
X0.1069Y7.1464
X0.1013Y7.152
X0.0958Y7.1576
X0.0902Y7.1631
X0.0846Y7.1687
X0.0791Y7.1743
X0.0735Y7.1798
X0.0679Y7.1854
X0.0624Y7.191
X0.0568Y7.1965
X0.0512Y7.2021
X0.0457Y7.2077
X0.0401Y7.2132
X0.0345Y7.2188
X0.029Y7.2244
X0.0234Y7.2299
X0.0178Y7.2355
X0.0123Y7.2411
X0.0067Y7.2466
X0.0011Y7.2522
X-0.0043Y7.2578
X-0.0099Y7.2633
X-0.0155Y7.2689
X-0.0211Y7.2745
X-0.0266Y7.28
X-0.0322Y7.2856
X-0.0378Y7.2912
X-0.0433Y7.2967
X-0.0489Y7.3023
X-0.0545Y7.3079
X-0.06Y7.3134
X-0.0656Y7.319
X-0.0712Y7.3246
X-0.0767Y7.3301
X-0.0823Y7.3357
X-0.0879Y7.3413
X-0.0934Y7.3469
X-0.099Y7.3524
X-0.1046Y7.358
X-0.1101Y7.3636
X-0.1157Y7.3691
X-0.1213Y7.3747
X-0.1268Y7.3803
X-0.1324Y7.3858
X-0.138Y7.3914
X-0.1435Y7.397
X-0.1491Y7.4025
X-0.1547Y7.4081
X-0.1602Y7.4137
X-0.1658Y7.4192
X-0.1714Y7.4248
X-0.177Y7.4304
X-0.1825Y7.4359
X-0.1881Y7.4415
X-0.1937Y7.4471
X-0.1992Y7.4526
X-0.2048Y7.4582
X-0.2104Y7.4638
X-0.2159Y7.4693
X-0.2215Y7.4749
X-0.2271Y7.4805
X-0.2326Y7.486
X-0.2382Y7.4916
X-0.2438Y7.4972
X-0.2493Y7.5027
X-0.2549Y7.5083
X-0.2605Y7.5139
X-0.266Y7.5194
X-0.2716Y7.525
X-0.2772Y7.5306
X-0.2827Y7.5362
X-0.2883Y7.5417
X-0.2939Y7.5473
X-0.2994Y7.5529
X-0.305Y7.5584
X-0.3106Y7.564
X-0.3161Y7.5696
X-0.3217Y7.5751
X-0.3273Y7.5807
X-0.3329Y7.5863
X-0.3384Y7.5918
X-0.344Y7.5974
X-0.3496Y7.603
X-0.3551Y7.6085
X-0.3607Y7.6141
X-0.3663Y7.6197
X-0.3718Y7.6252
X-0.3774Y7.6308
X-0.383Y7.6364
X-0.3885Y7.6419
X-0.3941Y7.6475
X-0.3997Y7.6531
X-0.4052Y7.6586
X-0.4108Y7.6642
X-0.4164Y7.6698
X-0.4219Y7.6753
X-0.4275Y7.6809
X-0.4331Y7.6865
X-0.4386Y7.692
X-0.4442Y7.6976
X-0.4498Y7.7032
X-0.4553Y7.7088
X-0.4609Y7.7143
X-0.4652Y7.7186
G0Z0.2
X0.7682Y6.4851
G1Z-0.125F19.68
X0.7626Y6.4907F39.37
X0.7571Y6.4963
X0.7515Y6.5018
X0.7459Y6.5074
X0.7404Y6.513
X0.7348Y6.5186
X0.7292Y6.5241
X0.7237Y6.5297
X0.7181Y6.5353
X0.7125Y6.5408
X0.707Y6.5464
X0.7014Y6.552
X0.6958Y6.5575
X0.6903Y6.5631
X0.6847Y6.5687
X0.6791Y6.5742
X0.6736Y6.5798
X0.668Y6.5854
X0.6624Y6.5909
X0.6568Y6.5965
X0.6513Y6.6021
X0.6457Y6.6076
X0.6401Y6.6132
X0.6346Y6.6188
X0.629Y6.6243
X0.6234Y6.6299
X0.6179Y6.6355
X0.6123Y6.641
X0.6067Y6.6466
X0.6012Y6.6522
X0.5956Y6.6577
X0.59Y6.6633
X0.5845Y6.6689
X0.5789Y6.6744
X0.5733Y6.68
X0.5678Y6.6856
X0.5622Y6.6912
X0.5566Y6.6967
X0.5511Y6.7023
X0.5455Y6.7079
X0.5399Y6.7134
X0.5344Y6.719
X0.5288Y6.7246
X0.5232Y6.7301
X0.5177Y6.7357
X0.5121Y6.7413
X0.5065Y6.7468
X0.5009Y6.7524
X0.4954Y6.758
X0.4898Y6.7635
X0.4842Y6.7691
X0.4787Y6.7747
X0.4731Y6.7802
X0.4675Y6.7858
X0.462Y6.7914
X0.4564Y6.7969
X0.4508Y6.8025
X0.4453Y6.8081
X0.4397Y6.8136
X0.4341Y6.8192
X0.4286Y6.8248
X0.423Y6.8303
X0.4174Y6.8359
X0.4119Y6.8415
X0.4063Y6.847
X0.4007Y6.8526
X0.3952Y6.8582
X0.3896Y6.8637
X0.384Y6.8693
X0.3785Y6.8749
X0.3729Y6.8805
X0.3673Y6.886
X0.3617Y6.8916
X0.3562Y6.8972
X0.3506Y6.9027
X0.345Y6.9083
X0.3395Y6.9139
X0.3339Y6.9194
X0.3283Y6.925
X0.3228Y6.9306
X0.3172Y6.9361
X0.3116Y6.9417
X0.3061Y6.9473
X0.3005Y6.9528
X0.2949Y6.9584
X0.2894Y6.964
X0.2838Y6.9695
X0.2782Y6.9751
X0.2727Y6.9807
X0.2671Y6.9862
X0.2615Y6.9918
X0.256Y6.9974
X0.2504Y7.0029
X0.2448Y7.0085
X0.2393Y7.0141
X0.2337Y7.0196
X0.2281Y7.0252
X0.2226Y7.0308
X0.217Y7.0363
X0.2114Y7.0419
X0.2058Y7.0475
X0.2003Y7.053
X0.1947Y7.0586
X0.1891Y7.0642
X0.1836Y7.0698
X0.178Y7.0753
X0.1724Y7.0809
X0.1669Y7.0865
X0.1613Y7.092
X0.1557Y7.0976
X0.1515Y7.1019
X0.1459Y7.1074
X0.1403Y7.113
X0.1347Y7.1186
X0.1292Y7.1241
X0.1236Y7.1297
X0.118Y7.1353
X0.1125Y7.1408
X0.1069Y7.1464
X0.1013Y7.152
X0.0958Y7.1576
X0.0902Y7.1631
X0.0846Y7.1687
X0.0791Y7.1743
X0.0735Y7.1798
X0.0679Y7.1854
X0.0624Y7.191
X0.0568Y7.1965
X0.0512Y7.2021
X0.0457Y7.2077
X0.0401Y7.2132
X0.0345Y7.2188
X0.029Y7.2244
X0.0234Y7.2299
X0.0178Y7.2355
X0.0123Y7.2411
X0.0067Y7.2466
X0.0011Y7.2522
X-0.0043Y7.2578
X-0.0099Y7.2633
X-0.0155Y7.2689
X-0.0211Y7.2745
X-0.0266Y7.28
X-0.0322Y7.2856
X-0.0378Y7.2912
X-0.0433Y7.2967
X-0.0489Y7.3023
X-0.0545Y7.3079
X-0.06Y7.3134
X-0.0656Y7.319
X-0.0712Y7.3246
X-0.0767Y7.3301
X-0.0823Y7.3357
X-0.0879Y7.3413
X-0.0934Y7.3469
X-0.099Y7.3524
X-0.1046Y7.358
X-0.1101Y7.3636
X-0.1157Y7.3691
X-0.1213Y7.3747
X-0.1268Y7.3803
X-0.1324Y7.3858
X-0.138Y7.3914
X-0.1435Y7.397
X-0.1491Y7.4025
X-0.1547Y7.4081
X-0.1602Y7.4137
X-0.1658Y7.4192
X-0.1714Y7.4248
X-0.177Y7.4304
X-0.1825Y7.4359
X-0.1881Y7.4415
X-0.1937Y7.4471
X-0.1992Y7.4526
X-0.2048Y7.4582
X-0.2104Y7.4638
X-0.2159Y7.4693
X-0.2215Y7.4749
X-0.2271Y7.4805
X-0.2326Y7.486
X-0.2382Y7.4916
X-0.2438Y7.4972
X-0.2493Y7.5027
X-0.2549Y7.5083
X-0.2605Y7.5139
X-0.266Y7.5194
X-0.2716Y7.525
X-0.2772Y7.5306
X-0.2827Y7.5362
X-0.2883Y7.5417
X-0.2939Y7.5473
X-0.2994Y7.5529
X-0.305Y7.5584
X-0.3106Y7.564
X-0.3161Y7.5696
X-0.3217Y7.5751
X-0.3273Y7.5807
X-0.3329Y7.5863
X-0.3384Y7.5918
X-0.344Y7.5974
X-0.3496Y7.603
X-0.3551Y7.6085
X-0.3607Y7.6141
X-0.3663Y7.6197
X-0.3718Y7.6252
X-0.3774Y7.6308
X-0.383Y7.6364
X-0.3885Y7.6419
X-0.3941Y7.6475
X-0.3997Y7.6531
X-0.4052Y7.6586
X-0.4108Y7.6642
X-0.4164Y7.6698
X-0.4219Y7.6753
X-0.4275Y7.6809
X-0.4331Y7.6865
X-0.4386Y7.692
X-0.4442Y7.6976
X-0.4498Y7.7032
X-0.4553Y7.7088
X-0.4609Y7.7143
X-0.4652Y7.7186
G0Z0.2
X0.7682Y6.4851
G1Z-0.1874F19.68
X0.7626Y6.4907F39.37
X0.7571Y6.4963
X0.7515Y6.5018
X0.7459Y6.5074
X0.7404Y6.513
X0.7348Y6.5186
X0.7292Y6.5241
X0.7237Y6.5297
X0.7181Y6.5353
X0.7125Y6.5408
X0.707Y6.5464
X0.7014Y6.552
X0.6958Y6.5575
X0.6903Y6.5631
X0.6847Y6.5687
X0.6791Y6.5742
X0.6736Y6.5798
X0.668Y6.5854
X0.6624Y6.5909
X0.6568Y6.5965
X0.6513Y6.6021
X0.6457Y6.6076
X0.6401Y6.6132
X0.6346Y6.6188
X0.629Y6.6243
X0.6234Y6.6299
X0.6179Y6.6355
X0.6123Y6.641
X0.6067Y6.6466
X0.6012Y6.6522
X0.5956Y6.6577
X0.59Y6.6633
X0.5845Y6.6689
X0.5789Y6.6744
X0.5733Y6.68
X0.5678Y6.6856
X0.5622Y6.6912
X0.5566Y6.6967
X0.5511Y6.7023
X0.5455Y6.7079
X0.5399Y6.7134
X0.5344Y6.719
X0.5288Y6.7246
X0.5232Y6.7301
X0.5177Y6.7357
X0.5121Y6.7413
X0.5065Y6.7468
X0.5009Y6.7524
X0.4954Y6.758
X0.4898Y6.7635
X0.4842Y6.7691
X0.4787Y6.7747
X0.4731Y6.7802
X0.4675Y6.7858
X0.462Y6.7914
X0.4564Y6.7969
X0.4508Y6.8025
X0.4453Y6.8081
X0.4397Y6.8136
X0.4341Y6.8192
X0.4286Y6.8248
X0.423Y6.8303
X0.4174Y6.8359
X0.4119Y6.8415
X0.4063Y6.847
X0.4007Y6.8526
X0.3952Y6.8582
X0.3896Y6.8637
X0.384Y6.8693
X0.3785Y6.8749
X0.3729Y6.8805
X0.3673Y6.886
X0.3617Y6.8916
X0.3562Y6.8972
X0.3506Y6.9027
X0.345Y6.9083
X0.3395Y6.9139
X0.3339Y6.9194
X0.3283Y6.925
X0.3228Y6.9306
X0.3172Y6.9361
X0.3116Y6.9417
X0.3061Y6.9473
X0.3005Y6.9528
X0.2949Y6.9584
X0.2894Y6.964
X0.2838Y6.9695
X0.2782Y6.9751
X0.2727Y6.9807
X0.2671Y6.9862
X0.2615Y6.9918
X0.256Y6.9974
X0.2504Y7.0029
X0.2448Y7.0085
X0.2393Y7.0141
X0.2337Y7.0196
X0.2281Y7.0252
X0.2226Y7.0308
X0.217Y7.0363
X0.2114Y7.0419
X0.2058Y7.0475
X0.2003Y7.053
X0.1947Y7.0586
X0.1891Y7.0642
X0.1836Y7.0698
X0.178Y7.0753
X0.1724Y7.0809
X0.1669Y7.0865
X0.1613Y7.092
X0.1557Y7.0976
X0.1515Y7.1019
X0.1459Y7.1074
X0.1403Y7.113
X0.1347Y7.1186
X0.1292Y7.1241
X0.1236Y7.1297
X0.118Y7.1353
X0.1125Y7.1408
X0.1069Y7.1464
X0.1013Y7.152
X0.0958Y7.1576
X0.0902Y7.1631
X0.0846Y7.1687
X0.0791Y7.1743
X0.0735Y7.1798
X0.0679Y7.1854
X0.0624Y7.191
X0.0568Y7.1965
X0.0512Y7.2021
X0.0457Y7.2077
X0.0401Y7.2132
X0.0345Y7.2188
X0.029Y7.2244
X0.0234Y7.2299
X0.0178Y7.2355
X0.0123Y7.2411
X0.0067Y7.2466
X0.0011Y7.2522
X-0.0043Y7.2578
X-0.0099Y7.2633
X-0.0155Y7.2689
X-0.0211Y7.2745
X-0.0266Y7.28
X-0.0322Y7.2856
X-0.0378Y7.2912
X-0.0433Y7.2967
X-0.0489Y7.3023
X-0.0545Y7.3079
X-0.06Y7.3134
X-0.0656Y7.319
X-0.0712Y7.3246
X-0.0767Y7.3301
X-0.0823Y7.3357
X-0.0879Y7.3413
X-0.0934Y7.3469
X-0.099Y7.3524
X-0.1046Y7.358
X-0.1101Y7.3636
X-0.1157Y7.3691
X-0.1213Y7.3747
X-0.1268Y7.3803
X-0.1324Y7.3858
X-0.138Y7.3914
X-0.1435Y7.397
X-0.1491Y7.4025
X-0.1547Y7.4081
X-0.1602Y7.4137
X-0.1658Y7.4192
X-0.1714Y7.4248
X-0.177Y7.4304
X-0.1825Y7.4359
X-0.1881Y7.4415
X-0.1937Y7.4471
X-0.1992Y7.4526
X-0.2048Y7.4582
X-0.2104Y7.4638
X-0.2159Y7.4693
X-0.2215Y7.4749
X-0.2271Y7.4805
X-0.2326Y7.486
X-0.2382Y7.4916
X-0.2438Y7.4972
X-0.2493Y7.5027
X-0.2549Y7.5083
X-0.2605Y7.5139
X-0.266Y7.5194
X-0.2716Y7.525
X-0.2772Y7.5306
X-0.2827Y7.5362
X-0.2883Y7.5417
X-0.2939Y7.5473
X-0.2994Y7.5529
X-0.305Y7.5584
X-0.3106Y7.564
X-0.3161Y7.5696
X-0.3217Y7.5751
X-0.3273Y7.5807
X-0.3329Y7.5863
X-0.3384Y7.5918
X-0.344Y7.5974
X-0.3496Y7.603
X-0.3551Y7.6085
X-0.3607Y7.6141
X-0.3663Y7.6197
X-0.3718Y7.6252
X-0.3774Y7.6308
X-0.383Y7.6364
X-0.3885Y7.6419
X-0.3941Y7.6475
X-0.3997Y7.6531
X-0.4052Y7.6586
X-0.4108Y7.6642
X-0.4164Y7.6698
X-0.4219Y7.6753
X-0.4275Y7.6809
X-0.4331Y7.6865
X-0.4386Y7.692
X-0.4442Y7.6976
X-0.4498Y7.7032
X-0.4553Y7.7088
X-0.4609Y7.7143
X-0.4652Y7.7186
G0Z0.2
X0.7682Y6.4851
G1Z-0.25F19.68
X0.7626Y6.4907F39.37
X0.7571Y6.4963
X0.7515Y6.5018
X0.7459Y6.5074
X0.7404Y6.513
X0.7348Y6.5186
X0.7292Y6.5241
X0.7237Y6.5297
X0.7181Y6.5353
X0.7125Y6.5408
X0.707Y6.5464
X0.7014Y6.552
X0.6958Y6.5575
X0.6903Y6.5631
X0.6847Y6.5687
X0.6791Y6.5742
X0.6736Y6.5798
X0.668Y6.5854
X0.6624Y6.5909
X0.6568Y6.5965
X0.6513Y6.6021
X0.6457Y6.6076
X0.6401Y6.6132
X0.6346Y6.6188
X0.629Y6.6243
X0.6234Y6.6299
X0.6179Y6.6355
X0.6123Y6.641
X0.6067Y6.6466
X0.6012Y6.6522
X0.5956Y6.6577
X0.59Y6.6633
X0.5845Y6.6689
X0.5789Y6.6744
X0.5733Y6.68
X0.5678Y6.6856
X0.5622Y6.6912
X0.5566Y6.6967
X0.5511Y6.7023
X0.5455Y6.7079
X0.5399Y6.7134
X0.5344Y6.719
X0.5288Y6.7246
X0.5232Y6.7301
X0.5177Y6.7357
X0.5121Y6.7413
X0.5065Y6.7468
X0.5009Y6.7524
X0.4954Y6.758
X0.4898Y6.7635
X0.4842Y6.7691
X0.4787Y6.7747
X0.4731Y6.7802
X0.4675Y6.7858
X0.462Y6.7914
X0.4564Y6.7969
X0.4508Y6.8025
X0.4453Y6.8081
X0.4397Y6.8136
X0.4341Y6.8192
X0.4286Y6.8248
X0.423Y6.8303
X0.4174Y6.8359
X0.4119Y6.8415
X0.4063Y6.847
X0.4007Y6.8526
X0.3952Y6.8582
X0.3896Y6.8637
X0.384Y6.8693
X0.3785Y6.8749
X0.3729Y6.8805
X0.3673Y6.886
X0.3617Y6.8916
X0.3562Y6.8972
X0.3506Y6.9027
X0.345Y6.9083
X0.3395Y6.9139
X0.3339Y6.9194
X0.3283Y6.925
X0.3228Y6.9306
X0.3172Y6.9361
X0.3116Y6.9417
X0.3061Y6.9473
X0.3005Y6.9528
X0.2949Y6.9584
X0.2894Y6.964
X0.2838Y6.9695
X0.2782Y6.9751
X0.2727Y6.9807
X0.2671Y6.9862
X0.2615Y6.9918
X0.256Y6.9974
X0.2504Y7.0029
X0.2448Y7.0085
X0.2393Y7.0141
X0.2337Y7.0196
X0.2281Y7.0252
X0.2226Y7.0308
X0.217Y7.0363
X0.2114Y7.0419
X0.2058Y7.0475
X0.2003Y7.053
X0.1947Y7.0586
X0.1891Y7.0642
X0.1836Y7.0698
X0.178Y7.0753
X0.1724Y7.0809
X0.1669Y7.0865
X0.1613Y7.092
X0.1557Y7.0976
X0.1515Y7.1019
X0.1459Y7.1074
X0.1403Y7.113
X0.1347Y7.1186
X0.1292Y7.1241
X0.1236Y7.1297
X0.118Y7.1353
X0.1125Y7.1408
X0.1069Y7.1464
X0.1013Y7.152
X0.0958Y7.1576
X0.0902Y7.1631
X0.0846Y7.1687
X0.0791Y7.1743
X0.0735Y7.1798
X0.0679Y7.1854
X0.0624Y7.191
X0.0568Y7.1965
X0.0512Y7.2021
X0.0457Y7.2077
X0.0401Y7.2132
X0.0345Y7.2188
X0.029Y7.2244
X0.0234Y7.2299
X0.0178Y7.2355
X0.0123Y7.2411
X0.0067Y7.2466
X0.0011Y7.2522
X-0.0043Y7.2578
X-0.0099Y7.2633
X-0.0155Y7.2689
X-0.0211Y7.2745
X-0.0266Y7.28
X-0.0322Y7.2856
X-0.0378Y7.2912
X-0.0433Y7.2967
X-0.0489Y7.3023
X-0.0545Y7.3079
X-0.06Y7.3134
X-0.0656Y7.319
X-0.0712Y7.3246
X-0.0767Y7.3301
X-0.0823Y7.3357
X-0.0879Y7.3413
X-0.0934Y7.3469
X-0.099Y7.3524
X-0.1046Y7.358
X-0.1101Y7.3636
X-0.1157Y7.3691
X-0.1213Y7.3747
X-0.1268Y7.3803
X-0.1324Y7.3858
X-0.138Y7.3914
X-0.1435Y7.397
X-0.1491Y7.4025
X-0.1547Y7.4081
X-0.1602Y7.4137
X-0.1658Y7.4192
X-0.1714Y7.4248
X-0.177Y7.4304
X-0.1825Y7.4359
X-0.1881Y7.4415
X-0.1937Y7.4471
X-0.1992Y7.4526
X-0.2048Y7.4582
X-0.2104Y7.4638
X-0.2159Y7.4693
X-0.2215Y7.4749
X-0.2271Y7.4805
X-0.2326Y7.486
X-0.2382Y7.4916
X-0.2438Y7.4972
X-0.2493Y7.5027
X-0.2549Y7.5083
X-0.2605Y7.5139
X-0.266Y7.5194
X-0.2716Y7.525
X-0.2772Y7.5306
X-0.2827Y7.5362
X-0.2883Y7.5417
X-0.2939Y7.5473
X-0.2994Y7.5529
X-0.305Y7.5584
X-0.3106Y7.564
X-0.3161Y7.5696
X-0.3217Y7.5751
X-0.3273Y7.5807
X-0.3329Y7.5863
X-0.3384Y7.5918
X-0.344Y7.5974
X-0.3496Y7.603
X-0.3551Y7.6085
X-0.3607Y7.6141
X-0.3663Y7.6197
X-0.3718Y7.6252
X-0.3774Y7.6308
X-0.383Y7.6364
X-0.3885Y7.6419
X-0.3941Y7.6475
X-0.3997Y7.6531
X-0.4052Y7.6586
X-0.4108Y7.6642
X-0.4164Y7.6698
X-0.4219Y7.6753
X-0.4275Y7.6809
X-0.4331Y7.6865
X-0.4386Y7.692
X-0.4442Y7.6976
X-0.4498Y7.7032
X-0.4553Y7.7088
X-0.4609Y7.7143
X-0.4652Y7.7186
G0Z0.2
X0.7682Y6.4851
G1Z-0.3124F19.68
X0.7626Y6.4907F39.37
X0.7571Y6.4963
X0.7515Y6.5018
X0.7459Y6.5074
X0.7404Y6.513
X0.7348Y6.5186
X0.7292Y6.5241
X0.7237Y6.5297
X0.7181Y6.5353
X0.7125Y6.5408
X0.707Y6.5464
X0.7014Y6.552
X0.6958Y6.5575
X0.6903Y6.5631
X0.6847Y6.5687
X0.6791Y6.5742
X0.6736Y6.5798
X0.668Y6.5854
X0.6624Y6.5909
X0.6568Y6.5965
X0.6513Y6.6021
X0.6457Y6.6076
X0.6401Y6.6132
X0.6346Y6.6188
X0.629Y6.6243
X0.6234Y6.6299
X0.6179Y6.6355
X0.6123Y6.641
X0.6067Y6.6466
X0.6012Y6.6522
X0.5956Y6.6577
X0.59Y6.6633
X0.5845Y6.6689
X0.5789Y6.6744
X0.5733Y6.68
X0.5678Y6.6856
X0.5622Y6.6912
X0.5566Y6.6967
X0.5511Y6.7023
X0.5455Y6.7079
X0.5399Y6.7134
X0.5344Y6.719
X0.5288Y6.7246
X0.5232Y6.7301
X0.5177Y6.7357
X0.5121Y6.7413
X0.5065Y6.7468
X0.5009Y6.7524
X0.4954Y6.758
X0.4898Y6.7635
X0.4842Y6.7691
X0.4787Y6.7747
X0.4731Y6.7802
X0.4675Y6.7858
X0.462Y6.7914
X0.4564Y6.7969
X0.4508Y6.8025
X0.4453Y6.8081
X0.4397Y6.8136
X0.4341Y6.8192
X0.4286Y6.8248
X0.423Y6.8303
X0.4174Y6.8359
X0.4119Y6.8415
X0.4063Y6.847
X0.4007Y6.8526
X0.3952Y6.8582
X0.3896Y6.8637
X0.384Y6.8693
X0.3785Y6.8749
X0.3729Y6.8805
X0.3673Y6.886
X0.3617Y6.8916
X0.3562Y6.8972
X0.3506Y6.9027
X0.345Y6.9083
X0.3395Y6.9139
X0.3339Y6.9194
X0.3283Y6.925
X0.3228Y6.9306
X0.3172Y6.9361
X0.3116Y6.9417
X0.3061Y6.9473
X0.3005Y6.9528
X0.2949Y6.9584
X0.2894Y6.964
X0.2838Y6.9695
X0.2782Y6.9751
X0.2727Y6.9807
X0.2671Y6.9862
X0.2615Y6.9918
X0.256Y6.9974
X0.2504Y7.0029
X0.2448Y7.0085
X0.2393Y7.0141
X0.2337Y7.0196
X0.2281Y7.0252
X0.2226Y7.0308
X0.217Y7.0363
X0.2114Y7.0419
X0.2058Y7.0475
X0.2003Y7.053
X0.1947Y7.0586
X0.1891Y7.0642
X0.1836Y7.0698
X0.178Y7.0753
X0.1724Y7.0809
X0.1669Y7.0865
X0.1613Y7.092
X0.1557Y7.0976
X0.1515Y7.1019
X0.1459Y7.1074
X0.1403Y7.113
X0.1347Y7.1186
X0.1292Y7.1241
X0.1236Y7.1297
X0.118Y7.1353
X0.1125Y7.1408
X0.1069Y7.1464
X0.1013Y7.152
X0.0958Y7.1576
X0.0902Y7.1631
X0.0846Y7.1687
X0.0791Y7.1743
X0.0735Y7.1798
X0.0679Y7.1854
X0.0624Y7.191
X0.0568Y7.1965
X0.0512Y7.2021
X0.0457Y7.2077
X0.0401Y7.2132
X0.0345Y7.2188
X0.029Y7.2244
X0.0234Y7.2299
X0.0178Y7.2355
X0.0123Y7.2411
X0.0067Y7.2466
X0.0011Y7.2522
X-0.0043Y7.2578
X-0.0099Y7.2633
X-0.0155Y7.2689
X-0.0211Y7.2745
X-0.0266Y7.28
X-0.0322Y7.2856
X-0.0378Y7.2912
X-0.0433Y7.2967
X-0.0489Y7.3023
X-0.0545Y7.3079
X-0.06Y7.3134
X-0.0656Y7.319
X-0.0712Y7.3246
X-0.0767Y7.3301
X-0.0823Y7.3357
X-0.0879Y7.3413
X-0.0934Y7.3469
X-0.099Y7.3524
X-0.1046Y7.358
X-0.1101Y7.3636
X-0.1157Y7.3691
X-0.1213Y7.3747
X-0.1268Y7.3803
X-0.1324Y7.3858
X-0.138Y7.3914
X-0.1435Y7.397
X-0.1491Y7.4025
X-0.1547Y7.4081
X-0.1602Y7.4137
X-0.1658Y7.4192
X-0.1714Y7.4248
X-0.177Y7.4304
X-0.1825Y7.4359
X-0.1881Y7.4415
X-0.1937Y7.4471
X-0.1992Y7.4526
X-0.2048Y7.4582
X-0.2104Y7.4638
X-0.2159Y7.4693
X-0.2215Y7.4749
X-0.2271Y7.4805
X-0.2326Y7.486
X-0.2382Y7.4916
X-0.2438Y7.4972
X-0.2493Y7.5027
X-0.2549Y7.5083
X-0.2605Y7.5139
X-0.266Y7.5194
X-0.2716Y7.525
X-0.2772Y7.5306
X-0.2827Y7.5362
X-0.2883Y7.5417
X-0.2939Y7.5473
X-0.2994Y7.5529
X-0.305Y7.5584
X-0.3106Y7.564
X-0.3161Y7.5696
X-0.3217Y7.5751
X-0.3273Y7.5807
X-0.3329Y7.5863
X-0.3384Y7.5918
X-0.344Y7.5974
X-0.3496Y7.603
X-0.3551Y7.6085
X-0.3607Y7.6141
X-0.3663Y7.6197
X-0.3718Y7.6252
X-0.3774Y7.6308
X-0.383Y7.6364
X-0.3885Y7.6419
X-0.3941Y7.6475
X-0.3997Y7.6531
X-0.4052Y7.6586
X-0.4108Y7.6642
X-0.4164Y7.6698
X-0.4219Y7.6753
X-0.4275Y7.6809
X-0.4331Y7.6865
X-0.4386Y7.692
X-0.4442Y7.6976
X-0.4498Y7.7032
X-0.4553Y7.7088
X-0.4609Y7.7143
X-0.4652Y7.7186
G0Z0.2
X0.7682Y6.4851
G1Z-0.3125F19.68
X0.7626Y6.4907F39.37
X0.7571Y6.4963
X0.7515Y6.5018
X0.7459Y6.5074
X0.7404Y6.513
X0.7348Y6.5186
X0.7292Y6.5241
X0.7237Y6.5297
X0.7181Y6.5353
X0.7125Y6.5408
X0.707Y6.5464
X0.7014Y6.552
X0.6958Y6.5575
X0.6903Y6.5631
X0.6847Y6.5687
X0.6791Y6.5742
X0.6736Y6.5798
X0.668Y6.5854
X0.6624Y6.5909
X0.6568Y6.5965
X0.6513Y6.6021
X0.6457Y6.6076
X0.6401Y6.6132
X0.6346Y6.6188
X0.629Y6.6243
X0.6234Y6.6299
X0.6179Y6.6355
X0.6123Y6.641
X0.6067Y6.6466
X0.6012Y6.6522
X0.5956Y6.6577
X0.59Y6.6633
X0.5845Y6.6689
X0.5789Y6.6744
X0.5733Y6.68
X0.5678Y6.6856
X0.5622Y6.6912
X0.5566Y6.6967
X0.5511Y6.7023
X0.5455Y6.7079
X0.5399Y6.7134
X0.5344Y6.719
X0.5288Y6.7246
X0.5232Y6.7301
X0.5177Y6.7357
X0.5121Y6.7413
X0.5065Y6.7468
X0.5009Y6.7524
X0.4954Y6.758
X0.4898Y6.7635
X0.4842Y6.7691
X0.4787Y6.7747
X0.4731Y6.7802
X0.4675Y6.7858
X0.462Y6.7914
X0.4564Y6.7969
X0.4508Y6.8025
X0.4453Y6.8081
X0.4397Y6.8136
X0.4341Y6.8192
X0.4286Y6.8248
X0.423Y6.8303
X0.4174Y6.8359
X0.4119Y6.8415
X0.4063Y6.847
X0.4007Y6.8526
X0.3952Y6.8582
X0.3896Y6.8637
X0.384Y6.8693
X0.3785Y6.8749
X0.3729Y6.8805
X0.3673Y6.886
X0.3617Y6.8916
X0.3562Y6.8972
X0.3506Y6.9027
X0.345Y6.9083
X0.3395Y6.9139
X0.3339Y6.9194
X0.3283Y6.925
X0.3228Y6.9306
X0.3172Y6.9361
X0.3116Y6.9417
X0.3061Y6.9473
X0.3005Y6.9528
X0.2949Y6.9584
X0.2894Y6.964
X0.2838Y6.9695
X0.2782Y6.9751
X0.2727Y6.9807
X0.2671Y6.9862
X0.2615Y6.9918
X0.256Y6.9974
X0.2504Y7.0029
X0.2448Y7.0085
X0.2393Y7.0141
X0.2337Y7.0196
X0.2281Y7.0252
X0.2226Y7.0308
X0.217Y7.0363
X0.2114Y7.0419
X0.2058Y7.0475
X0.2003Y7.053
X0.1947Y7.0586
X0.1891Y7.0642
X0.1836Y7.0698
X0.178Y7.0753
X0.1724Y7.0809
X0.1669Y7.0865
X0.1613Y7.092
X0.1557Y7.0976
X0.1515Y7.1019
X0.1459Y7.1074
X0.1403Y7.113
X0.1347Y7.1186
X0.1292Y7.1241
X0.1236Y7.1297
X0.118Y7.1353
X0.1125Y7.1408
X0.1069Y7.1464
X0.1013Y7.152
X0.0958Y7.1576
X0.0902Y7.1631
X0.0846Y7.1687
X0.0791Y7.1743
X0.0735Y7.1798
X0.0679Y7.1854
X0.0624Y7.191
X0.0568Y7.1965
X0.0512Y7.2021
X0.0457Y7.2077
X0.0401Y7.2132
X0.0345Y7.2188
X0.029Y7.2244
X0.0234Y7.2299
X0.0178Y7.2355
X0.0123Y7.2411
X0.0067Y7.2466
X0.0011Y7.2522
X-0.0043Y7.2578
X-0.0099Y7.2633
X-0.0155Y7.2689
X-0.0211Y7.2745
X-0.0266Y7.28
X-0.0322Y7.2856
X-0.0378Y7.2912
X-0.0433Y7.2967
X-0.0489Y7.3023
X-0.0545Y7.3079
X-0.06Y7.3134
X-0.0656Y7.319
X-0.0712Y7.3246
X-0.0767Y7.3301
X-0.0823Y7.3357
X-0.0879Y7.3413
X-0.0934Y7.3469
X-0.099Y7.3524
X-0.1046Y7.358
X-0.1101Y7.3636
X-0.1157Y7.3691
X-0.1213Y7.3747
X-0.1268Y7.3803
X-0.1324Y7.3858
X-0.138Y7.3914
X-0.1435Y7.397
X-0.1491Y7.4025
X-0.1547Y7.4081
X-0.1602Y7.4137
X-0.1658Y7.4192
X-0.1714Y7.4248
X-0.177Y7.4304
X-0.1825Y7.4359
X-0.1881Y7.4415
X-0.1937Y7.4471
X-0.1992Y7.4526
X-0.2048Y7.4582
X-0.2104Y7.4638
X-0.2159Y7.4693
X-0.2215Y7.4749
X-0.2271Y7.4805
X-0.2326Y7.486
X-0.2382Y7.4916
X-0.2438Y7.4972
X-0.2493Y7.5027
X-0.2549Y7.5083
X-0.2605Y7.5139
X-0.266Y7.5194
X-0.2716Y7.525
X-0.2772Y7.5306
X-0.2827Y7.5362
X-0.2883Y7.5417
X-0.2939Y7.5473
X-0.2994Y7.5529
X-0.305Y7.5584
X-0.3106Y7.564
X-0.3161Y7.5696
X-0.3217Y7.5751
X-0.3273Y7.5807
X-0.3329Y7.5863
X-0.3384Y7.5918
X-0.344Y7.5974
X-0.3496Y7.603
X-0.3551Y7.6085
X-0.3607Y7.6141
X-0.3663Y7.6197
X-0.3718Y7.6252
X-0.3774Y7.6308
X-0.383Y7.6364
X-0.3885Y7.6419
X-0.3941Y7.6475
X-0.3997Y7.6531
X-0.4052Y7.6586
X-0.4108Y7.6642
X-0.4164Y7.6698
X-0.4219Y7.6753
X-0.4275Y7.6809
X-0.4331Y7.6865
X-0.4386Y7.692
X-0.4442Y7.6976
X-0.4498Y7.7032
X-0.4553Y7.7088
X-0.4609Y7.7143
X-0.4652Y7.7186
G0Z0.2
X2.0682Y6.4851
G1Z-0.0624F19.68
X2.0626Y6.4907F39.37
X2.0571Y6.4963
X2.0515Y6.5018
X2.0459Y6.5074
X2.0404Y6.513
X2.0348Y6.5186
X2.0292Y6.5241
X2.0237Y6.5297
X2.0181Y6.5353
X2.0125Y6.5408
X2.007Y6.5464
X2.0014Y6.552
X1.9958Y6.5575
X1.9903Y6.5631
X1.9847Y6.5687
X1.9791Y6.5742
X1.9736Y6.5798
X1.968Y6.5854
X1.9624Y6.5909
X1.9568Y6.5965
X1.9513Y6.6021
X1.9457Y6.6076
X1.9401Y6.6132
X1.9346Y6.6188
X1.929Y6.6243
X1.9234Y6.6299
X1.9179Y6.6355
X1.9123Y6.641
X1.9067Y6.6466
X1.9012Y6.6522
X1.8956Y6.6577
X1.89Y6.6633
X1.8845Y6.6689
X1.8789Y6.6744
X1.8733Y6.68
X1.8678Y6.6856
X1.8622Y6.6912
X1.8566Y6.6967
X1.8511Y6.7023
X1.8455Y6.7079
X1.8399Y6.7134
X1.8344Y6.719
X1.8288Y6.7246
X1.8232Y6.7301
X1.8177Y6.7357
X1.8121Y6.7413
X1.8065Y6.7468
X1.8009Y6.7524
X1.7954Y6.758
X1.7898Y6.7635
X1.7842Y6.7691
X1.7787Y6.7747
X1.7731Y6.7802
X1.7675Y6.7858
X1.762Y6.7914
X1.7564Y6.7969
X1.7508Y6.8025
X1.7453Y6.8081
X1.7397Y6.8136
X1.7341Y6.8192
X1.7286Y6.8248
X1.723Y6.8303
X1.7174Y6.8359
X1.7119Y6.8415
X1.7063Y6.847
X1.7007Y6.8526
X1.6952Y6.8582
X1.6896Y6.8637
X1.684Y6.8693
X1.6785Y6.8749
X1.6729Y6.8805
X1.6673Y6.886
X1.6617Y6.8916
X1.6562Y6.8972
X1.6506Y6.9027
X1.645Y6.9083
X1.6395Y6.9139
X1.6339Y6.9194
X1.6283Y6.925
X1.6228Y6.9306
X1.6172Y6.9361
X1.6116Y6.9417
X1.6061Y6.9473
X1.6005Y6.9528
X1.5949Y6.9584
X1.5894Y6.964
X1.5838Y6.9695
X1.5782Y6.9751
X1.5727Y6.9807
X1.5671Y6.9862
X1.5615Y6.9918
X1.556Y6.9974
X1.5504Y7.0029
X1.5448Y7.0085
X1.5393Y7.0141
X1.5337Y7.0196
X1.5281Y7.0252
X1.5226Y7.0308
X1.517Y7.0363
X1.5114Y7.0419
X1.5058Y7.0475
X1.5003Y7.053
X1.4947Y7.0586
X1.4891Y7.0642
X1.4836Y7.0698
X1.478Y7.0753
X1.4724Y7.0809
X1.4669Y7.0865
X1.4613Y7.092
X1.4557Y7.0976
X1.4515Y7.1019
X1.4459Y7.1074
X1.4403Y7.113
X1.4348Y7.1186
X1.4292Y7.1241
X1.4236Y7.1297
X1.418Y7.1353
X1.4125Y7.1408
X1.4069Y7.1464
X1.4013Y7.152
X1.3958Y7.1576
X1.3902Y7.1631
X1.3846Y7.1687
X1.3791Y7.1743
X1.3735Y7.1798
X1.3679Y7.1854
X1.3624Y7.191
X1.3568Y7.1965
X1.3512Y7.2021
X1.3457Y7.2077
X1.3401Y7.2132
X1.3345Y7.2188
X1.329Y7.2244
X1.3234Y7.2299
X1.3178Y7.2355
X1.3123Y7.2411
X1.3067Y7.2466
X1.3011Y7.2522
X1.2956Y7.2578
X1.29Y7.2633
X1.2844Y7.2689
X1.2788Y7.2745
X1.2733Y7.28
X1.2677Y7.2856
X1.2621Y7.2912
X1.2566Y7.2967
X1.251Y7.3023
X1.2454Y7.3079
X1.2399Y7.3134
X1.2343Y7.319
X1.2287Y7.3246
X1.2232Y7.3301
X1.2176Y7.3357
X1.212Y7.3413
X1.2065Y7.3469
X1.2009Y7.3524
X1.1953Y7.358
X1.1898Y7.3636
X1.1842Y7.3691
X1.1786Y7.3747
X1.1731Y7.3803
X1.1675Y7.3858
X1.1619Y7.3914
X1.1564Y7.397
X1.1508Y7.4025
X1.1452Y7.4081
X1.1397Y7.4137
X1.1341Y7.4192
X1.1285Y7.4248
X1.1229Y7.4304
X1.1174Y7.4359
X1.1118Y7.4415
X1.1062Y7.4471
X1.1007Y7.4526
X1.0951Y7.4582
X1.0895Y7.4638
X1.084Y7.4693
X1.0784Y7.4749
X1.0728Y7.4805
X1.0673Y7.486
X1.0617Y7.4916
X1.0561Y7.4972
X1.0506Y7.5027
X1.045Y7.5083
X1.0394Y7.5139
X1.0339Y7.5194
X1.0283Y7.525
X1.0227Y7.5306
X1.0172Y7.5362
X1.0116Y7.5417
X1.006Y7.5473
X1.0005Y7.5529
X0.9949Y7.5584
X0.9893Y7.564
X0.9838Y7.5696
X0.9782Y7.5751
X0.9726Y7.5807
X0.967Y7.5863
X0.9615Y7.5918
X0.9559Y7.5974
X0.9503Y7.603
X0.9448Y7.6085
X0.9392Y7.6141
X0.9336Y7.6197
X0.9281Y7.6252
X0.9225Y7.6308
X0.9169Y7.6364
X0.9114Y7.6419
X0.9058Y7.6475
X0.9002Y7.6531
X0.8947Y7.6586
X0.8891Y7.6642
X0.8835Y7.6698
X0.878Y7.6753
X0.8724Y7.6809
X0.8668Y7.6865
X0.8613Y7.692
X0.8557Y7.6976
X0.8501Y7.7032
X0.8446Y7.7088
X0.839Y7.7143
X0.8347Y7.7186
G0Z0.2
X2.0682Y6.4851
G1Z-0.125F19.68
X2.0626Y6.4907F39.37
X2.0571Y6.4963
X2.0515Y6.5018
X2.0459Y6.5074
X2.0404Y6.513
X2.0348Y6.5186
X2.0292Y6.5241
X2.0237Y6.5297
X2.0181Y6.5353
X2.0125Y6.5408
X2.007Y6.5464
X2.0014Y6.552
X1.9958Y6.5575
X1.9903Y6.5631
X1.9847Y6.5687
X1.9791Y6.5742
X1.9736Y6.5798
X1.968Y6.5854
X1.9624Y6.5909
X1.9568Y6.5965
X1.9513Y6.6021
X1.9457Y6.6076
X1.9401Y6.6132
X1.9346Y6.6188
X1.929Y6.6243
X1.9234Y6.6299
X1.9179Y6.6355
X1.9123Y6.641
X1.9067Y6.6466
X1.9012Y6.6522
X1.8956Y6.6577
X1.89Y6.6633
X1.8845Y6.6689
X1.8789Y6.6744
X1.8733Y6.68
X1.8678Y6.6856
X1.8622Y6.6912
X1.8566Y6.6967
X1.8511Y6.7023
X1.8455Y6.7079
X1.8399Y6.7134
X1.8344Y6.719
X1.8288Y6.7246
X1.8232Y6.7301
X1.8177Y6.7357
X1.8121Y6.7413
X1.8065Y6.7468
X1.8009Y6.7524
X1.7954Y6.758
X1.7898Y6.7635
X1.7842Y6.7691
X1.7787Y6.7747
X1.7731Y6.7802
X1.7675Y6.7858
X1.762Y6.7914
X1.7564Y6.7969
X1.7508Y6.8025
X1.7453Y6.8081
X1.7397Y6.8136
X1.7341Y6.8192
X1.7286Y6.8248
X1.723Y6.8303
X1.7174Y6.8359
X1.7119Y6.8415
X1.7063Y6.847
X1.7007Y6.8526
X1.6952Y6.8582
X1.6896Y6.8637
X1.684Y6.8693
X1.6785Y6.8749
X1.6729Y6.8805
X1.6673Y6.886
X1.6617Y6.8916
X1.6562Y6.8972
X1.6506Y6.9027
X1.645Y6.9083
X1.6395Y6.9139
X1.6339Y6.9194
X1.6283Y6.925
X1.6228Y6.9306
X1.6172Y6.9361
X1.6116Y6.9417
X1.6061Y6.9473
X1.6005Y6.9528
X1.5949Y6.9584
X1.5894Y6.964
X1.5838Y6.9695
X1.5782Y6.9751
X1.5727Y6.9807
X1.5671Y6.9862
X1.5615Y6.9918
X1.556Y6.9974
X1.5504Y7.0029
X1.5448Y7.0085
X1.5393Y7.0141
X1.5337Y7.0196
X1.5281Y7.0252
X1.5226Y7.0308
X1.517Y7.0363
X1.5114Y7.0419
X1.5058Y7.0475
X1.5003Y7.053
X1.4947Y7.0586
X1.4891Y7.0642
X1.4836Y7.0698
X1.478Y7.0753
X1.4724Y7.0809
X1.4669Y7.0865
X1.4613Y7.092
X1.4557Y7.0976
X1.4515Y7.1019
X1.4459Y7.1074
X1.4403Y7.113
X1.4348Y7.1186
X1.4292Y7.1241
X1.4236Y7.1297
X1.418Y7.1353
X1.4125Y7.1408
X1.4069Y7.1464
X1.4013Y7.152
X1.3958Y7.1576
X1.3902Y7.1631
X1.3846Y7.1687
X1.3791Y7.1743
X1.3735Y7.1798
X1.3679Y7.1854
X1.3624Y7.191
X1.3568Y7.1965
X1.3512Y7.2021
X1.3457Y7.2077
X1.3401Y7.2132
X1.3345Y7.2188
X1.329Y7.2244
X1.3234Y7.2299
X1.3178Y7.2355
X1.3123Y7.2411
X1.3067Y7.2466
X1.3011Y7.2522
X1.2956Y7.2578
X1.29Y7.2633
X1.2844Y7.2689
X1.2788Y7.2745
X1.2733Y7.28
X1.2677Y7.2856
X1.2621Y7.2912
X1.2566Y7.2967
X1.251Y7.3023
X1.2454Y7.3079
X1.2399Y7.3134
X1.2343Y7.319
X1.2287Y7.3246
X1.2232Y7.3301
X1.2176Y7.3357
X1.212Y7.3413
X1.2065Y7.3469
X1.2009Y7.3524
X1.1953Y7.358
X1.1898Y7.3636
X1.1842Y7.3691
X1.1786Y7.3747
X1.1731Y7.3803
X1.1675Y7.3858
X1.1619Y7.3914
X1.1564Y7.397
X1.1508Y7.4025
X1.1452Y7.4081
X1.1397Y7.4137
X1.1341Y7.4192
X1.1285Y7.4248
X1.1229Y7.4304
X1.1174Y7.4359
X1.1118Y7.4415
X1.1062Y7.4471
X1.1007Y7.4526
X1.0951Y7.4582
X1.0895Y7.4638
X1.084Y7.4693
X1.0784Y7.4749
X1.0728Y7.4805
X1.0673Y7.486
X1.0617Y7.4916
X1.0561Y7.4972
X1.0506Y7.5027
X1.045Y7.5083
X1.0394Y7.5139
X1.0339Y7.5194
X1.0283Y7.525
X1.0227Y7.5306
X1.0172Y7.5362
X1.0116Y7.5417
X1.006Y7.5473
X1.0005Y7.5529
X0.9949Y7.5584
X0.9893Y7.564
X0.9838Y7.5696
X0.9782Y7.5751
X0.9726Y7.5807
X0.967Y7.5863
X0.9615Y7.5918
X0.9559Y7.5974
X0.9503Y7.603
X0.9448Y7.6085
X0.9392Y7.6141
X0.9336Y7.6197
X0.9281Y7.6252
X0.9225Y7.6308
X0.9169Y7.6364
X0.9114Y7.6419
X0.9058Y7.6475
X0.9002Y7.6531
X0.8947Y7.6586
X0.8891Y7.6642
X0.8835Y7.6698
X0.878Y7.6753
X0.8724Y7.6809
X0.8668Y7.6865
X0.8613Y7.692
X0.8557Y7.6976
X0.8501Y7.7032
X0.8446Y7.7088
X0.839Y7.7143
X0.8347Y7.7186
G0Z0.2
X2.0682Y6.4851
G1Z-0.1874F19.68
X2.0626Y6.4907F39.37
X2.0571Y6.4963
X2.0515Y6.5018
X2.0459Y6.5074
X2.0404Y6.513
X2.0348Y6.5186
X2.0292Y6.5241
X2.0237Y6.5297
X2.0181Y6.5353
X2.0125Y6.5408
X2.007Y6.5464
X2.0014Y6.552
X1.9958Y6.5575
X1.9903Y6.5631
X1.9847Y6.5687
X1.9791Y6.5742
X1.9736Y6.5798
X1.968Y6.5854
X1.9624Y6.5909
X1.9568Y6.5965
X1.9513Y6.6021
X1.9457Y6.6076
X1.9401Y6.6132
X1.9346Y6.6188
X1.929Y6.6243
X1.9234Y6.6299
X1.9179Y6.6355
X1.9123Y6.641
X1.9067Y6.6466
X1.9012Y6.6522
X1.8956Y6.6577
X1.89Y6.6633
X1.8845Y6.6689
X1.8789Y6.6744
X1.8733Y6.68
X1.8678Y6.6856
X1.8622Y6.6912
X1.8566Y6.6967
X1.8511Y6.7023
X1.8455Y6.7079
X1.8399Y6.7134
X1.8344Y6.719
X1.8288Y6.7246
X1.8232Y6.7301
X1.8177Y6.7357
X1.8121Y6.7413
X1.8065Y6.7468
X1.8009Y6.7524
X1.7954Y6.758
X1.7898Y6.7635
X1.7842Y6.7691
X1.7787Y6.7747
X1.7731Y6.7802
X1.7675Y6.7858
X1.762Y6.7914
X1.7564Y6.7969
X1.7508Y6.8025
X1.7453Y6.8081
X1.7397Y6.8136
X1.7341Y6.8192
X1.7286Y6.8248
X1.723Y6.8303
X1.7174Y6.8359
X1.7119Y6.8415
X1.7063Y6.847
X1.7007Y6.8526
X1.6952Y6.8582
X1.6896Y6.8637
X1.684Y6.8693
X1.6785Y6.8749
X1.6729Y6.8805
X1.6673Y6.886
X1.6617Y6.8916
X1.6562Y6.8972
X1.6506Y6.9027
X1.645Y6.9083
X1.6395Y6.9139
X1.6339Y6.9194
X1.6283Y6.925
X1.6228Y6.9306
X1.6172Y6.9361
X1.6116Y6.9417
X1.6061Y6.9473
X1.6005Y6.9528
X1.5949Y6.9584
X1.5894Y6.964
X1.5838Y6.9695
X1.5782Y6.9751
X1.5727Y6.9807
X1.5671Y6.9862
X1.5615Y6.9918
X1.556Y6.9974
X1.5504Y7.0029
X1.5448Y7.0085
X1.5393Y7.0141
X1.5337Y7.0196
X1.5281Y7.0252
X1.5226Y7.0308
X1.517Y7.0363
X1.5114Y7.0419
X1.5058Y7.0475
X1.5003Y7.053
X1.4947Y7.0586
X1.4891Y7.0642
X1.4836Y7.0698
X1.478Y7.0753
X1.4724Y7.0809
X1.4669Y7.0865
X1.4613Y7.092
X1.4557Y7.0976
X1.4515Y7.1019
X1.4459Y7.1074
X1.4403Y7.113
X1.4348Y7.1186
X1.4292Y7.1241
X1.4236Y7.1297
X1.418Y7.1353
X1.4125Y7.1408
X1.4069Y7.1464
X1.4013Y7.152
X1.3958Y7.1576
X1.3902Y7.1631
X1.3846Y7.1687
X1.3791Y7.1743
X1.3735Y7.1798
X1.3679Y7.1854
X1.3624Y7.191
X1.3568Y7.1965
X1.3512Y7.2021
X1.3457Y7.2077
X1.3401Y7.2132
X1.3345Y7.2188
X1.329Y7.2244
X1.3234Y7.2299
X1.3178Y7.2355
X1.3123Y7.2411
X1.3067Y7.2466
X1.3011Y7.2522
X1.2956Y7.2578
X1.29Y7.2633
X1.2844Y7.2689
X1.2788Y7.2745
X1.2733Y7.28
X1.2677Y7.2856
X1.2621Y7.2912
X1.2566Y7.2967
X1.251Y7.3023
X1.2454Y7.3079
X1.2399Y7.3134
X1.2343Y7.319
X1.2287Y7.3246
X1.2232Y7.3301
X1.2176Y7.3357
X1.212Y7.3413
X1.2065Y7.3469
X1.2009Y7.3524
X1.1953Y7.358
X1.1898Y7.3636
X1.1842Y7.3691
X1.1786Y7.3747
X1.1731Y7.3803
X1.1675Y7.3858
X1.1619Y7.3914
X1.1564Y7.397
X1.1508Y7.4025
X1.1452Y7.4081
X1.1397Y7.4137
X1.1341Y7.4192
X1.1285Y7.4248
X1.1229Y7.4304
X1.1174Y7.4359
X1.1118Y7.4415
X1.1062Y7.4471
X1.1007Y7.4526
X1.0951Y7.4582
X1.0895Y7.4638
X1.084Y7.4693
X1.0784Y7.4749
X1.0728Y7.4805
X1.0673Y7.486
X1.0617Y7.4916
X1.0561Y7.4972
X1.0506Y7.5027
X1.045Y7.5083
X1.0394Y7.5139
X1.0339Y7.5194
X1.0283Y7.525
X1.0227Y7.5306
X1.0172Y7.5362
X1.0116Y7.5417
X1.006Y7.5473
X1.0005Y7.5529
X0.9949Y7.5584
X0.9893Y7.564
X0.9838Y7.5696
X0.9782Y7.5751
X0.9726Y7.5807
X0.967Y7.5863
X0.9615Y7.5918
X0.9559Y7.5974
X0.9503Y7.603
X0.9448Y7.6085
X0.9392Y7.6141
X0.9336Y7.6197
X0.9281Y7.6252
X0.9225Y7.6308
X0.9169Y7.6364
X0.9114Y7.6419
X0.9058Y7.6475
X0.9002Y7.6531
X0.8947Y7.6586
X0.8891Y7.6642
X0.8835Y7.6698
X0.878Y7.6753
X0.8724Y7.6809
X0.8668Y7.6865
X0.8613Y7.692
X0.8557Y7.6976
X0.8501Y7.7032
X0.8446Y7.7088
X0.839Y7.7143
X0.8347Y7.7186
G0Z0.2
X2.0682Y6.4851
G1Z-0.25F19.68
X2.0626Y6.4907F39.37
X2.0571Y6.4963
X2.0515Y6.5018
X2.0459Y6.5074
X2.0404Y6.513
X2.0348Y6.5186
X2.0292Y6.5241
X2.0237Y6.5297
X2.0181Y6.5353
X2.0125Y6.5408
X2.007Y6.5464
X2.0014Y6.552
X1.9958Y6.5575
X1.9903Y6.5631
X1.9847Y6.5687
X1.9791Y6.5742
X1.9736Y6.5798
X1.968Y6.5854
X1.9624Y6.5909
X1.9568Y6.5965
X1.9513Y6.6021
X1.9457Y6.6076
X1.9401Y6.6132
X1.9346Y6.6188
X1.929Y6.6243
X1.9234Y6.6299
X1.9179Y6.6355
X1.9123Y6.641
X1.9067Y6.6466
X1.9012Y6.6522
X1.8956Y6.6577
X1.89Y6.6633
X1.8845Y6.6689
X1.8789Y6.6744
X1.8733Y6.68
X1.8678Y6.6856
X1.8622Y6.6912
X1.8566Y6.6967
X1.8511Y6.7023
X1.8455Y6.7079
X1.8399Y6.7134
X1.8344Y6.719
X1.8288Y6.7246
X1.8232Y6.7301
X1.8177Y6.7357
X1.8121Y6.7413
X1.8065Y6.7468
X1.8009Y6.7524
X1.7954Y6.758
X1.7898Y6.7635
X1.7842Y6.7691
X1.7787Y6.7747
X1.7731Y6.7802
X1.7675Y6.7858
X1.762Y6.7914
X1.7564Y6.7969
X1.7508Y6.8025
X1.7453Y6.8081
X1.7397Y6.8136
X1.7341Y6.8192
X1.7286Y6.8248
X1.723Y6.8303
X1.7174Y6.8359
X1.7119Y6.8415
X1.7063Y6.847
X1.7007Y6.8526
X1.6952Y6.8582
X1.6896Y6.8637
X1.684Y6.8693
X1.6785Y6.8749
X1.6729Y6.8805
X1.6673Y6.886
X1.6617Y6.8916
X1.6562Y6.8972
X1.6506Y6.9027
X1.645Y6.9083
X1.6395Y6.9139
X1.6339Y6.9194
X1.6283Y6.925
X1.6228Y6.9306
X1.6172Y6.9361
X1.6116Y6.9417
X1.6061Y6.9473
X1.6005Y6.9528
X1.5949Y6.9584
X1.5894Y6.964
X1.5838Y6.9695
X1.5782Y6.9751
X1.5727Y6.9807
X1.5671Y6.9862
X1.5615Y6.9918
X1.556Y6.9974
X1.5504Y7.0029
X1.5448Y7.0085
X1.5393Y7.0141
X1.5337Y7.0196
X1.5281Y7.0252
X1.5226Y7.0308
X1.517Y7.0363
X1.5114Y7.0419
X1.5058Y7.0475
X1.5003Y7.053
X1.4947Y7.0586
X1.4891Y7.0642
X1.4836Y7.0698
X1.478Y7.0753
X1.4724Y7.0809
X1.4669Y7.0865
X1.4613Y7.092
X1.4557Y7.0976
X1.4515Y7.1019
X1.4459Y7.1074
X1.4403Y7.113
X1.4348Y7.1186
X1.4292Y7.1241
X1.4236Y7.1297
X1.418Y7.1353
X1.4125Y7.1408
X1.4069Y7.1464
X1.4013Y7.152
X1.3958Y7.1576
X1.3902Y7.1631
X1.3846Y7.1687
X1.3791Y7.1743
X1.3735Y7.1798
X1.3679Y7.1854
X1.3624Y7.191
X1.3568Y7.1965
X1.3512Y7.2021
X1.3457Y7.2077
X1.3401Y7.2132
X1.3345Y7.2188
X1.329Y7.2244
X1.3234Y7.2299
X1.3178Y7.2355
X1.3123Y7.2411
X1.3067Y7.2466
X1.3011Y7.2522
X1.2956Y7.2578
X1.29Y7.2633
X1.2844Y7.2689
X1.2788Y7.2745
X1.2733Y7.28
X1.2677Y7.2856
X1.2621Y7.2912
X1.2566Y7.2967
X1.251Y7.3023
X1.2454Y7.3079
X1.2399Y7.3134
X1.2343Y7.319
X1.2287Y7.3246
X1.2232Y7.3301
X1.2176Y7.3357
X1.212Y7.3413
X1.2065Y7.3469
X1.2009Y7.3524
X1.1953Y7.358
X1.1898Y7.3636
X1.1842Y7.3691
X1.1786Y7.3747
X1.1731Y7.3803
X1.1675Y7.3858
X1.1619Y7.3914
X1.1564Y7.397
X1.1508Y7.4025
X1.1452Y7.4081
X1.1397Y7.4137
X1.1341Y7.4192
X1.1285Y7.4248
X1.1229Y7.4304
X1.1174Y7.4359
X1.1118Y7.4415
X1.1062Y7.4471
X1.1007Y7.4526
X1.0951Y7.4582
X1.0895Y7.4638
X1.084Y7.4693
X1.0784Y7.4749
X1.0728Y7.4805
X1.0673Y7.486
X1.0617Y7.4916
X1.0561Y7.4972
X1.0506Y7.5027
X1.045Y7.5083
X1.0394Y7.5139
X1.0339Y7.5194
X1.0283Y7.525
X1.0227Y7.5306
X1.0172Y7.5362
X1.0116Y7.5417
X1.006Y7.5473
X1.0005Y7.5529
X0.9949Y7.5584
X0.9893Y7.564
X0.9838Y7.5696
X0.9782Y7.5751
X0.9726Y7.5807
X0.967Y7.5863
X0.9615Y7.5918
X0.9559Y7.5974
X0.9503Y7.603
X0.9448Y7.6085
X0.9392Y7.6141
X0.9336Y7.6197
X0.9281Y7.6252
X0.9225Y7.6308
X0.9169Y7.6364
X0.9114Y7.6419
X0.9058Y7.6475
X0.9002Y7.6531
X0.8947Y7.6586
X0.8891Y7.6642
X0.8835Y7.6698
X0.878Y7.6753
X0.8724Y7.6809
X0.8668Y7.6865
X0.8613Y7.692
X0.8557Y7.6976
X0.8501Y7.7032
X0.8446Y7.7088
X0.839Y7.7143
X0.8347Y7.7186
G0Z0.2
X2.0682Y6.4851
G1Z-0.3124F19.68
X2.0626Y6.4907F39.37
X2.0571Y6.4963
X2.0515Y6.5018
X2.0459Y6.5074
X2.0404Y6.513
X2.0348Y6.5186
X2.0292Y6.5241
X2.0237Y6.5297
X2.0181Y6.5353
X2.0125Y6.5408
X2.007Y6.5464
X2.0014Y6.552
X1.9958Y6.5575
X1.9903Y6.5631
X1.9847Y6.5687
X1.9791Y6.5742
X1.9736Y6.5798
X1.968Y6.5854
X1.9624Y6.5909
X1.9568Y6.5965
X1.9513Y6.6021
X1.9457Y6.6076
X1.9401Y6.6132
X1.9346Y6.6188
X1.929Y6.6243
X1.9234Y6.6299
X1.9179Y6.6355
X1.9123Y6.641
X1.9067Y6.6466
X1.9012Y6.6522
X1.8956Y6.6577
X1.89Y6.6633
X1.8845Y6.6689
X1.8789Y6.6744
X1.8733Y6.68
X1.8678Y6.6856
X1.8622Y6.6912
X1.8566Y6.6967
X1.8511Y6.7023
X1.8455Y6.7079
X1.8399Y6.7134
X1.8344Y6.719
X1.8288Y6.7246
X1.8232Y6.7301
X1.8177Y6.7357
X1.8121Y6.7413
X1.8065Y6.7468
X1.8009Y6.7524
X1.7954Y6.758
X1.7898Y6.7635
X1.7842Y6.7691
X1.7787Y6.7747
X1.7731Y6.7802
X1.7675Y6.7858
X1.762Y6.7914
X1.7564Y6.7969
X1.7508Y6.8025
X1.7453Y6.8081
X1.7397Y6.8136
X1.7341Y6.8192
X1.7286Y6.8248
X1.723Y6.8303
X1.7174Y6.8359
X1.7119Y6.8415
X1.7063Y6.847
X1.7007Y6.8526
X1.6952Y6.8582
X1.6896Y6.8637
X1.684Y6.8693
X1.6785Y6.8749
X1.6729Y6.8805
X1.6673Y6.886
X1.6617Y6.8916
X1.6562Y6.8972
X1.6506Y6.9027
X1.645Y6.9083
X1.6395Y6.9139
X1.6339Y6.9194
X1.6283Y6.925
X1.6228Y6.9306
X1.6172Y6.9361
X1.6116Y6.9417
X1.6061Y6.9473
X1.6005Y6.9528
X1.5949Y6.9584
X1.5894Y6.964
X1.5838Y6.9695
X1.5782Y6.9751
X1.5727Y6.9807
X1.5671Y6.9862
X1.5615Y6.9918
X1.556Y6.9974
X1.5504Y7.0029
X1.5448Y7.0085
X1.5393Y7.0141
X1.5337Y7.0196
X1.5281Y7.0252
X1.5226Y7.0308
X1.517Y7.0363
X1.5114Y7.0419
X1.5058Y7.0475
X1.5003Y7.053
X1.4947Y7.0586
X1.4891Y7.0642
X1.4836Y7.0698
X1.478Y7.0753
X1.4724Y7.0809
X1.4669Y7.0865
X1.4613Y7.092
X1.4557Y7.0976
X1.4515Y7.1019
X1.4459Y7.1074
X1.4403Y7.113
X1.4348Y7.1186
X1.4292Y7.1241
X1.4236Y7.1297
X1.418Y7.1353
X1.4125Y7.1408
X1.4069Y7.1464
X1.4013Y7.152
X1.3958Y7.1576
X1.3902Y7.1631
X1.3846Y7.1687
X1.3791Y7.1743
X1.3735Y7.1798
X1.3679Y7.1854
X1.3624Y7.191
X1.3568Y7.1965
X1.3512Y7.2021
X1.3457Y7.2077
X1.3401Y7.2132
X1.3345Y7.2188
X1.329Y7.2244
X1.3234Y7.2299
X1.3178Y7.2355
X1.3123Y7.2411
X1.3067Y7.2466
X1.3011Y7.2522
X1.2956Y7.2578
X1.29Y7.2633
X1.2844Y7.2689
X1.2788Y7.2745
X1.2733Y7.28
X1.2677Y7.2856
X1.2621Y7.2912
X1.2566Y7.2967
X1.251Y7.3023
X1.2454Y7.3079
X1.2399Y7.3134
X1.2343Y7.319
X1.2287Y7.3246
X1.2232Y7.3301
X1.2176Y7.3357
X1.212Y7.3413
X1.2065Y7.3469
X1.2009Y7.3524
X1.1953Y7.358
X1.1898Y7.3636
X1.1842Y7.3691
X1.1786Y7.3747
X1.1731Y7.3803
X1.1675Y7.3858
X1.1619Y7.3914
X1.1564Y7.397
X1.1508Y7.4025
X1.1452Y7.4081
X1.1397Y7.4137
X1.1341Y7.4192
X1.1285Y7.4248
X1.1229Y7.4304
X1.1174Y7.4359
X1.1118Y7.4415
X1.1062Y7.4471
X1.1007Y7.4526
X1.0951Y7.4582
X1.0895Y7.4638
X1.084Y7.4693
X1.0784Y7.4749
X1.0728Y7.4805
X1.0673Y7.486
X1.0617Y7.4916
X1.0561Y7.4972
X1.0506Y7.5027
X1.045Y7.5083
X1.0394Y7.5139
X1.0339Y7.5194
X1.0283Y7.525
X1.0227Y7.5306
X1.0172Y7.5362
X1.0116Y7.5417
X1.006Y7.5473
X1.0005Y7.5529
X0.9949Y7.5584
X0.9893Y7.564
X0.9838Y7.5696
X0.9782Y7.5751
X0.9726Y7.5807
X0.967Y7.5863
X0.9615Y7.5918
X0.9559Y7.5974
X0.9503Y7.603
X0.9448Y7.6085
X0.9392Y7.6141
X0.9336Y7.6197
X0.9281Y7.6252
X0.9225Y7.6308
X0.9169Y7.6364
X0.9114Y7.6419
X0.9058Y7.6475
X0.9002Y7.6531
X0.8947Y7.6586
X0.8891Y7.6642
X0.8835Y7.6698
X0.878Y7.6753
X0.8724Y7.6809
X0.8668Y7.6865
X0.8613Y7.692
X0.8557Y7.6976
X0.8501Y7.7032
X0.8446Y7.7088
X0.839Y7.7143
X0.8347Y7.7186
G0Z0.2
X2.0682Y6.4851
G1Z-0.3125F19.68
X2.0626Y6.4907F39.37
X2.0571Y6.4963
X2.0515Y6.5018
X2.0459Y6.5074
X2.0404Y6.513
X2.0348Y6.5186
X2.0292Y6.5241
X2.0237Y6.5297
X2.0181Y6.5353
X2.0125Y6.5408
X2.007Y6.5464
X2.0014Y6.552
X1.9958Y6.5575
X1.9903Y6.5631
X1.9847Y6.5687
X1.9791Y6.5742
X1.9736Y6.5798
X1.968Y6.5854
X1.9624Y6.5909
X1.9568Y6.5965
X1.9513Y6.6021
X1.9457Y6.6076
X1.9401Y6.6132
X1.9346Y6.6188
X1.929Y6.6243
X1.9234Y6.6299
X1.9179Y6.6355
X1.9123Y6.641
X1.9067Y6.6466
X1.9012Y6.6522
X1.8956Y6.6577
X1.89Y6.6633
X1.8845Y6.6689
X1.8789Y6.6744
X1.8733Y6.68
X1.8678Y6.6856
X1.8622Y6.6912
X1.8566Y6.6967
X1.8511Y6.7023
X1.8455Y6.7079
X1.8399Y6.7134
X1.8344Y6.719
X1.8288Y6.7246
X1.8232Y6.7301
X1.8177Y6.7357
X1.8121Y6.7413
X1.8065Y6.7468
X1.8009Y6.7524
X1.7954Y6.758
X1.7898Y6.7635
X1.7842Y6.7691
X1.7787Y6.7747
X1.7731Y6.7802
X1.7675Y6.7858
X1.762Y6.7914
X1.7564Y6.7969
X1.7508Y6.8025
X1.7453Y6.8081
X1.7397Y6.8136
X1.7341Y6.8192
X1.7286Y6.8248
X1.723Y6.8303
X1.7174Y6.8359
X1.7119Y6.8415
X1.7063Y6.847
X1.7007Y6.8526
X1.6952Y6.8582
X1.6896Y6.8637
X1.684Y6.8693
X1.6785Y6.8749
X1.6729Y6.8805
X1.6673Y6.886
X1.6617Y6.8916
X1.6562Y6.8972
X1.6506Y6.9027
X1.645Y6.9083
X1.6395Y6.9139
X1.6339Y6.9194
X1.6283Y6.925
X1.6228Y6.9306
X1.6172Y6.9361
X1.6116Y6.9417
X1.6061Y6.9473
X1.6005Y6.9528
X1.5949Y6.9584
X1.5894Y6.964
X1.5838Y6.9695
X1.5782Y6.9751
X1.5727Y6.9807
X1.5671Y6.9862
X1.5615Y6.9918
X1.556Y6.9974
X1.5504Y7.0029
X1.5448Y7.0085
X1.5393Y7.0141
X1.5337Y7.0196
X1.5281Y7.0252
X1.5226Y7.0308
X1.517Y7.0363
X1.5114Y7.0419
X1.5058Y7.0475
X1.5003Y7.053
X1.4947Y7.0586
X1.4891Y7.0642
X1.4836Y7.0698
X1.478Y7.0753
X1.4724Y7.0809
X1.4669Y7.0865
X1.4613Y7.092
X1.4557Y7.0976
X1.4515Y7.1019
X1.4459Y7.1074
X1.4403Y7.113
X1.4348Y7.1186
X1.4292Y7.1241
X1.4236Y7.1297
X1.418Y7.1353
X1.4125Y7.1408
X1.4069Y7.1464
X1.4013Y7.152
X1.3958Y7.1576
X1.3902Y7.1631
X1.3846Y7.1687
X1.3791Y7.1743
X1.3735Y7.1798
X1.3679Y7.1854
X1.3624Y7.191
X1.3568Y7.1965
X1.3512Y7.2021
X1.3457Y7.2077
X1.3401Y7.2132
X1.3345Y7.2188
X1.329Y7.2244
X1.3234Y7.2299
X1.3178Y7.2355
X1.3123Y7.2411
X1.3067Y7.2466
X1.3011Y7.2522
X1.2956Y7.2578
X1.29Y7.2633
X1.2844Y7.2689
X1.2788Y7.2745
X1.2733Y7.28
X1.2677Y7.2856
X1.2621Y7.2912
X1.2566Y7.2967
X1.251Y7.3023
X1.2454Y7.3079
X1.2399Y7.3134
X1.2343Y7.319
X1.2287Y7.3246
X1.2232Y7.3301
X1.2176Y7.3357
X1.212Y7.3413
X1.2065Y7.3469
X1.2009Y7.3524
X1.1953Y7.358
X1.1898Y7.3636
X1.1842Y7.3691
X1.1786Y7.3747
X1.1731Y7.3803
X1.1675Y7.3858
X1.1619Y7.3914
X1.1564Y7.397
X1.1508Y7.4025
X1.1452Y7.4081
X1.1397Y7.4137
X1.1341Y7.4192
X1.1285Y7.4248
X1.1229Y7.4304
X1.1174Y7.4359
X1.1118Y7.4415
X1.1062Y7.4471
X1.1007Y7.4526
X1.0951Y7.4582
X1.0895Y7.4638
X1.084Y7.4693
X1.0784Y7.4749
X1.0728Y7.4805
X1.0673Y7.486
X1.0617Y7.4916
X1.0561Y7.4972
X1.0506Y7.5027
X1.045Y7.5083
X1.0394Y7.5139
X1.0339Y7.5194
X1.0283Y7.525
X1.0227Y7.5306
X1.0172Y7.5362
X1.0116Y7.5417
X1.006Y7.5473
X1.0005Y7.5529
X0.9949Y7.5584
X0.9893Y7.564
X0.9838Y7.5696
X0.9782Y7.5751
X0.9726Y7.5807
X0.967Y7.5863
X0.9615Y7.5918
X0.9559Y7.5974
X0.9503Y7.603
X0.9448Y7.6085
X0.9392Y7.6141
X0.9336Y7.6197
X0.9281Y7.6252
X0.9225Y7.6308
X0.9169Y7.6364
X0.9114Y7.6419
X0.9058Y7.6475
X0.9002Y7.6531
X0.8947Y7.6586
X0.8891Y7.6642
X0.8835Y7.6698
X0.878Y7.6753
X0.8724Y7.6809
X0.8668Y7.6865
X0.8613Y7.692
X0.8557Y7.6976
X0.8501Y7.7032
X0.8446Y7.7088
X0.839Y7.7143
X0.8347Y7.7186
G0Z0.2
X3.3682Y6.4851
G1Z-0.0624F19.68
X3.3626Y6.4907F39.37
X3.3571Y6.4963
X3.3515Y6.5018
X3.3459Y6.5074
X3.3404Y6.513
X3.3348Y6.5186
X3.3292Y6.5241
X3.3237Y6.5297
X3.3181Y6.5353
X3.3125Y6.5408
X3.307Y6.5464
X3.3014Y6.552
X3.2958Y6.5575
X3.2903Y6.5631
X3.2847Y6.5687
X3.2791Y6.5742
X3.2736Y6.5798
X3.268Y6.5854
X3.2624Y6.5909
X3.2568Y6.5965
X3.2513Y6.6021
X3.2457Y6.6076
X3.2401Y6.6132
X3.2346Y6.6188
X3.229Y6.6243
X3.2234Y6.6299
X3.2179Y6.6355
X3.2123Y6.641
X3.2067Y6.6466
X3.2012Y6.6522
X3.1956Y6.6577
X3.19Y6.6633
X3.1845Y6.6689
X3.1789Y6.6744
X3.1733Y6.68
X3.1678Y6.6856
X3.1622Y6.6912
X3.1566Y6.6967
X3.1511Y6.7023
X3.1455Y6.7079
X3.1399Y6.7134
X3.1344Y6.719
X3.1288Y6.7246
X3.1232Y6.7301
X3.1177Y6.7357
X3.1121Y6.7413
X3.1065Y6.7468
X3.1009Y6.7524
X3.0954Y6.758
X3.0898Y6.7635
X3.0842Y6.7691
X3.0787Y6.7747
X3.0731Y6.7802
X3.0675Y6.7858
X3.062Y6.7914
X3.0564Y6.7969
X3.0508Y6.8025
X3.0453Y6.8081
X3.0397Y6.8136
X3.0341Y6.8192
X3.0286Y6.8248
X3.023Y6.8303
X3.0174Y6.8359
X3.0119Y6.8415
X3.0063Y6.847
X3.0007Y6.8526
X2.9952Y6.8582
X2.9896Y6.8637
X2.984Y6.8693
X2.9785Y6.8749
X2.9729Y6.8805
X2.9673Y6.886
X2.9617Y6.8916
X2.9562Y6.8972
X2.9506Y6.9027
X2.945Y6.9083
X2.9395Y6.9139
X2.9339Y6.9194
X2.9283Y6.925
X2.9228Y6.9306
X2.9172Y6.9361
X2.9116Y6.9417
X2.9061Y6.9473
X2.9005Y6.9528
X2.8949Y6.9584
X2.8894Y6.964
X2.8838Y6.9695
X2.8782Y6.9751
X2.8727Y6.9807
X2.8671Y6.9862
X2.8615Y6.9918
X2.856Y6.9974
X2.8504Y7.0029
X2.8448Y7.0085
X2.8393Y7.0141
X2.8337Y7.0196
X2.8281Y7.0252
X2.8226Y7.0308
X2.817Y7.0363
X2.8114Y7.0419
X2.8058Y7.0475
X2.8003Y7.053
X2.7947Y7.0586
X2.7891Y7.0642
X2.7836Y7.0698
X2.778Y7.0753
X2.7724Y7.0809
X2.7669Y7.0865
X2.7613Y7.092
X2.7557Y7.0976
X2.7515Y7.1019
X2.7459Y7.1074
X2.7403Y7.113
X2.7348Y7.1186
X2.7292Y7.1241
X2.7236Y7.1297
X2.718Y7.1353
X2.7125Y7.1408
X2.7069Y7.1464
X2.7013Y7.152
X2.6958Y7.1576
X2.6902Y7.1631
X2.6846Y7.1687
X2.6791Y7.1743
X2.6735Y7.1798
X2.6679Y7.1854
X2.6624Y7.191
X2.6568Y7.1965
X2.6512Y7.2021
X2.6457Y7.2077
X2.6401Y7.2132
X2.6345Y7.2188
X2.629Y7.2244
X2.6234Y7.2299
X2.6178Y7.2355
X2.6123Y7.2411
X2.6067Y7.2466
X2.6011Y7.2522
X2.5956Y7.2578
X2.59Y7.2633
X2.5844Y7.2689
X2.5788Y7.2745
X2.5733Y7.28
X2.5677Y7.2856
X2.5621Y7.2912
X2.5566Y7.2967
X2.551Y7.3023
X2.5454Y7.3079
X2.5399Y7.3134
X2.5343Y7.319
X2.5287Y7.3246
X2.5232Y7.3301
X2.5176Y7.3357
X2.512Y7.3413
X2.5065Y7.3469
X2.5009Y7.3524
X2.4953Y7.358
X2.4898Y7.3636
X2.4842Y7.3691
X2.4786Y7.3747
X2.4731Y7.3803
X2.4675Y7.3858
X2.4619Y7.3914
X2.4564Y7.397
X2.4508Y7.4025
X2.4452Y7.4081
X2.4397Y7.4137
X2.4341Y7.4192
X2.4285Y7.4248
X2.4229Y7.4304
X2.4174Y7.4359
X2.4118Y7.4415
X2.4062Y7.4471
X2.4007Y7.4526
X2.3951Y7.4582
X2.3895Y7.4638
X2.384Y7.4693
X2.3784Y7.4749
X2.3728Y7.4805
X2.3673Y7.486
X2.3617Y7.4916
X2.3561Y7.4972
X2.3506Y7.5027
X2.345Y7.5083
X2.3394Y7.5139
X2.3339Y7.5194
X2.3283Y7.525
X2.3227Y7.5306
X2.3172Y7.5362
X2.3116Y7.5417
X2.306Y7.5473
X2.3005Y7.5529
X2.2949Y7.5584
X2.2893Y7.564
X2.2838Y7.5696
X2.2782Y7.5751
X2.2726Y7.5807
X2.267Y7.5863
X2.2615Y7.5918
X2.2559Y7.5974
X2.2503Y7.603
X2.2448Y7.6085
X2.2392Y7.6141
X2.2336Y7.6197
X2.2281Y7.6252
X2.2225Y7.6308
X2.2169Y7.6364
X2.2114Y7.6419
X2.2058Y7.6475
X2.2002Y7.6531
X2.1947Y7.6586
X2.1891Y7.6642
X2.1835Y7.6698
X2.178Y7.6753
X2.1724Y7.6809
X2.1668Y7.6865
X2.1613Y7.692
X2.1557Y7.6976
X2.1501Y7.7032
X2.1446Y7.7088
X2.139Y7.7143
X2.1347Y7.7186
G0Z0.2
X3.3682Y6.4851
G1Z-0.125F19.68
X3.3626Y6.4907F39.37
X3.3571Y6.4963
X3.3515Y6.5018
X3.3459Y6.5074
X3.3404Y6.513
X3.3348Y6.5186
X3.3292Y6.5241
X3.3237Y6.5297
X3.3181Y6.5353
X3.3125Y6.5408
X3.307Y6.5464
X3.3014Y6.552
X3.2958Y6.5575
X3.2903Y6.5631
X3.2847Y6.5687
X3.2791Y6.5742
X3.2736Y6.5798
X3.268Y6.5854
X3.2624Y6.5909
X3.2568Y6.5965
X3.2513Y6.6021
X3.2457Y6.6076
X3.2401Y6.6132
X3.2346Y6.6188
X3.229Y6.6243
X3.2234Y6.6299
X3.2179Y6.6355
X3.2123Y6.641
X3.2067Y6.6466
X3.2012Y6.6522
X3.1956Y6.6577
X3.19Y6.6633
X3.1845Y6.6689
X3.1789Y6.6744
X3.1733Y6.68
X3.1678Y6.6856
X3.1622Y6.6912
X3.1566Y6.6967
X3.1511Y6.7023
X3.1455Y6.7079
X3.1399Y6.7134
X3.1344Y6.719
X3.1288Y6.7246
X3.1232Y6.7301
X3.1177Y6.7357
X3.1121Y6.7413
X3.1065Y6.7468
X3.1009Y6.7524
X3.0954Y6.758
X3.0898Y6.7635
X3.0842Y6.7691
X3.0787Y6.7747
X3.0731Y6.7802
X3.0675Y6.7858
X3.062Y6.7914
X3.0564Y6.7969
X3.0508Y6.8025
X3.0453Y6.8081
X3.0397Y6.8136
X3.0341Y6.8192
X3.0286Y6.8248
X3.023Y6.8303
X3.0174Y6.8359
X3.0119Y6.8415
X3.0063Y6.847
X3.0007Y6.8526
X2.9952Y6.8582
X2.9896Y6.8637
X2.984Y6.8693
X2.9785Y6.8749
X2.9729Y6.8805
X2.9673Y6.886
X2.9617Y6.8916
X2.9562Y6.8972
X2.9506Y6.9027
X2.945Y6.9083
X2.9395Y6.9139
X2.9339Y6.9194
X2.9283Y6.925
X2.9228Y6.9306
X2.9172Y6.9361
X2.9116Y6.9417
X2.9061Y6.9473
X2.9005Y6.9528
X2.8949Y6.9584
X2.8894Y6.964
X2.8838Y6.9695
X2.8782Y6.9751
X2.8727Y6.9807
X2.8671Y6.9862
X2.8615Y6.9918
X2.856Y6.9974
X2.8504Y7.0029
X2.8448Y7.0085
X2.8393Y7.0141
X2.8337Y7.0196
X2.8281Y7.0252
X2.8226Y7.0308
X2.817Y7.0363
X2.8114Y7.0419
X2.8058Y7.0475
X2.8003Y7.053
X2.7947Y7.0586
X2.7891Y7.0642
X2.7836Y7.0698
X2.778Y7.0753
X2.7724Y7.0809
X2.7669Y7.0865
X2.7613Y7.092
X2.7557Y7.0976
X2.7515Y7.1019
X2.7459Y7.1074
X2.7403Y7.113
X2.7348Y7.1186
X2.7292Y7.1241
X2.7236Y7.1297
X2.718Y7.1353
X2.7125Y7.1408
X2.7069Y7.1464
X2.7013Y7.152
X2.6958Y7.1576
X2.6902Y7.1631
X2.6846Y7.1687
X2.6791Y7.1743
X2.6735Y7.1798
X2.6679Y7.1854
X2.6624Y7.191
X2.6568Y7.1965
X2.6512Y7.2021
X2.6457Y7.2077
X2.6401Y7.2132
X2.6345Y7.2188
X2.629Y7.2244
X2.6234Y7.2299
X2.6178Y7.2355
X2.6123Y7.2411
X2.6067Y7.2466
X2.6011Y7.2522
X2.5956Y7.2578
X2.59Y7.2633
X2.5844Y7.2689
X2.5788Y7.2745
X2.5733Y7.28
X2.5677Y7.2856
X2.5621Y7.2912
X2.5566Y7.2967
X2.551Y7.3023
X2.5454Y7.3079
X2.5399Y7.3134
X2.5343Y7.319
X2.5287Y7.3246
X2.5232Y7.3301
X2.5176Y7.3357
X2.512Y7.3413
X2.5065Y7.3469
X2.5009Y7.3524
X2.4953Y7.358
X2.4898Y7.3636
X2.4842Y7.3691
X2.4786Y7.3747
X2.4731Y7.3803
X2.4675Y7.3858
X2.4619Y7.3914
X2.4564Y7.397
X2.4508Y7.4025
X2.4452Y7.4081
X2.4397Y7.4137
X2.4341Y7.4192
X2.4285Y7.4248
X2.4229Y7.4304
X2.4174Y7.4359
X2.4118Y7.4415
X2.4062Y7.4471
X2.4007Y7.4526
X2.3951Y7.4582
X2.3895Y7.4638
X2.384Y7.4693
X2.3784Y7.4749
X2.3728Y7.4805
X2.3673Y7.486
X2.3617Y7.4916
X2.3561Y7.4972
X2.3506Y7.5027
X2.345Y7.5083
X2.3394Y7.5139
X2.3339Y7.5194
X2.3283Y7.525
X2.3227Y7.5306
X2.3172Y7.5362
X2.3116Y7.5417
X2.306Y7.5473
X2.3005Y7.5529
X2.2949Y7.5584
X2.2893Y7.564
X2.2838Y7.5696
X2.2782Y7.5751
X2.2726Y7.5807
X2.267Y7.5863
X2.2615Y7.5918
X2.2559Y7.5974
X2.2503Y7.603
X2.2448Y7.6085
X2.2392Y7.6141
X2.2336Y7.6197
X2.2281Y7.6252
X2.2225Y7.6308
X2.2169Y7.6364
X2.2114Y7.6419
X2.2058Y7.6475
X2.2002Y7.6531
X2.1947Y7.6586
X2.1891Y7.6642
X2.1835Y7.6698
X2.178Y7.6753
X2.1724Y7.6809
X2.1668Y7.6865
X2.1613Y7.692
X2.1557Y7.6976
X2.1501Y7.7032
X2.1446Y7.7088
X2.139Y7.7143
X2.1347Y7.7186
G0Z0.2
X3.3682Y6.4851
G1Z-0.1874F19.68
X3.3626Y6.4907F39.37
X3.3571Y6.4963
X3.3515Y6.5018
X3.3459Y6.5074
X3.3404Y6.513
X3.3348Y6.5186
X3.3292Y6.5241
X3.3237Y6.5297
X3.3181Y6.5353
X3.3125Y6.5408
X3.307Y6.5464
X3.3014Y6.552
X3.2958Y6.5575
X3.2903Y6.5631
X3.2847Y6.5687
X3.2791Y6.5742
X3.2736Y6.5798
X3.268Y6.5854
X3.2624Y6.5909
X3.2568Y6.5965
X3.2513Y6.6021
X3.2457Y6.6076
X3.2401Y6.6132
X3.2346Y6.6188
X3.229Y6.6243
X3.2234Y6.6299
X3.2179Y6.6355
X3.2123Y6.641
X3.2067Y6.6466
X3.2012Y6.6522
X3.1956Y6.6577
X3.19Y6.6633
X3.1845Y6.6689
X3.1789Y6.6744
X3.1733Y6.68
X3.1678Y6.6856
X3.1622Y6.6912
X3.1566Y6.6967
X3.1511Y6.7023
X3.1455Y6.7079
X3.1399Y6.7134
X3.1344Y6.719
X3.1288Y6.7246
X3.1232Y6.7301
X3.1177Y6.7357
X3.1121Y6.7413
X3.1065Y6.7468
X3.1009Y6.7524
X3.0954Y6.758
X3.0898Y6.7635
X3.0842Y6.7691
X3.0787Y6.7747
X3.0731Y6.7802
X3.0675Y6.7858
X3.062Y6.7914
X3.0564Y6.7969
X3.0508Y6.8025
X3.0453Y6.8081
X3.0397Y6.8136
X3.0341Y6.8192
X3.0286Y6.8248
X3.023Y6.8303
X3.0174Y6.8359
X3.0119Y6.8415
X3.0063Y6.847
X3.0007Y6.8526
X2.9952Y6.8582
X2.9896Y6.8637
X2.984Y6.8693
X2.9785Y6.8749
X2.9729Y6.8805
X2.9673Y6.886
X2.9617Y6.8916
X2.9562Y6.8972
X2.9506Y6.9027
X2.945Y6.9083
X2.9395Y6.9139
X2.9339Y6.9194
X2.9283Y6.925
X2.9228Y6.9306
X2.9172Y6.9361
X2.9116Y6.9417
X2.9061Y6.9473
X2.9005Y6.9528
X2.8949Y6.9584
X2.8894Y6.964
X2.8838Y6.9695
X2.8782Y6.9751
X2.8727Y6.9807
X2.8671Y6.9862
X2.8615Y6.9918
X2.856Y6.9974
X2.8504Y7.0029
X2.8448Y7.0085
X2.8393Y7.0141
X2.8337Y7.0196
X2.8281Y7.0252
X2.8226Y7.0308
X2.817Y7.0363
X2.8114Y7.0419
X2.8058Y7.0475
X2.8003Y7.053
X2.7947Y7.0586
X2.7891Y7.0642
X2.7836Y7.0698
X2.778Y7.0753
X2.7724Y7.0809
X2.7669Y7.0865
X2.7613Y7.092
X2.7557Y7.0976
X2.7515Y7.1019
X2.7459Y7.1074
X2.7403Y7.113
X2.7348Y7.1186
X2.7292Y7.1241
X2.7236Y7.1297
X2.718Y7.1353
X2.7125Y7.1408
X2.7069Y7.1464
X2.7013Y7.152
X2.6958Y7.1576
X2.6902Y7.1631
X2.6846Y7.1687
X2.6791Y7.1743
X2.6735Y7.1798
X2.6679Y7.1854
X2.6624Y7.191
X2.6568Y7.1965
X2.6512Y7.2021
X2.6457Y7.2077
X2.6401Y7.2132
X2.6345Y7.2188
X2.629Y7.2244
X2.6234Y7.2299
X2.6178Y7.2355
X2.6123Y7.2411
X2.6067Y7.2466
X2.6011Y7.2522
X2.5956Y7.2578
X2.59Y7.2633
X2.5844Y7.2689
X2.5788Y7.2745
X2.5733Y7.28
X2.5677Y7.2856
X2.5621Y7.2912
X2.5566Y7.2967
X2.551Y7.3023
X2.5454Y7.3079
X2.5399Y7.3134
X2.5343Y7.319
X2.5287Y7.3246
X2.5232Y7.3301
X2.5176Y7.3357
X2.512Y7.3413
X2.5065Y7.3469
X2.5009Y7.3524
X2.4953Y7.358
X2.4898Y7.3636
X2.4842Y7.3691
X2.4786Y7.3747
X2.4731Y7.3803
X2.4675Y7.3858
X2.4619Y7.3914
X2.4564Y7.397
X2.4508Y7.4025
X2.4452Y7.4081
X2.4397Y7.4137
X2.4341Y7.4192
X2.4285Y7.4248
X2.4229Y7.4304
X2.4174Y7.4359
X2.4118Y7.4415
X2.4062Y7.4471
X2.4007Y7.4526
X2.3951Y7.4582
X2.3895Y7.4638
X2.384Y7.4693
X2.3784Y7.4749
X2.3728Y7.4805
X2.3673Y7.486
X2.3617Y7.4916
X2.3561Y7.4972
X2.3506Y7.5027
X2.345Y7.5083
X2.3394Y7.5139
X2.3339Y7.5194
X2.3283Y7.525
X2.3227Y7.5306
X2.3172Y7.5362
X2.3116Y7.5417
X2.306Y7.5473
X2.3005Y7.5529
X2.2949Y7.5584
X2.2893Y7.564
X2.2838Y7.5696
X2.2782Y7.5751
X2.2726Y7.5807
X2.267Y7.5863
X2.2615Y7.5918
X2.2559Y7.5974
X2.2503Y7.603
X2.2448Y7.6085
X2.2392Y7.6141
X2.2336Y7.6197
X2.2281Y7.6252
X2.2225Y7.6308
X2.2169Y7.6364
X2.2114Y7.6419
X2.2058Y7.6475
X2.2002Y7.6531
X2.1947Y7.6586
X2.1891Y7.6642
X2.1835Y7.6698
X2.178Y7.6753
X2.1724Y7.6809
X2.1668Y7.6865
X2.1613Y7.692
X2.1557Y7.6976
X2.1501Y7.7032
X2.1446Y7.7088
X2.139Y7.7143
X2.1347Y7.7186
G0Z0.2
X3.3682Y6.4851
G1Z-0.25F19.68
X3.3626Y6.4907F39.37
X3.3571Y6.4963
X3.3515Y6.5018
X3.3459Y6.5074
X3.3404Y6.513
X3.3348Y6.5186
X3.3292Y6.5241
X3.3237Y6.5297
X3.3181Y6.5353
X3.3125Y6.5408
X3.307Y6.5464
X3.3014Y6.552
X3.2958Y6.5575
X3.2903Y6.5631
X3.2847Y6.5687
X3.2791Y6.5742
X3.2736Y6.5798
X3.268Y6.5854
X3.2624Y6.5909
X3.2568Y6.5965
X3.2513Y6.6021
X3.2457Y6.6076
X3.2401Y6.6132
X3.2346Y6.6188
X3.229Y6.6243
X3.2234Y6.6299
X3.2179Y6.6355
X3.2123Y6.641
X3.2067Y6.6466
X3.2012Y6.6522
X3.1956Y6.6577
X3.19Y6.6633
X3.1845Y6.6689
X3.1789Y6.6744
X3.1733Y6.68
X3.1678Y6.6856
X3.1622Y6.6912
X3.1566Y6.6967
X3.1511Y6.7023
X3.1455Y6.7079
X3.1399Y6.7134
X3.1344Y6.719
X3.1288Y6.7246
X3.1232Y6.7301
X3.1177Y6.7357
X3.1121Y6.7413
X3.1065Y6.7468
X3.1009Y6.7524
X3.0954Y6.758
X3.0898Y6.7635
X3.0842Y6.7691
X3.0787Y6.7747
X3.0731Y6.7802
X3.0675Y6.7858
X3.062Y6.7914
X3.0564Y6.7969
X3.0508Y6.8025
X3.0453Y6.8081
X3.0397Y6.8136
X3.0341Y6.8192
X3.0286Y6.8248
X3.023Y6.8303
X3.0174Y6.8359
X3.0119Y6.8415
X3.0063Y6.847
X3.0007Y6.8526
X2.9952Y6.8582
X2.9896Y6.8637
X2.984Y6.8693
X2.9785Y6.8749
X2.9729Y6.8805
X2.9673Y6.886
X2.9617Y6.8916
X2.9562Y6.8972
X2.9506Y6.9027
X2.945Y6.9083
X2.9395Y6.9139
X2.9339Y6.9194
X2.9283Y6.925
X2.9228Y6.9306
X2.9172Y6.9361
X2.9116Y6.9417
X2.9061Y6.9473
X2.9005Y6.9528
X2.8949Y6.9584
X2.8894Y6.964
X2.8838Y6.9695
X2.8782Y6.9751
X2.8727Y6.9807
X2.8671Y6.9862
X2.8615Y6.9918
X2.856Y6.9974
X2.8504Y7.0029
X2.8448Y7.0085
X2.8393Y7.0141
X2.8337Y7.0196
X2.8281Y7.0252
X2.8226Y7.0308
X2.817Y7.0363
X2.8114Y7.0419
X2.8058Y7.0475
X2.8003Y7.053
X2.7947Y7.0586
X2.7891Y7.0642
X2.7836Y7.0698
X2.778Y7.0753
X2.7724Y7.0809
X2.7669Y7.0865
X2.7613Y7.092
X2.7557Y7.0976
X2.7515Y7.1019
X2.7459Y7.1074
X2.7403Y7.113
X2.7348Y7.1186
X2.7292Y7.1241
X2.7236Y7.1297
X2.718Y7.1353
X2.7125Y7.1408
X2.7069Y7.1464
X2.7013Y7.152
X2.6958Y7.1576
X2.6902Y7.1631
X2.6846Y7.1687
X2.6791Y7.1743
X2.6735Y7.1798
X2.6679Y7.1854
X2.6624Y7.191
X2.6568Y7.1965
X2.6512Y7.2021
X2.6457Y7.2077
X2.6401Y7.2132
X2.6345Y7.2188
X2.629Y7.2244
X2.6234Y7.2299
X2.6178Y7.2355
X2.6123Y7.2411
X2.6067Y7.2466
X2.6011Y7.2522
X2.5956Y7.2578
X2.59Y7.2633
X2.5844Y7.2689
X2.5788Y7.2745
X2.5733Y7.28
X2.5677Y7.2856
X2.5621Y7.2912
X2.5566Y7.2967
X2.551Y7.3023
X2.5454Y7.3079
X2.5399Y7.3134
X2.5343Y7.319
X2.5287Y7.3246
X2.5232Y7.3301
X2.5176Y7.3357
X2.512Y7.3413
X2.5065Y7.3469
X2.5009Y7.3524
X2.4953Y7.358
X2.4898Y7.3636
X2.4842Y7.3691
X2.4786Y7.3747
X2.4731Y7.3803
X2.4675Y7.3858
X2.4619Y7.3914
X2.4564Y7.397
X2.4508Y7.4025
X2.4452Y7.4081
X2.4397Y7.4137
X2.4341Y7.4192
X2.4285Y7.4248
X2.4229Y7.4304
X2.4174Y7.4359
X2.4118Y7.4415
X2.4062Y7.4471
X2.4007Y7.4526
X2.3951Y7.4582
X2.3895Y7.4638
X2.384Y7.4693
X2.3784Y7.4749
X2.3728Y7.4805
X2.3673Y7.486
X2.3617Y7.4916
X2.3561Y7.4972
X2.3506Y7.5027
X2.345Y7.5083
X2.3394Y7.5139
X2.3339Y7.5194
X2.3283Y7.525
X2.3227Y7.5306
X2.3172Y7.5362
X2.3116Y7.5417
X2.306Y7.5473
X2.3005Y7.5529
X2.2949Y7.5584
X2.2893Y7.564
X2.2838Y7.5696
X2.2782Y7.5751
X2.2726Y7.5807
X2.267Y7.5863
X2.2615Y7.5918
X2.2559Y7.5974
X2.2503Y7.603
X2.2448Y7.6085
X2.2392Y7.6141
X2.2336Y7.6197
X2.2281Y7.6252
X2.2225Y7.6308
X2.2169Y7.6364
X2.2114Y7.6419
X2.2058Y7.6475
X2.2002Y7.6531
X2.1947Y7.6586
X2.1891Y7.6642
X2.1835Y7.6698
X2.178Y7.6753
X2.1724Y7.6809
X2.1668Y7.6865
X2.1613Y7.692
X2.1557Y7.6976
X2.1501Y7.7032
X2.1446Y7.7088
X2.139Y7.7143
X2.1347Y7.7186
G0Z0.2
X3.3682Y6.4851
G1Z-0.3124F19.68
X3.3626Y6.4907F39.37
X3.3571Y6.4963
X3.3515Y6.5018
X3.3459Y6.5074
X3.3404Y6.513
X3.3348Y6.5186
X3.3292Y6.5241
X3.3237Y6.5297
X3.3181Y6.5353
X3.3125Y6.5408
X3.307Y6.5464
X3.3014Y6.552
X3.2958Y6.5575
X3.2903Y6.5631
X3.2847Y6.5687
X3.2791Y6.5742
X3.2736Y6.5798
X3.268Y6.5854
X3.2624Y6.5909
X3.2568Y6.5965
X3.2513Y6.6021
X3.2457Y6.6076
X3.2401Y6.6132
X3.2346Y6.6188
X3.229Y6.6243
X3.2234Y6.6299
X3.2179Y6.6355
X3.2123Y6.641
X3.2067Y6.6466
X3.2012Y6.6522
X3.1956Y6.6577
X3.19Y6.6633
X3.1845Y6.6689
X3.1789Y6.6744
X3.1733Y6.68
X3.1678Y6.6856
X3.1622Y6.6912
X3.1566Y6.6967
X3.1511Y6.7023
X3.1455Y6.7079
X3.1399Y6.7134
X3.1344Y6.719
X3.1288Y6.7246
X3.1232Y6.7301
X3.1177Y6.7357
X3.1121Y6.7413
X3.1065Y6.7468
X3.1009Y6.7524
X3.0954Y6.758
X3.0898Y6.7635
X3.0842Y6.7691
X3.0787Y6.7747
X3.0731Y6.7802
X3.0675Y6.7858
X3.062Y6.7914
X3.0564Y6.7969
X3.0508Y6.8025
X3.0453Y6.8081
X3.0397Y6.8136
X3.0341Y6.8192
X3.0286Y6.8248
X3.023Y6.8303
X3.0174Y6.8359
X3.0119Y6.8415
X3.0063Y6.847
X3.0007Y6.8526
X2.9952Y6.8582
X2.9896Y6.8637
X2.984Y6.8693
X2.9785Y6.8749
X2.9729Y6.8805
X2.9673Y6.886
X2.9617Y6.8916
X2.9562Y6.8972
X2.9506Y6.9027
X2.945Y6.9083
X2.9395Y6.9139
X2.9339Y6.9194
X2.9283Y6.925
X2.9228Y6.9306
X2.9172Y6.9361
X2.9116Y6.9417
X2.9061Y6.9473
X2.9005Y6.9528
X2.8949Y6.9584
X2.8894Y6.964
X2.8838Y6.9695
X2.8782Y6.9751
X2.8727Y6.9807
X2.8671Y6.9862
X2.8615Y6.9918
X2.856Y6.9974
X2.8504Y7.0029
X2.8448Y7.0085
X2.8393Y7.0141
X2.8337Y7.0196
X2.8281Y7.0252
X2.8226Y7.0308
X2.817Y7.0363
X2.8114Y7.0419
X2.8058Y7.0475
X2.8003Y7.053
X2.7947Y7.0586
X2.7891Y7.0642
X2.7836Y7.0698
X2.778Y7.0753
X2.7724Y7.0809
X2.7669Y7.0865
X2.7613Y7.092
X2.7557Y7.0976
X2.7515Y7.1019
X2.7459Y7.1074
X2.7403Y7.113
X2.7348Y7.1186
X2.7292Y7.1241
X2.7236Y7.1297
X2.718Y7.1353
X2.7125Y7.1408
X2.7069Y7.1464
X2.7013Y7.152
X2.6958Y7.1576
X2.6902Y7.1631
X2.6846Y7.1687
X2.6791Y7.1743
X2.6735Y7.1798
X2.6679Y7.1854
X2.6624Y7.191
X2.6568Y7.1965
X2.6512Y7.2021
X2.6457Y7.2077
X2.6401Y7.2132
X2.6345Y7.2188
X2.629Y7.2244
X2.6234Y7.2299
X2.6178Y7.2355
X2.6123Y7.2411
X2.6067Y7.2466
X2.6011Y7.2522
X2.5956Y7.2578
X2.59Y7.2633
X2.5844Y7.2689
X2.5788Y7.2745
X2.5733Y7.28
X2.5677Y7.2856
X2.5621Y7.2912
X2.5566Y7.2967
X2.551Y7.3023
X2.5454Y7.3079
X2.5399Y7.3134
X2.5343Y7.319
X2.5287Y7.3246
X2.5232Y7.3301
X2.5176Y7.3357
X2.512Y7.3413
X2.5065Y7.3469
X2.5009Y7.3524
X2.4953Y7.358
X2.4898Y7.3636
X2.4842Y7.3691
X2.4786Y7.3747
X2.4731Y7.3803
X2.4675Y7.3858
X2.4619Y7.3914
X2.4564Y7.397
X2.4508Y7.4025
X2.4452Y7.4081
X2.4397Y7.4137
X2.4341Y7.4192
X2.4285Y7.4248
X2.4229Y7.4304
X2.4174Y7.4359
X2.4118Y7.4415
X2.4062Y7.4471
X2.4007Y7.4526
X2.3951Y7.4582
X2.3895Y7.4638
X2.384Y7.4693
X2.3784Y7.4749
X2.3728Y7.4805
X2.3673Y7.486
X2.3617Y7.4916
X2.3561Y7.4972
X2.3506Y7.5027
X2.345Y7.5083
X2.3394Y7.5139
X2.3339Y7.5194
X2.3283Y7.525
X2.3227Y7.5306
X2.3172Y7.5362
X2.3116Y7.5417
X2.306Y7.5473
X2.3005Y7.5529
X2.2949Y7.5584
X2.2893Y7.564
X2.2838Y7.5696
X2.2782Y7.5751
X2.2726Y7.5807
X2.267Y7.5863
X2.2615Y7.5918
X2.2559Y7.5974
X2.2503Y7.603
X2.2448Y7.6085
X2.2392Y7.6141
X2.2336Y7.6197
X2.2281Y7.6252
X2.2225Y7.6308
X2.2169Y7.6364
X2.2114Y7.6419
X2.2058Y7.6475
X2.2002Y7.6531
X2.1947Y7.6586
X2.1891Y7.6642
X2.1835Y7.6698
X2.178Y7.6753
X2.1724Y7.6809
X2.1668Y7.6865
X2.1613Y7.692
X2.1557Y7.6976
X2.1501Y7.7032
X2.1446Y7.7088
X2.139Y7.7143
X2.1347Y7.7186
G0Z0.2
X3.3682Y6.4851
G1Z-0.3125F19.68
X3.3626Y6.4907F39.37
X3.3571Y6.4963
X3.3515Y6.5018
X3.3459Y6.5074
X3.3404Y6.513
X3.3348Y6.5186
X3.3292Y6.5241
X3.3237Y6.5297
X3.3181Y6.5353
X3.3125Y6.5408
X3.307Y6.5464
X3.3014Y6.552
X3.2958Y6.5575
X3.2903Y6.5631
X3.2847Y6.5687
X3.2791Y6.5742
X3.2736Y6.5798
X3.268Y6.5854
X3.2624Y6.5909
X3.2568Y6.5965
X3.2513Y6.6021
X3.2457Y6.6076
X3.2401Y6.6132
X3.2346Y6.6188
X3.229Y6.6243
X3.2234Y6.6299
X3.2179Y6.6355
X3.2123Y6.641
X3.2067Y6.6466
X3.2012Y6.6522
X3.1956Y6.6577
X3.19Y6.6633
X3.1845Y6.6689
X3.1789Y6.6744
X3.1733Y6.68
X3.1678Y6.6856
X3.1622Y6.6912
X3.1566Y6.6967
X3.1511Y6.7023
X3.1455Y6.7079
X3.1399Y6.7134
X3.1344Y6.719
X3.1288Y6.7246
X3.1232Y6.7301
X3.1177Y6.7357
X3.1121Y6.7413
X3.1065Y6.7468
X3.1009Y6.7524
X3.0954Y6.758
X3.0898Y6.7635
X3.0842Y6.7691
X3.0787Y6.7747
X3.0731Y6.7802
X3.0675Y6.7858
X3.062Y6.7914
X3.0564Y6.7969
X3.0508Y6.8025
X3.0453Y6.8081
X3.0397Y6.8136
X3.0341Y6.8192
X3.0286Y6.8248
X3.023Y6.8303
X3.0174Y6.8359
X3.0119Y6.8415
X3.0063Y6.847
X3.0007Y6.8526
X2.9952Y6.8582
X2.9896Y6.8637
X2.984Y6.8693
X2.9785Y6.8749
X2.9729Y6.8805
X2.9673Y6.886
X2.9617Y6.8916
X2.9562Y6.8972
X2.9506Y6.9027
X2.945Y6.9083
X2.9395Y6.9139
X2.9339Y6.9194
X2.9283Y6.925
X2.9228Y6.9306
X2.9172Y6.9361
X2.9116Y6.9417
X2.9061Y6.9473
X2.9005Y6.9528
X2.8949Y6.9584
X2.8894Y6.964
X2.8838Y6.9695
X2.8782Y6.9751
X2.8727Y6.9807
X2.8671Y6.9862
X2.8615Y6.9918
X2.856Y6.9974
X2.8504Y7.0029
X2.8448Y7.0085
X2.8393Y7.0141
X2.8337Y7.0196
X2.8281Y7.0252
X2.8226Y7.0308
X2.817Y7.0363
X2.8114Y7.0419
X2.8058Y7.0475
X2.8003Y7.053
X2.7947Y7.0586
X2.7891Y7.0642
X2.7836Y7.0698
X2.778Y7.0753
X2.7724Y7.0809
X2.7669Y7.0865
X2.7613Y7.092
X2.7557Y7.0976
X2.7515Y7.1019
X2.7459Y7.1074
X2.7403Y7.113
X2.7348Y7.1186
X2.7292Y7.1241
X2.7236Y7.1297
X2.718Y7.1353
X2.7125Y7.1408
X2.7069Y7.1464
X2.7013Y7.152
X2.6958Y7.1576
X2.6902Y7.1631
X2.6846Y7.1687
X2.6791Y7.1743
X2.6735Y7.1798
X2.6679Y7.1854
X2.6624Y7.191
X2.6568Y7.1965
X2.6512Y7.2021
X2.6457Y7.2077
X2.6401Y7.2132
X2.6345Y7.2188
X2.629Y7.2244
X2.6234Y7.2299
X2.6178Y7.2355
X2.6123Y7.2411
X2.6067Y7.2466
X2.6011Y7.2522
X2.5956Y7.2578
X2.59Y7.2633
X2.5844Y7.2689
X2.5788Y7.2745
X2.5733Y7.28
X2.5677Y7.2856
X2.5621Y7.2912
X2.5566Y7.2967
X2.551Y7.3023
X2.5454Y7.3079
X2.5399Y7.3134
X2.5343Y7.319
X2.5287Y7.3246
X2.5232Y7.3301
X2.5176Y7.3357
X2.512Y7.3413
X2.5065Y7.3469
X2.5009Y7.3524
X2.4953Y7.358
X2.4898Y7.3636
X2.4842Y7.3691
X2.4786Y7.3747
X2.4731Y7.3803
X2.4675Y7.3858
X2.4619Y7.3914
X2.4564Y7.397
X2.4508Y7.4025
X2.4452Y7.4081
X2.4397Y7.4137
X2.4341Y7.4192
X2.4285Y7.4248
X2.4229Y7.4304
X2.4174Y7.4359
X2.4118Y7.4415
X2.4062Y7.4471
X2.4007Y7.4526
X2.3951Y7.4582
X2.3895Y7.4638
X2.384Y7.4693
X2.3784Y7.4749
X2.3728Y7.4805
X2.3673Y7.486
X2.3617Y7.4916
X2.3561Y7.4972
X2.3506Y7.5027
X2.345Y7.5083
X2.3394Y7.5139
X2.3339Y7.5194
X2.3283Y7.525
X2.3227Y7.5306
X2.3172Y7.5362
X2.3116Y7.5417
X2.306Y7.5473
X2.3005Y7.5529
X2.2949Y7.5584
X2.2893Y7.564
X2.2838Y7.5696
X2.2782Y7.5751
X2.2726Y7.5807
X2.267Y7.5863
X2.2615Y7.5918
X2.2559Y7.5974
X2.2503Y7.603
X2.2448Y7.6085
X2.2392Y7.6141
X2.2336Y7.6197
X2.2281Y7.6252
X2.2225Y7.6308
X2.2169Y7.6364
X2.2114Y7.6419
X2.2058Y7.6475
X2.2002Y7.6531
X2.1947Y7.6586
X2.1891Y7.6642
X2.1835Y7.6698
X2.178Y7.6753
X2.1724Y7.6809
X2.1668Y7.6865
X2.1613Y7.692
X2.1557Y7.6976
X2.1501Y7.7032
X2.1446Y7.7088
X2.139Y7.7143
X2.1347Y7.7186
G0Z0.2
X4.6682Y6.4851
G1Z-0.0624F19.68
X4.6626Y6.4907F39.37
X4.6571Y6.4963
X4.6515Y6.5018
X4.6459Y6.5074
X4.6404Y6.513
X4.6348Y6.5186
X4.6292Y6.5241
X4.6237Y6.5297
X4.6181Y6.5353
X4.6125Y6.5408
X4.607Y6.5464
X4.6014Y6.552
X4.5958Y6.5575
X4.5903Y6.5631
X4.5847Y6.5687
X4.5791Y6.5742
X4.5736Y6.5798
X4.568Y6.5854
X4.5624Y6.5909
X4.5568Y6.5965
X4.5513Y6.6021
X4.5457Y6.6076
X4.5401Y6.6132
X4.5346Y6.6188
X4.529Y6.6243
X4.5234Y6.6299
X4.5179Y6.6355
X4.5123Y6.641
X4.5067Y6.6466
X4.5012Y6.6522
X4.4956Y6.6577
X4.49Y6.6633
X4.4845Y6.6689
X4.4789Y6.6744
X4.4733Y6.68
X4.4678Y6.6856
X4.4622Y6.6912
X4.4566Y6.6967
X4.4511Y6.7023
X4.4455Y6.7079
X4.4399Y6.7134
X4.4344Y6.719
X4.4288Y6.7246
X4.4232Y6.7301
X4.4177Y6.7357
X4.4121Y6.7413
X4.4065Y6.7468
X4.4009Y6.7524
X4.3954Y6.758
X4.3898Y6.7635
X4.3842Y6.7691
X4.3787Y6.7747
X4.3731Y6.7802
X4.3675Y6.7858
X4.362Y6.7914
X4.3564Y6.7969
X4.3508Y6.8025
X4.3453Y6.8081
X4.3397Y6.8136
X4.3341Y6.8192
X4.3286Y6.8248
X4.323Y6.8303
X4.3174Y6.8359
X4.3119Y6.8415
X4.3063Y6.847
X4.3007Y6.8526
X4.2952Y6.8582
X4.2896Y6.8637
X4.284Y6.8693
X4.2785Y6.8749
X4.2729Y6.8805
X4.2673Y6.886
X4.2617Y6.8916
X4.2562Y6.8972
X4.2506Y6.9027
X4.245Y6.9083
X4.2395Y6.9139
X4.2339Y6.9194
X4.2283Y6.925
X4.2228Y6.9306
X4.2172Y6.9361
X4.2116Y6.9417
X4.2061Y6.9473
X4.2005Y6.9528
X4.1949Y6.9584
X4.1894Y6.964
X4.1838Y6.9695
X4.1782Y6.9751
X4.1727Y6.9807
X4.1671Y6.9862
X4.1615Y6.9918
X4.156Y6.9974
X4.1504Y7.0029
X4.1448Y7.0085
X4.1393Y7.0141
X4.1337Y7.0196
X4.1281Y7.0252
X4.1226Y7.0308
X4.117Y7.0363
X4.1114Y7.0419
X4.1058Y7.0475
X4.1003Y7.053
X4.0947Y7.0586
X4.0891Y7.0642
X4.0836Y7.0698
X4.078Y7.0753
X4.0724Y7.0809
X4.0669Y7.0865
X4.0613Y7.092
X4.0557Y7.0976
X4.0515Y7.1019
X4.0459Y7.1074
X4.0403Y7.113
X4.0347Y7.1186
X4.0292Y7.1241
X4.0236Y7.1297
X4.018Y7.1353
X4.0125Y7.1408
X4.0069Y7.1464
X4.0013Y7.152
X3.9958Y7.1576
X3.9902Y7.1631
X3.9846Y7.1687
X3.9791Y7.1743
X3.9735Y7.1798
X3.9679Y7.1854
X3.9624Y7.191
X3.9568Y7.1965
X3.9512Y7.2021
X3.9457Y7.2077
X3.9401Y7.2132
X3.9345Y7.2188
X3.929Y7.2244
X3.9234Y7.2299
X3.9178Y7.2355
X3.9123Y7.2411
X3.9067Y7.2466
X3.9011Y7.2522
X3.8956Y7.2578
X3.89Y7.2633
X3.8844Y7.2689
X3.8788Y7.2745
X3.8733Y7.28
X3.8677Y7.2856
X3.8621Y7.2912
