(Created with grbl post processor 2026/05/25 15:41)
G20
(G-code Generated with Fabex and NC library)
(Rapids: 196.85/min)
G17G90
(Tool: D = 0.1181''  type END flutes 2)
S15000M03
G00 Z0.2 F196.85

G0X0Y0Z0.2
X-0.0624Y8.0248
G1Z-0.0624F19.68
Y1.375F39.37
X-0.2811
Y7.5739
G0Z0.2
X0.0625Y8.0248
G1Z-0.0624F19.68
Y1.25F39.37
X-0.4061
Y7.5739
G0Z0.2
X0.1875Y8.0248
G1Z-0.0624F19.68
Y1.125F39.37
X-0.5311
Y7.0685
G0Z0.2
X-0.0624Y8.0248
G1Z-0.125F19.68
Y1.375F39.37
X-0.2811
Y7.5739
G0Z0.2
X0.0625Y8.0248
G1Z-0.125F19.68
Y1.25F39.37
X-0.4061
Y7.5739
G0Z0.2
X0.1875Y8.0248
G1Z-0.125F19.68
Y1.125F39.37
X-0.5311
Y7.0685
G0Z0.2
X-0.0624Y8.0248
G1Z-0.1874F19.68
Y1.375F39.37
X-0.2811
Y7.5739
G0Z0.2
X0.0625Y8.0248
G1Z-0.1874F19.68
Y1.25F39.37
X-0.4061
Y7.5739
G0Z0.2
X0.1875Y8.0248
G1Z-0.1874F19.68
Y1.125F39.37
X-0.5311
Y7.0685
G0Z0.2
X-0.0624Y8.0248
G1Z-0.25F19.68
Y1.375F39.37
X-0.2811
Y7.5739
G0Z0.2
X0.0625Y8.0248
G1Z-0.25F19.68
Y1.25F39.37
X-0.4061
Y7.5739
G0Z0.2
X0.1875Y8.0248
G1Z-0.25F19.68
Y1.125F39.37
X-0.5311
Y7.0685
G0Z0.2
 
