(Created with grbl post processor 2026/05/25 18:35)
G20
(G-code Generated with Fabex and NC library)
(Rapids: 196.85/min)
G17G90
(Tool: D = 0.125''  type END flutes 2)
S15000M03
G00 Z0.2 F196.85

G0X0Y0Z0.2
X-0.1876Y2
G1Z-0.3125F19.68
G0Z0.2
X0.5312
G1Z-0.3125
G0Z0.2
Y4.1875
G1Z-0.3125
G0Z0.2
X-0.1876
G1Z-0.3125
G0Z0.2
X0.5312Y6.1562
G1Z-0.3125
Z-0.3046F39.37
Z-0.2967
Z-0.2888
Z-0.281
Z-0.2731
Z-0.2652
Z-0.2573
Z-0.2495
Z-0.2416
Z-0.2337
Z-0.2258
Z-0.218
Z-0.2101
Z-0.2022
Z-0.1943
Z-0.1865
Z-0.1786
Z-0.1707
Z-0.1628
Z-0.1562
Z-0.1483
Z-0.1405
Z-0.1326
Z-0.1247
Z-0.1168
Z-0.109
Z-0.1011
Z-0.0932
Z-0.0853
Z-0.0775
Z-0.0696
Z-0.0617
Z-0.0538
Z-0.046
Z-0.0381
Z-0.0302
Z-0.0223
Z-0.0145
Z-0.0066
Z0
G0Z0.2
X-0.1876Y6.375
G1Z-0.3125F19.68
G0Z0.2
X1.1124Y2
G1Z-0.3125
G0Z0.2
X1.8312
G1Z-0.3125
G0Z0.2
Y4.1875
G1Z-0.3125
G0Z0.2
X1.1124
G1Z-0.3125
G0Z0.2
X1.8312Y6.1562
G1Z-0.3125
Z-0.3046F39.37
Z-0.2967
Z-0.2888
Z-0.281
Z-0.2731
Z-0.2652
Z-0.2573
Z-0.2495
Z-0.2416
Z-0.2337
Z-0.2258
Z-0.218
Z-0.2101
Z-0.2022
Z-0.1943
Z-0.1865
Z-0.1786
Z-0.1707
Z-0.1628
Z-0.1562
Z-0.1483
Z-0.1405
Z-0.1326
Z-0.1247
Z-0.1168
Z-0.109
Z-0.1011
Z-0.0932
Z-0.0853
Z-0.0775
Z-0.0696
Z-0.0617
Z-0.0538
Z-0.046
Z-0.0381
Z-0.0302
Z-0.0223
Z-0.0145
Z-0.0066
Z0
G0Z0.2
X1.1124Y6.375
G1Z-0.3125F19.68
G0Z0.2
X2.4124Y2
G1Z-0.3125
G0Z0.2
X3.1312
G1Z-0.3125
G0Z0.2
Y4.1875
G1Z-0.3125
G0Z0.2
X2.4124
G1Z-0.3125
G0Z0.2
X3.1312Y6.1562
G1Z-0.3125
Z-0.3046F39.37
Z-0.2967
Z-0.2888
Z-0.281
Z-0.2731
Z-0.2652
Z-0.2573
Z-0.2495
Z-0.2416
Z-0.2337
Z-0.2258
Z-0.218
Z-0.2101
Z-0.2022
Z-0.1943
Z-0.1865
Z-0.1786
Z-0.1707
Z-0.1628
Z-0.1562
Z-0.1483
Z-0.1405
Z-0.1326
Z-0.1247
Z-0.1168
Z-0.109
Z-0.1011
Z-0.0932
Z-0.0853
Z-0.0775
Z-0.0696
Z-0.0617
Z-0.0538
Z-0.046
Z-0.0381
Z-0.0302
Z-0.0223
Z-0.0145
Z-0.0066
Z0
G0Z0.2
X2.4124Y6.375
G1Z-0.3125F19.68
G0Z0.2
X3.7124Y2
G1Z-0.3125
G0Z0.2
X4.4312
G1Z-0.3125
G0Z0.2
Y4.1875
G1Z-0.3125
G0Z0.2
X3.7124
G1Z-0.3125
G0Z0.2
X4.4312Y6.1562
G1Z-0.3125
Z-0.3046F39.37
Z-0.2967
Z-0.2888
Z-0.281
Z-0.2731
Z-0.2652
Z-0.2573
Z-0.2495
Z-0.2416
Z-0.2337
Z-0.2258
Z-0.218
Z-0.2101
Z-0.2022
Z-0.1943
Z-0.1865
Z-0.1786
Z-0.1707
Z-0.1628
Z-0.1562
Z-0.1483
Z-0.1405
Z-0.1326
Z-0.1247
Z-0.1168
Z-0.109
Z-0.1011
Z-0.0932
Z-0.0853
Z-0.0775
Z-0.0696
Z-0.0617
Z-0.0538
Z-0.046
Z-0.0381
Z-0.0302
Z-0.0223
Z-0.0145
Z-0.0066
Z0
G0Z0.2
X3.7124Y6.375
G1Z-0.3125F19.68
G0Z0.2
 
