(Created with grbl post processor 2026/05/25 15:41)
G20
(G-code Generated with Fabex and NC library)
(Rapids: 196.85/min)
G17G90
(Tool: D = 0.125''  type END flutes 2)
S15000M03
G00 Z0.2 F196.85

G0X0Y0Z0.2
X-0.1875Y0.9375
G1Z-0.0624F19.68
X0.5311F39.37
X0.5352Y0.9376
X0.5515Y0.9387
X0.5596Y0.9398
X0.5757Y0.9429
X0.5836Y0.9451
X0.5991Y0.9503
X0.6066Y0.9535
X0.6213Y0.9607
X0.6283Y0.9648
X0.6419Y0.9739
X0.6484Y0.9788
X0.6607Y0.9896
X0.6665Y0.9954
X0.6773Y1.0077
X0.6823Y1.0142
X0.6913Y1.0278
X0.6954Y1.0348
X0.7027Y1.0495
X0.7058Y1.0571
X0.711Y1.0725
X0.7132Y1.0804
X0.7164Y1.0965
X0.7174Y1.1046
X0.7185Y1.1209
X0.7186Y1.125
Y6.9908
X0.7185Y6.9948
X0.7174Y7.0112
X0.7164Y7.0193
X0.7132Y7.0353
X0.711Y7.0432
X0.7058Y7.0587
X0.7027Y7.0662
X0.6954Y7.0809
X0.6913Y7.088
X0.6823Y7.1016
X0.6773Y7.1081
X0.6665Y7.1204
X0.6637Y7.1233
X-0.0549Y7.842
X-0.0579Y7.8448
X-0.0702Y7.8556
X-0.0767Y7.8606
X-0.0903Y7.8697
X-0.0974Y7.8738
X-0.112Y7.881
X-0.1196Y7.8841
X-0.1351Y7.8894
X-0.143Y7.8915
X-0.159Y7.8947
X-0.1671Y7.8958
X-0.1834Y7.8968
X-0.1916
X-0.2079Y7.8958
X-0.216Y7.8947
X-0.232Y7.8915
X-0.2399Y7.8894
X-0.2554Y7.8841
X-0.263Y7.881
X-0.2776Y7.8738
X-0.2847Y7.8697
X-0.2983Y7.8606
X-0.3048Y7.8556
X-0.3171Y7.8448
X-0.3229Y7.8391
X-0.3337Y7.8268
X-0.3386Y7.8203
X-0.3477Y7.8067
X-0.3518Y7.7996
X-0.359Y7.7849
X-0.3622Y7.7774
X-0.3674Y7.7619
X-0.3695Y7.754
X-0.3727Y7.738
X-0.3738Y7.7299
X-0.3749Y7.7135
X-0.375Y7.7095
Y1.125
X-0.3749Y1.1209
X-0.3738Y1.1046
X-0.3727Y1.0965
X-0.3695Y1.0804
X-0.3674Y1.0725
X-0.3622Y1.0571
X-0.359Y1.0495
X-0.3518Y1.0348
X-0.3477Y1.0278
X-0.3386Y1.0142
X-0.3337Y1.0077
X-0.3229Y0.9954
X-0.3171Y0.9896
X-0.3048Y0.9788
X-0.2983Y0.9739
X-0.2847Y0.9648
X-0.2776Y0.9607
X-0.263Y0.9535
X-0.2554Y0.9503
X-0.2399Y0.9451
X-0.232Y0.9429
X-0.216Y0.9398
X-0.2079Y0.9387
X-0.1916Y0.9376
X-0.1875Y0.9375
Z-0.125F19.68
X0.5311F39.37
X0.5352Y0.9376
X0.5515Y0.9387
X0.5596Y0.9398
X0.5757Y0.9429
X0.5836Y0.9451
X0.5991Y0.9503
X0.6066Y0.9535
X0.6213Y0.9607
X0.6283Y0.9648
X0.6419Y0.9739
X0.6484Y0.9788
X0.6607Y0.9896
X0.6665Y0.9954
X0.6773Y1.0077
X0.6823Y1.0142
X0.6913Y1.0278
X0.6954Y1.0348
X0.7027Y1.0495
X0.7058Y1.0571
X0.711Y1.0725
X0.7132Y1.0804
X0.7164Y1.0965
X0.7174Y1.1046
X0.7185Y1.1209
X0.7186Y1.125
Y6.9908
X0.7185Y6.9948
X0.7174Y7.0112
X0.7164Y7.0193
X0.7132Y7.0353
X0.711Y7.0432
X0.7058Y7.0587
X0.7027Y7.0662
X0.6954Y7.0809
X0.6913Y7.088
X0.6823Y7.1016
X0.6773Y7.1081
X0.6665Y7.1204
X0.6637Y7.1233
X-0.0549Y7.842
X-0.0579Y7.8448
X-0.0702Y7.8556
X-0.0767Y7.8606
X-0.0903Y7.8697
X-0.0974Y7.8738
X-0.112Y7.881
X-0.1196Y7.8841
X-0.1351Y7.8894
X-0.143Y7.8915
X-0.159Y7.8947
X-0.1671Y7.8958
X-0.1834Y7.8968
X-0.1916
X-0.2079Y7.8958
X-0.216Y7.8947
X-0.232Y7.8915
X-0.2399Y7.8894
X-0.2554Y7.8841
X-0.263Y7.881
X-0.2776Y7.8738
X-0.2847Y7.8697
X-0.2983Y7.8606
X-0.3048Y7.8556
X-0.3171Y7.8448
X-0.3229Y7.8391
X-0.3337Y7.8268
X-0.3386Y7.8203
X-0.3477Y7.8067
X-0.3518Y7.7996
X-0.359Y7.7849
X-0.3622Y7.7774
X-0.3674Y7.7619
X-0.3695Y7.754
X-0.3727Y7.738
X-0.3738Y7.7299
X-0.3749Y7.7135
X-0.375Y7.7095
Y1.125
X-0.3749Y1.1209
X-0.3738Y1.1046
X-0.3727Y1.0965
X-0.3695Y1.0804
X-0.3674Y1.0725
X-0.3622Y1.0571
X-0.359Y1.0495
X-0.3518Y1.0348
X-0.3477Y1.0278
X-0.3386Y1.0142
X-0.3337Y1.0077
X-0.3229Y0.9954
X-0.3171Y0.9896
X-0.3048Y0.9788
X-0.2983Y0.9739
X-0.2847Y0.9648
X-0.2776Y0.9607
X-0.263Y0.9535
X-0.2554Y0.9503
X-0.2399Y0.9451
X-0.232Y0.9429
X-0.216Y0.9398
X-0.2079Y0.9387
X-0.1916Y0.9376
X-0.1875Y0.9375
Z-0.1874F19.68
X0.5311F39.37
X0.5352Y0.9376
X0.5515Y0.9387
X0.5596Y0.9398
X0.5757Y0.9429
X0.5836Y0.9451
X0.5991Y0.9503
X0.6066Y0.9535
X0.6213Y0.9607
X0.6283Y0.9648
X0.6419Y0.9739
X0.6484Y0.9788
X0.6607Y0.9896
X0.6665Y0.9954
X0.6773Y1.0077
X0.6823Y1.0142
X0.6913Y1.0278
X0.6954Y1.0348
X0.7027Y1.0495
X0.7058Y1.0571
X0.711Y1.0725
X0.7132Y1.0804
X0.7164Y1.0965
X0.7174Y1.1046
X0.7185Y1.1209
X0.7186Y1.125
Y6.9908
X0.7185Y6.9948
X0.7174Y7.0112
X0.7164Y7.0193
X0.7132Y7.0353
X0.711Y7.0432
X0.7058Y7.0587
X0.7027Y7.0662
X0.6954Y7.0809
X0.6913Y7.088
X0.6823Y7.1016
X0.6773Y7.1081
X0.6665Y7.1204
X0.6637Y7.1233
X-0.0549Y7.842
X-0.0579Y7.8448
X-0.0702Y7.8556
X-0.0767Y7.8606
X-0.0903Y7.8697
X-0.0974Y7.8738
X-0.112Y7.881
X-0.1196Y7.8841
X-0.1351Y7.8894
X-0.143Y7.8915
X-0.159Y7.8947
X-0.1671Y7.8958
X-0.1834Y7.8968
X-0.1916
X-0.2079Y7.8958
X-0.216Y7.8947
X-0.232Y7.8915
X-0.2399Y7.8894
X-0.2554Y7.8841
X-0.263Y7.881
X-0.2776Y7.8738
X-0.2847Y7.8697
X-0.2983Y7.8606
X-0.3048Y7.8556
X-0.3171Y7.8448
X-0.3229Y7.8391
X-0.3337Y7.8268
X-0.3386Y7.8203
X-0.3477Y7.8067
X-0.3518Y7.7996
X-0.359Y7.7849
X-0.3622Y7.7774
X-0.3674Y7.7619
X-0.3695Y7.754
X-0.3727Y7.738
X-0.3738Y7.7299
X-0.3749Y7.7135
X-0.375Y7.7095
Y1.125
X-0.3749Y1.1209
X-0.3738Y1.1046
X-0.3727Y1.0965
X-0.3695Y1.0804
X-0.3674Y1.0725
X-0.3622Y1.0571
X-0.359Y1.0495
X-0.3518Y1.0348
X-0.3477Y1.0278
X-0.3386Y1.0142
X-0.3337Y1.0077
X-0.3229Y0.9954
X-0.3171Y0.9896
X-0.3048Y0.9788
X-0.2983Y0.9739
X-0.2847Y0.9648
X-0.2776Y0.9607
X-0.263Y0.9535
X-0.2554Y0.9503
X-0.2399Y0.9451
X-0.232Y0.9429
X-0.216Y0.9398
X-0.2079Y0.9387
X-0.1916Y0.9376
X-0.1875Y0.9375
Z-0.25F19.68
X0.5311F39.37
X0.5352Y0.9376
X0.5515Y0.9387
X0.5596Y0.9398
X0.5757Y0.9429
X0.5836Y0.9451
X0.5991Y0.9503
X0.6066Y0.9535
X0.6213Y0.9607
X0.6283Y0.9648
X0.6419Y0.9739
X0.6484Y0.9788
X0.6607Y0.9896
X0.6665Y0.9954
X0.6773Y1.0077
X0.6823Y1.0142
X0.6913Y1.0278
X0.6954Y1.0348
X0.7027Y1.0495
X0.7058Y1.0571
X0.711Y1.0725
X0.7132Y1.0804
X0.7164Y1.0965
X0.7174Y1.1046
X0.7185Y1.1209
X0.7186Y1.125
Y6.9908
X0.7185Y6.9948
X0.7174Y7.0112
X0.7164Y7.0193
X0.7132Y7.0353
X0.711Y7.0432
X0.7058Y7.0587
X0.7027Y7.0662
X0.6954Y7.0809
X0.6913Y7.088
X0.6823Y7.1016
X0.6773Y7.1081
X0.6665Y7.1204
X0.6637Y7.1233
X-0.0549Y7.842
X-0.0579Y7.8448
X-0.0702Y7.8556
X-0.0767Y7.8606
X-0.0903Y7.8697
X-0.0974Y7.8738
X-0.112Y7.881
X-0.1196Y7.8841
X-0.1351Y7.8894
X-0.143Y7.8915
X-0.159Y7.8947
X-0.1671Y7.8958
X-0.1834Y7.8968
X-0.1916
X-0.2079Y7.8958
X-0.216Y7.8947
X-0.232Y7.8915
X-0.2399Y7.8894
X-0.2554Y7.8841
X-0.263Y7.881
X-0.2776Y7.8738
X-0.2847Y7.8697
X-0.2983Y7.8606
X-0.3048Y7.8556
X-0.3171Y7.8448
X-0.3229Y7.8391
X-0.3337Y7.8268
X-0.3386Y7.8203
X-0.3477Y7.8067
X-0.3518Y7.7996
X-0.359Y7.7849
X-0.3622Y7.7774
X-0.3674Y7.7619
X-0.3695Y7.754
X-0.3727Y7.738
X-0.3738Y7.7299
X-0.3749Y7.7135
X-0.375Y7.7095
Y1.125
X-0.3749Y1.1209
X-0.3738Y1.1046
X-0.3727Y1.0965
X-0.3695Y1.0804
X-0.3674Y1.0725
X-0.3622Y1.0571
X-0.359Y1.0495
X-0.3518Y1.0348
X-0.3477Y1.0278
X-0.3386Y1.0142
X-0.3337Y1.0077
X-0.3229Y0.9954
X-0.3171Y0.9896
X-0.3048Y0.9788
X-0.2983Y0.9739
X-0.2847Y0.9648
X-0.2776Y0.9607
X-0.263Y0.9535
X-0.2554Y0.9503
X-0.2399Y0.9451
X-0.232Y0.9429
X-0.216Y0.9398
X-0.2079Y0.9387
X-0.1916Y0.9376
X-0.1875Y0.9375
Z-0.3124F19.68
X0.5311F39.37
X0.5352Y0.9376
X0.5515Y0.9387
X0.5596Y0.9398
X0.5757Y0.9429
X0.5836Y0.9451
X0.5991Y0.9503
X0.6066Y0.9535
X0.6213Y0.9607
X0.6283Y0.9648
X0.6419Y0.9739
X0.6484Y0.9788
X0.6607Y0.9896
X0.6665Y0.9954
X0.6773Y1.0077
X0.6823Y1.0142
X0.6913Y1.0278
X0.6954Y1.0348
X0.7027Y1.0495
X0.7058Y1.0571
X0.711Y1.0725
X0.7132Y1.0804
X0.7164Y1.0965
X0.7174Y1.1046
X0.7185Y1.1209
X0.7186Y1.125
Y6.9908
X0.7185Y6.9948
X0.7174Y7.0112
X0.7164Y7.0193
X0.7132Y7.0353
X0.711Y7.0432
X0.7058Y7.0587
X0.7027Y7.0662
X0.6954Y7.0809
X0.6913Y7.088
X0.6823Y7.1016
X0.6773Y7.1081
X0.6665Y7.1204
X0.6637Y7.1233
X-0.0549Y7.842
X-0.0579Y7.8448
X-0.0702Y7.8556
X-0.0767Y7.8606
X-0.0903Y7.8697
X-0.0974Y7.8738
X-0.112Y7.881
X-0.1196Y7.8841
X-0.1351Y7.8894
X-0.143Y7.8915
X-0.159Y7.8947
X-0.1671Y7.8958
X-0.1834Y7.8968
X-0.1916
X-0.2079Y7.8958
X-0.216Y7.8947
X-0.232Y7.8915
X-0.2399Y7.8894
X-0.2554Y7.8841
X-0.263Y7.881
X-0.2776Y7.8738
X-0.2847Y7.8697
X-0.2983Y7.8606
X-0.3048Y7.8556
X-0.3171Y7.8448
X-0.3229Y7.8391
X-0.3337Y7.8268
X-0.3386Y7.8203
X-0.3477Y7.8067
X-0.3518Y7.7996
X-0.359Y7.7849
X-0.3622Y7.7774
X-0.3674Y7.7619
X-0.3695Y7.754
X-0.3727Y7.738
X-0.3738Y7.7299
X-0.3749Y7.7135
X-0.375Y7.7095
Y1.125
X-0.3749Y1.1209
X-0.3738Y1.1046
X-0.3727Y1.0965
X-0.3695Y1.0804
X-0.3674Y1.0725
X-0.3622Y1.0571
X-0.359Y1.0495
X-0.3518Y1.0348
X-0.3477Y1.0278
X-0.3386Y1.0142
X-0.3337Y1.0077
X-0.3229Y0.9954
X-0.3171Y0.9896
X-0.3048Y0.9788
X-0.2983Y0.9739
X-0.2847Y0.9648
X-0.2776Y0.9607
X-0.263Y0.9535
X-0.2554Y0.9503
X-0.2399Y0.9451
X-0.232Y0.9429
X-0.216Y0.9398
X-0.2079Y0.9387
X-0.1916Y0.9376
X-0.1875Y0.9375
Z-0.3125F19.68
X0.5311F39.37
X0.5352Y0.9376
X0.5515Y0.9387
X0.5596Y0.9398
X0.5757Y0.9429
X0.5836Y0.9451
X0.5991Y0.9503
X0.6066Y0.9535
X0.6213Y0.9607
X0.6283Y0.9648
X0.6419Y0.9739
X0.6484Y0.9788
X0.6607Y0.9896
X0.6665Y0.9954
X0.6773Y1.0077
X0.6823Y1.0142
X0.6913Y1.0278
X0.6954Y1.0348
X0.7027Y1.0495
X0.7058Y1.0571
X0.711Y1.0725
X0.7132Y1.0804
X0.7164Y1.0965
X0.7174Y1.1046
X0.7185Y1.1209
X0.7186Y1.125
Y6.9908
X0.7185Y6.9948
X0.7174Y7.0112
X0.7164Y7.0193
X0.7132Y7.0353
X0.711Y7.0432
X0.7058Y7.0587
X0.7027Y7.0662
X0.6954Y7.0809
X0.6913Y7.088
X0.6823Y7.1016
X0.6773Y7.1081
X0.6665Y7.1204
X0.6637Y7.1233
X-0.0549Y7.842
X-0.0579Y7.8448
X-0.0702Y7.8556
X-0.0767Y7.8606
X-0.0903Y7.8697
X-0.0974Y7.8738
X-0.112Y7.881
X-0.1196Y7.8841
X-0.1351Y7.8894
X-0.143Y7.8915
X-0.159Y7.8947
X-0.1671Y7.8958
X-0.1834Y7.8968
X-0.1916
X-0.2079Y7.8958
X-0.216Y7.8947
X-0.232Y7.8915
X-0.2399Y7.8894
X-0.2554Y7.8841
X-0.263Y7.881
X-0.2776Y7.8738
X-0.2847Y7.8697
X-0.2983Y7.8606
X-0.3048Y7.8556
X-0.3171Y7.8448
X-0.3229Y7.8391
X-0.3337Y7.8268
X-0.3386Y7.8203
X-0.3477Y7.8067
X-0.3518Y7.7996
X-0.359Y7.7849
X-0.3622Y7.7774
X-0.3674Y7.7619
X-0.3695Y7.754
X-0.3727Y7.738
X-0.3738Y7.7299
X-0.3749Y7.7135
X-0.375Y7.7095
Y1.125
X-0.3749Y1.1209
X-0.3738Y1.1046
X-0.3727Y1.0965
X-0.3695Y1.0804
X-0.3674Y1.0725
X-0.3622Y1.0571
X-0.359Y1.0495
X-0.3518Y1.0348
X-0.3477Y1.0278
X-0.3386Y1.0142
X-0.3337Y1.0077
X-0.3229Y0.9954
X-0.3171Y0.9896
X-0.3048Y0.9788
X-0.2983Y0.9739
X-0.2847Y0.9648
X-0.2776Y0.9607
X-0.263Y0.9535
X-0.2554Y0.9503
X-0.2399Y0.9451
X-0.232Y0.9429
X-0.216Y0.9398
X-0.2079Y0.9387
X-0.1916Y0.9376
X-0.1875Y0.9375
G0Z0.2
X1.1124
G1Z-0.0624F19.68
X1.8311F39.37
X1.8352Y0.9376
X1.8515Y0.9387
X1.8596Y0.9398
X1.8757Y0.9429
X1.8836Y0.9451
X1.8991Y0.9503
X1.9066Y0.9535
X1.9213Y0.9607
X1.9283Y0.9648
X1.9419Y0.9739
X1.9484Y0.9788
X1.9607Y0.9896
X1.9665Y0.9954
X1.9773Y1.0077
X1.9823Y1.0142
X1.9913Y1.0278
X1.9954Y1.0348
X2.0027Y1.0495
X2.0058Y1.0571
X2.011Y1.0725
X2.0132Y1.0804
X2.0164Y1.0965
X2.0174Y1.1046
X2.0185Y1.1209
X2.0186Y1.125
Y6.9908
X2.0185Y6.9948
X2.0174Y7.0112
X2.0164Y7.0193
X2.0132Y7.0353
X2.011Y7.0432
X2.0058Y7.0587
X2.0027Y7.0662
X1.9954Y7.0809
X1.9913Y7.088
X1.9823Y7.1016
X1.9773Y7.1081
X1.9665Y7.1204
X1.9637Y7.1233
X1.245Y7.842
X1.242Y7.8448
X1.2297Y7.8556
X1.2232Y7.8606
X1.2096Y7.8697
X1.2025Y7.8738
X1.1879Y7.881
X1.1803Y7.8841
X1.1648Y7.8894
X1.1569Y7.8915
X1.1409Y7.8947
X1.1328Y7.8958
X1.1165Y7.8968
X1.1083
X1.092Y7.8958
X1.0839Y7.8947
X1.0679Y7.8915
X1.06Y7.8894
X1.0445Y7.8841
X1.0369Y7.881
X1.0223Y7.8738
X1.0152Y7.8697
X1.0016Y7.8606
X0.9951Y7.8556
X0.9828Y7.8448
X0.977Y7.8391
X0.9662Y7.8268
X0.9613Y7.8203
X0.9522Y7.8067
X0.9481Y7.7996
X0.9409Y7.7849
X0.9377Y7.7774
X0.9325Y7.7619
X0.9304Y7.754
X0.9272Y7.738
X0.9261Y7.7299
X0.925Y7.7135
X0.9249Y7.7095
Y1.125
X0.925Y1.1209
X0.9261Y1.1046
X0.9272Y1.0965
X0.9304Y1.0804
X0.9325Y1.0725
X0.9377Y1.0571
X0.9409Y1.0495
X0.9481Y1.0348
X0.9522Y1.0278
X0.9613Y1.0142
X0.9662Y1.0077
X0.977Y0.9954
X0.9828Y0.9896
X0.9951Y0.9788
X1.0016Y0.9739
X1.0152Y0.9648
X1.0223Y0.9607
X1.0369Y0.9535
X1.0445Y0.9503
X1.06Y0.9451
X1.0679Y0.9429
X1.0839Y0.9398
X1.092Y0.9387
X1.1083Y0.9376
X1.1124Y0.9375
Z-0.125F19.68
X1.8311F39.37
X1.8352Y0.9376
X1.8515Y0.9387
X1.8596Y0.9398
X1.8757Y0.9429
X1.8836Y0.9451
X1.8991Y0.9503
X1.9066Y0.9535
X1.9213Y0.9607
X1.9283Y0.9648
X1.9419Y0.9739
X1.9484Y0.9788
X1.9607Y0.9896
X1.9665Y0.9954
X1.9773Y1.0077
X1.9823Y1.0142
X1.9913Y1.0278
X1.9954Y1.0348
X2.0027Y1.0495
X2.0058Y1.0571
X2.011Y1.0725
X2.0132Y1.0804
X2.0164Y1.0965
X2.0174Y1.1046
X2.0185Y1.1209
X2.0186Y1.125
Y6.9908
X2.0185Y6.9948
X2.0174Y7.0112
X2.0164Y7.0193
X2.0132Y7.0353
X2.011Y7.0432
X2.0058Y7.0587
X2.0027Y7.0662
X1.9954Y7.0809
X1.9913Y7.088
X1.9823Y7.1016
X1.9773Y7.1081
X1.9665Y7.1204
X1.9637Y7.1233
X1.245Y7.842
X1.242Y7.8448
X1.2297Y7.8556
X1.2232Y7.8606
X1.2096Y7.8697
X1.2025Y7.8738
X1.1879Y7.881
X1.1803Y7.8841
X1.1648Y7.8894
X1.1569Y7.8915
X1.1409Y7.8947
X1.1328Y7.8958
X1.1165Y7.8968
X1.1083
X1.092Y7.8958
X1.0839Y7.8947
X1.0679Y7.8915
X1.06Y7.8894
X1.0445Y7.8841
X1.0369Y7.881
X1.0223Y7.8738
X1.0152Y7.8697
X1.0016Y7.8606
X0.9951Y7.8556
X0.9828Y7.8448
X0.977Y7.8391
X0.9662Y7.8268
X0.9613Y7.8203
X0.9522Y7.8067
X0.9481Y7.7996
X0.9409Y7.7849
X0.9377Y7.7774
X0.9325Y7.7619
X0.9304Y7.754
X0.9272Y7.738
X0.9261Y7.7299
X0.925Y7.7135
X0.9249Y7.7095
Y1.125
X0.925Y1.1209
X0.9261Y1.1046
X0.9272Y1.0965
X0.9304Y1.0804
X0.9325Y1.0725
X0.9377Y1.0571
X0.9409Y1.0495
X0.9481Y1.0348
X0.9522Y1.0278
X0.9613Y1.0142
X0.9662Y1.0077
X0.977Y0.9954
X0.9828Y0.9896
X0.9951Y0.9788
X1.0016Y0.9739
X1.0152Y0.9648
X1.0223Y0.9607
X1.0369Y0.9535
X1.0445Y0.9503
X1.06Y0.9451
X1.0679Y0.9429
X1.0839Y0.9398
X1.092Y0.9387
X1.1083Y0.9376
X1.1124Y0.9375
Z-0.1874F19.68
X1.8311F39.37
X1.8352Y0.9376
X1.8515Y0.9387
X1.8596Y0.9398
X1.8757Y0.9429
X1.8836Y0.9451
X1.8991Y0.9503
X1.9066Y0.9535
X1.9213Y0.9607
X1.9283Y0.9648
X1.9419Y0.9739
X1.9484Y0.9788
X1.9607Y0.9896
X1.9665Y0.9954
X1.9773Y1.0077
X1.9823Y1.0142
X1.9913Y1.0278
X1.9954Y1.0348
X2.0027Y1.0495
X2.0058Y1.0571
X2.011Y1.0725
X2.0132Y1.0804
X2.0164Y1.0965
X2.0174Y1.1046
X2.0185Y1.1209
X2.0186Y1.125
Y6.9908
X2.0185Y6.9948
X2.0174Y7.0112
X2.0164Y7.0193
X2.0132Y7.0353
X2.011Y7.0432
X2.0058Y7.0587
X2.0027Y7.0662
X1.9954Y7.0809
X1.9913Y7.088
X1.9823Y7.1016
X1.9773Y7.1081
X1.9665Y7.1204
X1.9637Y7.1233
X1.245Y7.842
X1.242Y7.8448
X1.2297Y7.8556
X1.2232Y7.8606
X1.2096Y7.8697
X1.2025Y7.8738
X1.1879Y7.881
X1.1803Y7.8841
X1.1648Y7.8894
X1.1569Y7.8915
X1.1409Y7.8947
X1.1328Y7.8958
X1.1165Y7.8968
X1.1083
X1.092Y7.8958
X1.0839Y7.8947
X1.0679Y7.8915
X1.06Y7.8894
X1.0445Y7.8841
X1.0369Y7.881
X1.0223Y7.8738
X1.0152Y7.8697
X1.0016Y7.8606
X0.9951Y7.8556
X0.9828Y7.8448
X0.977Y7.8391
X0.9662Y7.8268
X0.9613Y7.8203
X0.9522Y7.8067
X0.9481Y7.7996
X0.9409Y7.7849
X0.9377Y7.7774
X0.9325Y7.7619
X0.9304Y7.754
X0.9272Y7.738
X0.9261Y7.7299
X0.925Y7.7135
X0.9249Y7.7095
Y1.125
X0.925Y1.1209
X0.9261Y1.1046
X0.9272Y1.0965
X0.9304Y1.0804
X0.9325Y1.0725
X0.9377Y1.0571
X0.9409Y1.0495
X0.9481Y1.0348
X0.9522Y1.0278
X0.9613Y1.0142
X0.9662Y1.0077
X0.977Y0.9954
X0.9828Y0.9896
X0.9951Y0.9788
X1.0016Y0.9739
X1.0152Y0.9648
X1.0223Y0.9607
X1.0369Y0.9535
X1.0445Y0.9503
X1.06Y0.9451
X1.0679Y0.9429
X1.0839Y0.9398
X1.092Y0.9387
X1.1083Y0.9376
X1.1124Y0.9375
Z-0.25F19.68
X1.8311F39.37
X1.8352Y0.9376
X1.8515Y0.9387
X1.8596Y0.9398
X1.8757Y0.9429
X1.8836Y0.9451
X1.8991Y0.9503
X1.9066Y0.9535
X1.9213Y0.9607
X1.9283Y0.9648
X1.9419Y0.9739
X1.9484Y0.9788
X1.9607Y0.9896
X1.9665Y0.9954
X1.9773Y1.0077
X1.9823Y1.0142
X1.9913Y1.0278
X1.9954Y1.0348
X2.0027Y1.0495
X2.0058Y1.0571
X2.011Y1.0725
X2.0132Y1.0804
X2.0164Y1.0965
X2.0174Y1.1046
X2.0185Y1.1209
X2.0186Y1.125
Y6.9908
X2.0185Y6.9948
X2.0174Y7.0112
X2.0164Y7.0193
X2.0132Y7.0353
X2.011Y7.0432
X2.0058Y7.0587
X2.0027Y7.0662
X1.9954Y7.0809
X1.9913Y7.088
X1.9823Y7.1016
X1.9773Y7.1081
X1.9665Y7.1204
X1.9637Y7.1233
X1.245Y7.842
X1.242Y7.8448
X1.2297Y7.8556
X1.2232Y7.8606
X1.2096Y7.8697
X1.2025Y7.8738
X1.1879Y7.881
X1.1803Y7.8841
X1.1648Y7.8894
X1.1569Y7.8915
X1.1409Y7.8947
X1.1328Y7.8958
X1.1165Y7.8968
X1.1083
X1.092Y7.8958
X1.0839Y7.8947
X1.0679Y7.8915
X1.06Y7.8894
X1.0445Y7.8841
X1.0369Y7.881
X1.0223Y7.8738
X1.0152Y7.8697
X1.0016Y7.8606
X0.9951Y7.8556
X0.9828Y7.8448
X0.977Y7.8391
X0.9662Y7.8268
X0.9613Y7.8203
X0.9522Y7.8067
X0.9481Y7.7996
X0.9409Y7.7849
X0.9377Y7.7774
X0.9325Y7.7619
X0.9304Y7.754
X0.9272Y7.738
X0.9261Y7.7299
X0.925Y7.7135
X0.9249Y7.7095
Y1.125
X0.925Y1.1209
X0.9261Y1.1046
X0.9272Y1.0965
X0.9304Y1.0804
X0.9325Y1.0725
X0.9377Y1.0571
X0.9409Y1.0495
X0.9481Y1.0348
X0.9522Y1.0278
X0.9613Y1.0142
X0.9662Y1.0077
X0.977Y0.9954
X0.9828Y0.9896
X0.9951Y0.9788
X1.0016Y0.9739
X1.0152Y0.9648
X1.0223Y0.9607
X1.0369Y0.9535
X1.0445Y0.9503
X1.06Y0.9451
X1.0679Y0.9429
X1.0839Y0.9398
X1.092Y0.9387
X1.1083Y0.9376
X1.1124Y0.9375
Z-0.3124F19.68
X1.8311F39.37
X1.8352Y0.9376
X1.8515Y0.9387
X1.8596Y0.9398
X1.8757Y0.9429
X1.8836Y0.9451
X1.8991Y0.9503
X1.9066Y0.9535
X1.9213Y0.9607
X1.9283Y0.9648
X1.9419Y0.9739
X1.9484Y0.9788
X1.9607Y0.9896
X1.9665Y0.9954
X1.9773Y1.0077
X1.9823Y1.0142
X1.9913Y1.0278
X1.9954Y1.0348
X2.0027Y1.0495
X2.0058Y1.0571
X2.011Y1.0725
X2.0132Y1.0804
X2.0164Y1.0965
X2.0174Y1.1046
X2.0185Y1.1209
X2.0186Y1.125
Y6.9908
X2.0185Y6.9948
X2.0174Y7.0112
X2.0164Y7.0193
X2.0132Y7.0353
X2.011Y7.0432
X2.0058Y7.0587
X2.0027Y7.0662
X1.9954Y7.0809
X1.9913Y7.088
X1.9823Y7.1016
X1.9773Y7.1081
X1.9665Y7.1204
X1.9637Y7.1233
X1.245Y7.842
X1.242Y7.8448
X1.2297Y7.8556
X1.2232Y7.8606
X1.2096Y7.8697
X1.2025Y7.8738
X1.1879Y7.881
X1.1803Y7.8841
X1.1648Y7.8894
X1.1569Y7.8915
X1.1409Y7.8947
X1.1328Y7.8958
X1.1165Y7.8968
X1.1083
X1.092Y7.8958
X1.0839Y7.8947
X1.0679Y7.8915
X1.06Y7.8894
X1.0445Y7.8841
X1.0369Y7.881
X1.0223Y7.8738
X1.0152Y7.8697
X1.0016Y7.8606
X0.9951Y7.8556
X0.9828Y7.8448
X0.977Y7.8391
X0.9662Y7.8268
X0.9613Y7.8203
X0.9522Y7.8067
X0.9481Y7.7996
X0.9409Y7.7849
X0.9377Y7.7774
X0.9325Y7.7619
X0.9304Y7.754
X0.9272Y7.738
X0.9261Y7.7299
X0.925Y7.7135
X0.9249Y7.7095
Y1.125
X0.925Y1.1209
X0.9261Y1.1046
X0.9272Y1.0965
X0.9304Y1.0804
X0.9325Y1.0725
X0.9377Y1.0571
X0.9409Y1.0495
X0.9481Y1.0348
X0.9522Y1.0278
X0.9613Y1.0142
X0.9662Y1.0077
X0.977Y0.9954
X0.9828Y0.9896
X0.9951Y0.9788
X1.0016Y0.9739
X1.0152Y0.9648
X1.0223Y0.9607
X1.0369Y0.9535
X1.0445Y0.9503
X1.06Y0.9451
X1.0679Y0.9429
X1.0839Y0.9398
X1.092Y0.9387
X1.1083Y0.9376
X1.1124Y0.9375
Z-0.3125F19.68
X1.8311F39.37
X1.8352Y0.9376
X1.8515Y0.9387
X1.8596Y0.9398
X1.8757Y0.9429
X1.8836Y0.9451
X1.8991Y0.9503
X1.9066Y0.9535
X1.9213Y0.9607
X1.9283Y0.9648
X1.9419Y0.9739
X1.9484Y0.9788
X1.9607Y0.9896
X1.9665Y0.9954
X1.9773Y1.0077
X1.9823Y1.0142
X1.9913Y1.0278
X1.9954Y1.0348
X2.0027Y1.0495
X2.0058Y1.0571
X2.011Y1.0725
X2.0132Y1.0804
X2.0164Y1.0965
X2.0174Y1.1046
X2.0185Y1.1209
X2.0186Y1.125
Y6.9908
X2.0185Y6.9948
X2.0174Y7.0112
X2.0164Y7.0193
X2.0132Y7.0353
X2.011Y7.0432
X2.0058Y7.0587
X2.0027Y7.0662
X1.9954Y7.0809
X1.9913Y7.088
X1.9823Y7.1016
X1.9773Y7.1081
X1.9665Y7.1204
X1.9637Y7.1233
X1.245Y7.842
X1.242Y7.8448
X1.2297Y7.8556
X1.2232Y7.8606
X1.2096Y7.8697
X1.2025Y7.8738
X1.1879Y7.881
X1.1803Y7.8841
X1.1648Y7.8894
X1.1569Y7.8915
X1.1409Y7.8947
X1.1328Y7.8958
X1.1165Y7.8968
X1.1083
X1.092Y7.8958
X1.0839Y7.8947
X1.0679Y7.8915
X1.06Y7.8894
X1.0445Y7.8841
X1.0369Y7.881
X1.0223Y7.8738
X1.0152Y7.8697
X1.0016Y7.8606
X0.9951Y7.8556
X0.9828Y7.8448
X0.977Y7.8391
X0.9662Y7.8268
X0.9613Y7.8203
X0.9522Y7.8067
X0.9481Y7.7996
X0.9409Y7.7849
X0.9377Y7.7774
X0.9325Y7.7619
X0.9304Y7.754
X0.9272Y7.738
X0.9261Y7.7299
X0.925Y7.7135
X0.9249Y7.7095
Y1.125
X0.925Y1.1209
X0.9261Y1.1046
X0.9272Y1.0965
X0.9304Y1.0804
X0.9325Y1.0725
X0.9377Y1.0571
X0.9409Y1.0495
X0.9481Y1.0348
X0.9522Y1.0278
X0.9613Y1.0142
X0.9662Y1.0077
X0.977Y0.9954
X0.9828Y0.9896
X0.9951Y0.9788
X1.0016Y0.9739
X1.0152Y0.9648
X1.0223Y0.9607
X1.0369Y0.9535
X1.0445Y0.9503
X1.06Y0.9451
X1.0679Y0.9429
X1.0839Y0.9398
X1.092Y0.9387
X1.1083Y0.9376
X1.1124Y0.9375
G0Z0.2
X2.4124
G1Z-0.0624F19.68
X3.1311F39.37
X3.1352Y0.9376
X3.1515Y0.9387
X3.1596Y0.9398
X3.1757Y0.9429
X3.1836Y0.9451
X3.1991Y0.9503
X3.2066Y0.9535
X3.2213Y0.9607
X3.2283Y0.9648
X3.2419Y0.9739
X3.2484Y0.9788
X3.2607Y0.9896
X3.2665Y0.9954
X3.2773Y1.0077
X3.2823Y1.0142
X3.2913Y1.0278
X3.2954Y1.0348
X3.3027Y1.0495
X3.3058Y1.0571
X3.311Y1.0725
X3.3132Y1.0804
X3.3164Y1.0965
X3.3174Y1.1046
X3.3185Y1.1209
X3.3186Y1.125
Y6.9908
X3.3185Y6.9948
X3.3174Y7.0112
X3.3164Y7.0193
X3.3132Y7.0353
X3.311Y7.0432
X3.3058Y7.0587
X3.3027Y7.0662
X3.2954Y7.0809
X3.2913Y7.088
X3.2823Y7.1016
X3.2773Y7.1081
X3.2665Y7.1204
X3.2637Y7.1233
X2.545Y7.842
X2.542Y7.8448
X2.5297Y7.8556
X2.5232Y7.8606
X2.5096Y7.8697
X2.5025Y7.8738
X2.4879Y7.881
X2.4803Y7.8841
X2.4648Y7.8894
X2.4569Y7.8915
X2.4409Y7.8947
X2.4328Y7.8958
X2.4165Y7.8968
X2.4083
X2.392Y7.8958
X2.3839Y7.8947
X2.3679Y7.8915
X2.36Y7.8894
X2.3445Y7.8841
X2.3369Y7.881
X2.3223Y7.8738
X2.3152Y7.8697
X2.3016Y7.8606
X2.2951Y7.8556
X2.2828Y7.8448
X2.277Y7.8391
X2.2662Y7.8268
X2.2613Y7.8203
X2.2522Y7.8067
X2.2481Y7.7996
X2.2409Y7.7849
X2.2377Y7.7774
X2.2325Y7.7619
X2.2304Y7.754
X2.2272Y7.738
X2.2261Y7.7299
X2.225Y7.7135
X2.2249Y7.7095
Y1.125
X2.225Y1.1209
X2.2261Y1.1046
X2.2272Y1.0965
X2.2304Y1.0804
X2.2325Y1.0725
X2.2377Y1.0571
X2.2409Y1.0495
X2.2481Y1.0348
X2.2522Y1.0278
X2.2613Y1.0142
X2.2662Y1.0077
X2.277Y0.9954
X2.2828Y0.9896
X2.2951Y0.9788
X2.3016Y0.9739
X2.3152Y0.9648
X2.3223Y0.9607
X2.3369Y0.9535
X2.3445Y0.9503
X2.36Y0.9451
X2.3679Y0.9429
X2.3839Y0.9398
X2.392Y0.9387
X2.4083Y0.9376
X2.4124Y0.9375
Z-0.125F19.68
X3.1311F39.37
X3.1352Y0.9376
X3.1515Y0.9387
X3.1596Y0.9398
X3.1757Y0.9429
X3.1836Y0.9451
X3.1991Y0.9503
X3.2066Y0.9535
X3.2213Y0.9607
X3.2283Y0.9648
X3.2419Y0.9739
X3.2484Y0.9788
X3.2607Y0.9896
X3.2665Y0.9954
X3.2773Y1.0077
X3.2823Y1.0142
X3.2913Y1.0278
X3.2954Y1.0348
X3.3027Y1.0495
X3.3058Y1.0571
X3.311Y1.0725
X3.3132Y1.0804
X3.3164Y1.0965
X3.3174Y1.1046
X3.3185Y1.1209
X3.3186Y1.125
Y6.9908
X3.3185Y6.9948
X3.3174Y7.0112
X3.3164Y7.0193
X3.3132Y7.0353
X3.311Y7.0432
X3.3058Y7.0587
X3.3027Y7.0662
X3.2954Y7.0809
X3.2913Y7.088
X3.2823Y7.1016
X3.2773Y7.1081
X3.2665Y7.1204
X3.2637Y7.1233
X2.545Y7.842
X2.542Y7.8448
X2.5297Y7.8556
X2.5232Y7.8606
X2.5096Y7.8697
X2.5025Y7.8738
X2.4879Y7.881
X2.4803Y7.8841
X2.4648Y7.8894
X2.4569Y7.8915
X2.4409Y7.8947
X2.4328Y7.8958
X2.4165Y7.8968
X2.4083
X2.392Y7.8958
X2.3839Y7.8947
X2.3679Y7.8915
X2.36Y7.8894
X2.3445Y7.8841
X2.3369Y7.881
X2.3223Y7.8738
X2.3152Y7.8697
X2.3016Y7.8606
X2.2951Y7.8556
X2.2828Y7.8448
X2.277Y7.8391
X2.2662Y7.8268
X2.2613Y7.8203
X2.2522Y7.8067
X2.2481Y7.7996
X2.2409Y7.7849
X2.2377Y7.7774
X2.2325Y7.7619
X2.2304Y7.754
X2.2272Y7.738
X2.2261Y7.7299
X2.225Y7.7135
X2.2249Y7.7095
Y1.125
X2.225Y1.1209
X2.2261Y1.1046
X2.2272Y1.0965
X2.2304Y1.0804
X2.2325Y1.0725
X2.2377Y1.0571
X2.2409Y1.0495
X2.2481Y1.0348
X2.2522Y1.0278
X2.2613Y1.0142
X2.2662Y1.0077
X2.277Y0.9954
X2.2828Y0.9896
X2.2951Y0.9788
X2.3016Y0.9739
X2.3152Y0.9648
X2.3223Y0.9607
X2.3369Y0.9535
X2.3445Y0.9503
X2.36Y0.9451
X2.3679Y0.9429
X2.3839Y0.9398
X2.392Y0.9387
X2.4083Y0.9376
X2.4124Y0.9375
Z-0.1874F19.68
X3.1311F39.37
X3.1352Y0.9376
X3.1515Y0.9387
X3.1596Y0.9398
X3.1757Y0.9429
X3.1836Y0.9451
X3.1991Y0.9503
X3.2066Y0.9535
X3.2213Y0.9607
X3.2283Y0.9648
X3.2419Y0.9739
X3.2484Y0.9788
X3.2607Y0.9896
X3.2665Y0.9954
X3.2773Y1.0077
X3.2823Y1.0142
X3.2913Y1.0278
X3.2954Y1.0348
X3.3027Y1.0495
X3.3058Y1.0571
X3.311Y1.0725
X3.3132Y1.0804
X3.3164Y1.0965
X3.3174Y1.1046
X3.3185Y1.1209
X3.3186Y1.125
Y6.9908
X3.3185Y6.9948
X3.3174Y7.0112
X3.3164Y7.0193
X3.3132Y7.0353
X3.311Y7.0432
X3.3058Y7.0587
X3.3027Y7.0662
X3.2954Y7.0809
X3.2913Y7.088
X3.2823Y7.1016
X3.2773Y7.1081
X3.2665Y7.1204
X3.2637Y7.1233
X2.545Y7.842
X2.542Y7.8448
X2.5297Y7.8556
X2.5232Y7.8606
X2.5096Y7.8697
X2.5025Y7.8738
X2.4879Y7.881
X2.4803Y7.8841
X2.4648Y7.8894
X2.4569Y7.8915
X2.4409Y7.8947
X2.4328Y7.8958
X2.4165Y7.8968
X2.4083
X2.392Y7.8958
X2.3839Y7.8947
X2.3679Y7.8915
X2.36Y7.8894
X2.3445Y7.8841
X2.3369Y7.881
X2.3223Y7.8738
X2.3152Y7.8697
X2.3016Y7.8606
X2.2951Y7.8556
X2.2828Y7.8448
X2.277Y7.8391
X2.2662Y7.8268
X2.2613Y7.8203
X2.2522Y7.8067
X2.2481Y7.7996
X2.2409Y7.7849
X2.2377Y7.7774
X2.2325Y7.7619
X2.2304Y7.754
X2.2272Y7.738
X2.2261Y7.7299
X2.225Y7.7135
X2.2249Y7.7095
Y1.125
X2.225Y1.1209
X2.2261Y1.1046
X2.2272Y1.0965
X2.2304Y1.0804
X2.2325Y1.0725
X2.2377Y1.0571
X2.2409Y1.0495
X2.2481Y1.0348
X2.2522Y1.0278
X2.2613Y1.0142
X2.2662Y1.0077
X2.277Y0.9954
X2.2828Y0.9896
X2.2951Y0.9788
X2.3016Y0.9739
X2.3152Y0.9648
X2.3223Y0.9607
X2.3369Y0.9535
X2.3445Y0.9503
X2.36Y0.9451
X2.3679Y0.9429
X2.3839Y0.9398
X2.392Y0.9387
X2.4083Y0.9376
X2.4124Y0.9375
Z-0.25F19.68
X3.1311F39.37
X3.1352Y0.9376
X3.1515Y0.9387
X3.1596Y0.9398
X3.1757Y0.9429
X3.1836Y0.9451
X3.1991Y0.9503
X3.2066Y0.9535
X3.2213Y0.9607
X3.2283Y0.9648
X3.2419Y0.9739
X3.2484Y0.9788
X3.2607Y0.9896
X3.2665Y0.9954
X3.2773Y1.0077
X3.2823Y1.0142
X3.2913Y1.0278
X3.2954Y1.0348
X3.3027Y1.0495
X3.3058Y1.0571
X3.311Y1.0725
X3.3132Y1.0804
X3.3164Y1.0965
X3.3174Y1.1046
X3.3185Y1.1209
X3.3186Y1.125
Y6.9908
X3.3185Y6.9948
X3.3174Y7.0112
X3.3164Y7.0193
X3.3132Y7.0353
X3.311Y7.0432
X3.3058Y7.0587
X3.3027Y7.0662
X3.2954Y7.0809
X3.2913Y7.088
X3.2823Y7.1016
X3.2773Y7.1081
X3.2665Y7.1204
X3.2637Y7.1233
X2.545Y7.842
X2.542Y7.8448
X2.5297Y7.8556
X2.5232Y7.8606
X2.5096Y7.8697
X2.5025Y7.8738
X2.4879Y7.881
X2.4803Y7.8841
X2.4648Y7.8894
X2.4569Y7.8915
X2.4409Y7.8947
X2.4328Y7.8958
X2.4165Y7.8968
X2.4083
X2.392Y7.8958
X2.3839Y7.8947
X2.3679Y7.8915
X2.36Y7.8894
X2.3445Y7.8841
X2.3369Y7.881
X2.3223Y7.8738
X2.3152Y7.8697
X2.3016Y7.8606
X2.2951Y7.8556
X2.2828Y7.8448
X2.277Y7.8391
X2.2662Y7.8268
X2.2613Y7.8203
X2.2522Y7.8067
X2.2481Y7.7996
X2.2409Y7.7849
X2.2377Y7.7774
X2.2325Y7.7619
X2.2304Y7.754
X2.2272Y7.738
X2.2261Y7.7299
X2.225Y7.7135
X2.2249Y7.7095
Y1.125
X2.225Y1.1209
X2.2261Y1.1046
X2.2272Y1.0965
X2.2304Y1.0804
X2.2325Y1.0725
X2.2377Y1.0571
X2.2409Y1.0495
X2.2481Y1.0348
X2.2522Y1.0278
X2.2613Y1.0142
X2.2662Y1.0077
X2.277Y0.9954
X2.2828Y0.9896
X2.2951Y0.9788
X2.3016Y0.9739
X2.3152Y0.9648
X2.3223Y0.9607
X2.3369Y0.9535
X2.3445Y0.9503
X2.36Y0.9451
X2.3679Y0.9429
X2.3839Y0.9398
X2.392Y0.9387
X2.4083Y0.9376
X2.4124Y0.9375
Z-0.3124F19.68
X3.1311F39.37
X3.1352Y0.9376
X3.1515Y0.9387
X3.1596Y0.9398
X3.1757Y0.9429
X3.1836Y0.9451
X3.1991Y0.9503
X3.2066Y0.9535
X3.2213Y0.9607
X3.2283Y0.9648
X3.2419Y0.9739
X3.2484Y0.9788
X3.2607Y0.9896
X3.2665Y0.9954
X3.2773Y1.0077
X3.2823Y1.0142
X3.2913Y1.0278
X3.2954Y1.0348
X3.3027Y1.0495
X3.3058Y1.0571
X3.311Y1.0725
X3.3132Y1.0804
X3.3164Y1.0965
X3.3174Y1.1046
X3.3185Y1.1209
X3.3186Y1.125
Y6.9908
X3.3185Y6.9948
X3.3174Y7.0112
X3.3164Y7.0193
X3.3132Y7.0353
X3.311Y7.0432
X3.3058Y7.0587
X3.3027Y7.0662
X3.2954Y7.0809
X3.2913Y7.088
X3.2823Y7.1016
X3.2773Y7.1081
X3.2665Y7.1204
X3.2637Y7.1233
X2.545Y7.842
X2.542Y7.8448
X2.5297Y7.8556
X2.5232Y7.8606
X2.5096Y7.8697
X2.5025Y7.8738
X2.4879Y7.881
X2.4803Y7.8841
X2.4648Y7.8894
X2.4569Y7.8915
X2.4409Y7.8947
X2.4328Y7.8958
X2.4165Y7.8968
X2.4083
X2.392Y7.8958
X2.3839Y7.8947
X2.3679Y7.8915
X2.36Y7.8894
X2.3445Y7.8841
X2.3369Y7.881
X2.3223Y7.8738
X2.3152Y7.8697
X2.3016Y7.8606
X2.2951Y7.8556
X2.2828Y7.8448
X2.277Y7.8391
X2.2662Y7.8268
X2.2613Y7.8203
X2.2522Y7.8067
X2.2481Y7.7996
X2.2409Y7.7849
X2.2377Y7.7774
X2.2325Y7.7619
X2.2304Y7.754
X2.2272Y7.738
X2.2261Y7.7299
X2.225Y7.7135
X2.2249Y7.7095
Y1.125
X2.225Y1.1209
X2.2261Y1.1046
X2.2272Y1.0965
X2.2304Y1.0804
X2.2325Y1.0725
X2.2377Y1.0571
X2.2409Y1.0495
X2.2481Y1.0348
X2.2522Y1.0278
X2.2613Y1.0142
X2.2662Y1.0077
X2.277Y0.9954
X2.2828Y0.9896
X2.2951Y0.9788
X2.3016Y0.9739
X2.3152Y0.9648
X2.3223Y0.9607
X2.3369Y0.9535
X2.3445Y0.9503
X2.36Y0.9451
X2.3679Y0.9429
X2.3839Y0.9398
X2.392Y0.9387
X2.4083Y0.9376
X2.4124Y0.9375
Z-0.3125F19.68
X3.1311F39.37
X3.1352Y0.9376
X3.1515Y0.9387
X3.1596Y0.9398
X3.1757Y0.9429
X3.1836Y0.9451
X3.1991Y0.9503
X3.2066Y0.9535
X3.2213Y0.9607
X3.2283Y0.9648
X3.2419Y0.9739
X3.2484Y0.9788
X3.2607Y0.9896
X3.2665Y0.9954
X3.2773Y1.0077
X3.2823Y1.0142
X3.2913Y1.0278
X3.2954Y1.0348
X3.3027Y1.0495
X3.3058Y1.0571
X3.311Y1.0725
X3.3132Y1.0804
X3.3164Y1.0965
X3.3174Y1.1046
X3.3185Y1.1209
X3.3186Y1.125
Y6.9908
X3.3185Y6.9948
X3.3174Y7.0112
X3.3164Y7.0193
X3.3132Y7.0353
X3.311Y7.0432
X3.3058Y7.0587
X3.3027Y7.0662
X3.2954Y7.0809
X3.2913Y7.088
X3.2823Y7.1016
X3.2773Y7.1081
X3.2665Y7.1204
X3.2637Y7.1233
X2.545Y7.842
X2.542Y7.8448
X2.5297Y7.8556
X2.5232Y7.8606
X2.5096Y7.8697
X2.5025Y7.8738
X2.4879Y7.881
X2.4803Y7.8841
X2.4648Y7.8894
X2.4569Y7.8915
X2.4409Y7.8947
X2.4328Y7.8958
X2.4165Y7.8968
X2.4083
X2.392Y7.8958
X2.3839Y7.8947
X2.3679Y7.8915
X2.36Y7.8894
X2.3445Y7.8841
X2.3369Y7.881
X2.3223Y7.8738
X2.3152Y7.8697
X2.3016Y7.8606
X2.2951Y7.8556
X2.2828Y7.8448
X2.277Y7.8391
X2.2662Y7.8268
X2.2613Y7.8203
X2.2522Y7.8067
X2.2481Y7.7996
X2.2409Y7.7849
X2.2377Y7.7774
X2.2325Y7.7619
X2.2304Y7.754
X2.2272Y7.738
X2.2261Y7.7299
X2.225Y7.7135
X2.2249Y7.7095
Y1.125
X2.225Y1.1209
X2.2261Y1.1046
X2.2272Y1.0965
X2.2304Y1.0804
X2.2325Y1.0725
X2.2377Y1.0571
X2.2409Y1.0495
X2.2481Y1.0348
X2.2522Y1.0278
X2.2613Y1.0142
X2.2662Y1.0077
X2.277Y0.9954
X2.2828Y0.9896
X2.2951Y0.9788
X2.3016Y0.9739
X2.3152Y0.9648
X2.3223Y0.9607
X2.3369Y0.9535
X2.3445Y0.9503
X2.36Y0.9451
X2.3679Y0.9429
X2.3839Y0.9398
X2.392Y0.9387
X2.4083Y0.9376
X2.4124Y0.9375
G0Z0.2
X3.7124
G1Z-0.0624F19.68
X4.4311F39.37
X4.4352Y0.9376
X4.4515Y0.9387
X4.4596Y0.9398
X4.4757Y0.9429
X4.4836Y0.9451
X4.4991Y0.9503
X4.5066Y0.9535
X4.5213Y0.9607
X4.5283Y0.9648
X4.5419Y0.9739
X4.5484Y0.9788
X4.5607Y0.9896
X4.5665Y0.9954
X4.5773Y1.0077
X4.5823Y1.0142
X4.5913Y1.0278
X4.5954Y1.0348
X4.6027Y1.0495
X4.6058Y1.0571
X4.611Y1.0725
X4.6132Y1.0804
X4.6164Y1.0965
X4.6174Y1.1046
X4.6185Y1.1209
X4.6186Y1.125
Y6.9908
X4.6185Y6.9948
X4.6174Y7.0112
X4.6164Y7.0193
X4.6132Y7.0353
X4.611Y7.0432
X4.6058Y7.0587
X4.6027Y7.0662
X4.5954Y7.0809
X4.5913Y7.088
X4.5823Y7.1016
X4.5773Y7.1081
X4.5665Y7.1204
X4.5637Y7.1233
X3.845Y7.842
X3.842Y7.8448
X3.8297Y7.8556
X3.8232Y7.8606
X3.8096Y7.8697
X3.8025Y7.8738
X3.7879Y7.881
X3.7803Y7.8841
X3.7648Y7.8894
X3.7569Y7.8915
X3.7409Y7.8947
X3.7328Y7.8958
X3.7165Y7.8968
X3.7083
X3.692Y7.8958
X3.6839Y7.8947
X3.6679Y7.8915
X3.66Y7.8894
X3.6445Y7.8841
X3.6369Y7.881
X3.6223Y7.8738
X3.6152Y7.8697
X3.6016Y7.8606
X3.5951Y7.8556
X3.5828Y7.8448
X3.577Y7.8391
X3.5662Y7.8268
X3.5613Y7.8203
X3.5522Y7.8067
X3.5481Y7.7996
X3.5409Y7.7849
X3.5377Y7.7774
X3.5325Y7.7619
X3.5304Y7.754
X3.5272Y7.738
X3.5261Y7.7299
X3.525Y7.7135
X3.5249Y7.7095
Y1.125
X3.525Y1.1209
X3.5261Y1.1046
X3.5272Y1.0965
X3.5304Y1.0804
X3.5325Y1.0725
X3.5377Y1.0571
X3.5409Y1.0495
X3.5481Y1.0348
X3.5522Y1.0278
X3.5613Y1.0142
X3.5662Y1.0077
X3.577Y0.9954
X3.5828Y0.9896
X3.5951Y0.9788
X3.6016Y0.9739
X3.6152Y0.9648
X3.6223Y0.9607
X3.6369Y0.9535
X3.6445Y0.9503
X3.66Y0.9451
X3.6679Y0.9429
X3.6839Y0.9398
X3.692Y0.9387
X3.7083Y0.9376
X3.7124Y0.9375
Z-0.125F19.68
X4.4311F39.37
X4.4352Y0.9376
X4.4515Y0.9387
X4.4596Y0.9398
X4.4757Y0.9429
X4.4836Y0.9451
X4.4991Y0.9503
X4.5066Y0.9535
X4.5213Y0.9607
X4.5283Y0.9648
X4.5419Y0.9739
X4.5484Y0.9788
X4.5607Y0.9896
X4.5665Y0.9954
X4.5773Y1.0077
X4.5823Y1.0142
X4.5913Y1.0278
X4.5954Y1.0348
X4.6027Y1.0495
X4.6058Y1.0571
X4.611Y1.0725
X4.6132Y1.0804
X4.6164Y1.0965
X4.6174Y1.1046
X4.6185Y1.1209
X4.6186Y1.125
Y6.9908
X4.6185Y6.9948
X4.6174Y7.0112
X4.6164Y7.0193
X4.6132Y7.0353
X4.611Y7.0432
X4.6058Y7.0587
X4.6027Y7.0662
X4.5954Y7.0809
X4.5913Y7.088
X4.5823Y7.1016
X4.5773Y7.1081
X4.5665Y7.1204
X4.5637Y7.1233
X3.845Y7.842
X3.842Y7.8448
X3.8297Y7.8556
X3.8232Y7.8606
X3.8096Y7.8697
X3.8025Y7.8738
X3.7879Y7.881
X3.7803Y7.8841
X3.7648Y7.8894
X3.7569Y7.8915
X3.7409Y7.8947
X3.7328Y7.8958
X3.7165Y7.8968
X3.7083
X3.692Y7.8958
X3.6839Y7.8947
X3.6679Y7.8915
X3.66Y7.8894
X3.6445Y7.8841
X3.6369Y7.881
X3.6223Y7.8738
X3.6152Y7.8697
X3.6016Y7.8606
X3.5951Y7.8556
X3.5828Y7.8448
X3.577Y7.8391
X3.5662Y7.8268
X3.5613Y7.8203
X3.5522Y7.8067
X3.5481Y7.7996
X3.5409Y7.7849
X3.5377Y7.7774
X3.5325Y7.7619
X3.5304Y7.754
X3.5272Y7.738
X3.5261Y7.7299
X3.525Y7.7135
X3.5249Y7.7095
Y1.125
X3.525Y1.1209
X3.5261Y1.1046
X3.5272Y1.0965
X3.5304Y1.0804
X3.5325Y1.0725
X3.5377Y1.0571
X3.5409Y1.0495
X3.5481Y1.0348
X3.5522Y1.0278
X3.5613Y1.0142
X3.5662Y1.0077
X3.577Y0.9954
X3.5828Y0.9896
X3.5951Y0.9788
X3.6016Y0.9739
X3.6152Y0.9648
X3.6223Y0.9607
X3.6369Y0.9535
X3.6445Y0.9503
X3.66Y0.9451
X3.6679Y0.9429
X3.6839Y0.9398
X3.692Y0.9387
X3.7083Y0.9376
X3.7124Y0.9375
Z-0.1874F19.68
X4.4311F39.37
X4.4352Y0.9376
X4.4515Y0.9387
X4.4596Y0.9398
X4.4757Y0.9429
X4.4836Y0.9451
X4.4991Y0.9503
X4.5066Y0.9535
X4.5213Y0.9607
X4.5283Y0.9648
X4.5419Y0.9739
X4.5484Y0.9788
X4.5607Y0.9896
X4.5665Y0.9954
X4.5773Y1.0077
X4.5823Y1.0142
X4.5913Y1.0278
X4.5954Y1.0348
X4.6027Y1.0495
X4.6058Y1.0571
X4.611Y1.0725
X4.6132Y1.0804
X4.6164Y1.0965
X4.6174Y1.1046
X4.6185Y1.1209
X4.6186Y1.125
Y6.9908
X4.6185Y6.9948
X4.6174Y7.0112
X4.6164Y7.0193
X4.6132Y7.0353
X4.611Y7.0432
X4.6058Y7.0587
X4.6027Y7.0662
X4.5954Y7.0809
X4.5913Y7.088
X4.5823Y7.1016
X4.5773Y7.1081
X4.5665Y7.1204
X4.5637Y7.1233
X3.845Y7.842
X3.842Y7.8448
X3.8297Y7.8556
X3.8232Y7.8606
X3.8096Y7.8697
X3.8025Y7.8738
X3.7879Y7.881
X3.7803Y7.8841
X3.7648Y7.8894
X3.7569Y7.8915
X3.7409Y7.8947
X3.7328Y7.8958
X3.7165Y7.8968
X3.7083
X3.692Y7.8958
X3.6839Y7.8947
X3.6679Y7.8915
X3.66Y7.8894
X3.6445Y7.8841
X3.6369Y7.881
X3.6223Y7.8738
X3.6152Y7.8697
X3.6016Y7.8606
X3.5951Y7.8556
X3.5828Y7.8448
X3.577Y7.8391
X3.5662Y7.8268
X3.5613Y7.8203
X3.5522Y7.8067
X3.5481Y7.7996
X3.5409Y7.7849
X3.5377Y7.7774
X3.5325Y7.7619
X3.5304Y7.754
X3.5272Y7.738
X3.5261Y7.7299
X3.525Y7.7135
X3.5249Y7.7095
Y1.125
X3.525Y1.1209
X3.5261Y1.1046
X3.5272Y1.0965
X3.5304Y1.0804
X3.5325Y1.0725
X3.5377Y1.0571
X3.5409Y1.0495
X3.5481Y1.0348
X3.5522Y1.0278
X3.5613Y1.0142
X3.5662Y1.0077
X3.577Y0.9954
X3.5828Y0.9896
X3.5951Y0.9788
X3.6016Y0.9739
X3.6152Y0.9648
X3.6223Y0.9607
X3.6369Y0.9535
X3.6445Y0.9503
X3.66Y0.9451
X3.6679Y0.9429
X3.6839Y0.9398
X3.692Y0.9387
X3.7083Y0.9376
X3.7124Y0.9375
Z-0.25F19.68
X4.4311F39.37
X4.4352Y0.9376
X4.4515Y0.9387
X4.4596Y0.9398
X4.4757Y0.9429
X4.4836Y0.9451
X4.4991Y0.9503
X4.5066Y0.9535
X4.5213Y0.9607
X4.5283Y0.9648
X4.5419Y0.9739
X4.5484Y0.9788
X4.5607Y0.9896
X4.5665Y0.9954
X4.5773Y1.0077
X4.5823Y1.0142
X4.5913Y1.0278
X4.5954Y1.0348
X4.6027Y1.0495
X4.6058Y1.0571
X4.611Y1.0725
X4.6132Y1.0804
X4.6164Y1.0965
X4.6174Y1.1046
X4.6185Y1.1209
X4.6186Y1.125
Y6.9908
X4.6185Y6.9948
X4.6174Y7.0112
X4.6164Y7.0193
X4.6132Y7.0353
X4.611Y7.0432
X4.6058Y7.0587
X4.6027Y7.0662
X4.5954Y7.0809
X4.5913Y7.088
X4.5823Y7.1016
X4.5773Y7.1081
X4.5665Y7.1204
X4.5637Y7.1233
X3.845Y7.842
X3.842Y7.8448
X3.8297Y7.8556
X3.8232Y7.8606
X3.8096Y7.8697
X3.8025Y7.8738
X3.7879Y7.881
X3.7803Y7.8841
X3.7648Y7.8894
X3.7569Y7.8915
X3.7409Y7.8947
X3.7328Y7.8958
X3.7165Y7.8968
X3.7083
X3.692Y7.8958
X3.6839Y7.8947
X3.6679Y7.8915
X3.66Y7.8894
X3.6445Y7.8841
X3.6369Y7.881
X3.6223Y7.8738
X3.6152Y7.8697
X3.6016Y7.8606
X3.5951Y7.8556
X3.5828Y7.8448
X3.577Y7.8391
X3.5662Y7.8268
X3.5613Y7.8203
X3.5522Y7.8067
X3.5481Y7.7996
X3.5409Y7.7849
X3.5377Y7.7774
X3.5325Y7.7619
X3.5304Y7.754
X3.5272Y7.738
X3.5261Y7.7299
X3.525Y7.7135
X3.5249Y7.7095
Y1.125
X3.525Y1.1209
X3.5261Y1.1046
X3.5272Y1.0965
X3.5304Y1.0804
X3.5325Y1.0725
X3.5377Y1.0571
X3.5409Y1.0495
X3.5481Y1.0348
X3.5522Y1.0278
X3.5613Y1.0142
X3.5662Y1.0077
X3.577Y0.9954
X3.5828Y0.9896
X3.5951Y0.9788
X3.6016Y0.9739
X3.6152Y0.9648
X3.6223Y0.9607
X3.6369Y0.9535
X3.6445Y0.9503
X3.66Y0.9451
X3.6679Y0.9429
X3.6839Y0.9398
X3.692Y0.9387
X3.7083Y0.9376
X3.7124Y0.9375
Z-0.3124F19.68
X4.4311F39.37
X4.4352Y0.9376
X4.4515Y0.9387
X4.4596Y0.9398
X4.4757Y0.9429
X4.4836Y0.9451
X4.4991Y0.9503
X4.5066Y0.9535
X4.5213Y0.9607
X4.5283Y0.9648
X4.5419Y0.9739
X4.5484Y0.9788
X4.5607Y0.9896
X4.5665Y0.9954
X4.5773Y1.0077
X4.5823Y1.0142
X4.5913Y1.0278
X4.5954Y1.0348
X4.6027Y1.0495
X4.6058Y1.0571
X4.611Y1.0725
X4.6132Y1.0804
X4.6164Y1.0965
X4.6174Y1.1046
X4.6185Y1.1209
X4.6186Y1.125
Y6.9908
X4.6185Y6.9948
X4.6174Y7.0112
X4.6164Y7.0193
X4.6132Y7.0353
X4.611Y7.0432
X4.6058Y7.0587
X4.6027Y7.0662
X4.5954Y7.0809
X4.5913Y7.088
X4.5823Y7.1016
X4.5773Y7.1081
X4.5665Y7.1204
X4.5637Y7.1233
X3.845Y7.842
X3.842Y7.8448
X3.8297Y7.8556
X3.8232Y7.8606
X3.8096Y7.8697
X3.8025Y7.8738
X3.7879Y7.881
X3.7803Y7.8841
X3.7648Y7.8894
X3.7569Y7.8915
X3.7409Y7.8947
X3.7328Y7.8958
X3.7165Y7.8968
X3.7083
X3.692Y7.8958
X3.6839Y7.8947
X3.6679Y7.8915
X3.66Y7.8894
X3.6445Y7.8841
X3.6369Y7.881
X3.6223Y7.8738
X3.6152Y7.8697
X3.6016Y7.8606
X3.5951Y7.8556
X3.5828Y7.8448
X3.577Y7.8391
X3.5662Y7.8268
X3.5613Y7.8203
X3.5522Y7.8067
X3.5481Y7.7996
X3.5409Y7.7849
X3.5377Y7.7774
X3.5325Y7.7619
X3.5304Y7.754
X3.5272Y7.738
X3.5261Y7.7299
X3.525Y7.7135
X3.5249Y7.7095
Y1.125
X3.525Y1.1209
X3.5261Y1.1046
X3.5272Y1.0965
X3.5304Y1.0804
X3.5325Y1.0725
X3.5377Y1.0571
X3.5409Y1.0495
X3.5481Y1.0348
X3.5522Y1.0278
X3.5613Y1.0142
X3.5662Y1.0077
X3.577Y0.9954
X3.5828Y0.9896
X3.5951Y0.9788
X3.6016Y0.9739
X3.6152Y0.9648
X3.6223Y0.9607
X3.6369Y0.9535
X3.6445Y0.9503
X3.66Y0.9451
X3.6679Y0.9429
X3.6839Y0.9398
X3.692Y0.9387
X3.7083Y0.9376
X3.7124Y0.9375
Z-0.3125F19.68
X4.4311F39.37
X4.4352Y0.9376
X4.4515Y0.9387
X4.4596Y0.9398
X4.4757Y0.9429
X4.4836Y0.9451
X4.4991Y0.9503
X4.5066Y0.9535
X4.5213Y0.9607
X4.5283Y0.9648
X4.5419Y0.9739
X4.5484Y0.9788
X4.5607Y0.9896
X4.5665Y0.9954
X4.5773Y1.0077
X4.5823Y1.0142
X4.5913Y1.0278
X4.5954Y1.0348
X4.6027Y1.0495
X4.6058Y1.0571
X4.611Y1.0725
X4.6132Y1.0804
X4.6164Y1.0965
X4.6174Y1.1046
X4.6185Y1.1209
X4.6186Y1.125
Y6.9908
X4.6185Y6.9948
X4.6174Y7.0112
X4.6164Y7.0193
X4.6132Y7.0353
X4.611Y7.0432
X4.6058Y7.0587
X4.6027Y7.0662
X4.5954Y7.0809
X4.5913Y7.088
X4.5823Y7.1016
X4.5773Y7.1081
X4.5665Y7.1204
X4.5637Y7.1233
X3.845Y7.842
X3.842Y7.8448
X3.8297Y7.8556
X3.8232Y7.8606
X3.8096Y7.8697
X3.8025Y7.8738
X3.7879Y7.881
X3.7803Y7.8841
X3.7648Y7.8894
X3.7569Y7.8915
X3.7409Y7.8947
X3.7328Y7.8958
X3.7165Y7.8968
X3.7083
X3.692Y7.8958
X3.6839Y7.8947
X3.6679Y7.8915
X3.66Y7.8894
X3.6445Y7.8841
X3.6369Y7.881
X3.6223Y7.8738
X3.6152Y7.8697
X3.6016Y7.8606
X3.5951Y7.8556
X3.5828Y7.8448
X3.577Y7.8391
X3.5662Y7.8268
X3.5613Y7.8203
X3.5522Y7.8067
X3.5481Y7.7996
X3.5409Y7.7849
X3.5377Y7.7774
X3.5325Y7.7619
X3.5304Y7.754
X3.5272Y7.738
X3.5261Y7.7299
X3.525Y7.7135
X3.5249Y7.7095
Y1.125
X3.525Y1.1209
X3.5261Y1.1046
X3.5272Y1.0965
X3.5304Y1.0804
X3.5325Y1.0725
X3.5377Y1.0571
X3.5409Y1.0495
X3.5481Y1.0348
X3.5522Y1.0278
X3.5613Y1.0142
X3.5662Y1.0077
X3.577Y0.9954
X3.5828Y0.9896
X3.5951Y0.9788
X3.6016Y0.9739
X3.6152Y0.9648
X3.6223Y0.9607
X3.6369Y0.9535
X3.6445Y0.9503
X3.66Y0.9451
X3.6679Y0.9429
X3.6839Y0.9398
X3.692Y0.9387
X3.7083Y0.9376
X3.7124Y0.9375
G0Z0.2
(Tool: D = 0.125''  type END flutes 2)
S15000M03
G00 Z0.2 F196.85

X0.7649Y6.5768
G1Z-0.0624F19.68
X0.7593Y6.5824F39.37
X0.7538Y6.588
X0.7482Y6.5935
X0.7426Y6.5991
X0.7371Y6.6047
X0.7315Y6.6102
X0.7259Y6.6158
X0.7204Y6.6214
X0.7148Y6.6269
X0.7092Y6.6325
X0.7037Y6.6381
X0.6981Y6.6436
X0.6925Y6.6492
X0.687Y6.6548
X0.6814Y6.6603
X0.6758Y6.6659
X0.6703Y6.6715
X0.6647Y6.677
X0.6591Y6.6826
X0.6536Y6.6882
X0.648Y6.6937
X0.6424Y6.6993
X0.6368Y6.7049
X0.6313Y6.7105
X0.6257Y6.716
X0.6201Y6.7216
X0.6146Y6.7272
X0.609Y6.7327
X0.6034Y6.7383
X0.5979Y6.7439
X0.5923Y6.7494
X0.5867Y6.755
X0.5812Y6.7606
X0.5756Y6.7661
X0.57Y6.7717
X0.5645Y6.7773
X0.5589Y6.7828
X0.5533Y6.7884
X0.5478Y6.794
X0.5422Y6.7995
X0.5366Y6.8051
X0.5311Y6.8107
X0.5255Y6.8162
X0.5199Y6.8218
X0.5144Y6.8274
X0.5088Y6.8329
X0.5032Y6.8385
X0.4977Y6.8441
X0.4921Y6.8496
X0.4865Y6.8552
X0.4809Y6.8608
X0.4754Y6.8663
X0.4698Y6.8719
X0.4642Y6.8775
X0.4587Y6.8831
X0.4531Y6.8886
X0.4475Y6.8942
X0.442Y6.8998
X0.4364Y6.9053
X0.4308Y6.9109
X0.4253Y6.9165
X0.4197Y6.922
X0.4141Y6.9276
X0.4086Y6.9332
X0.403Y6.9387
X0.3974Y6.9443
X0.3919Y6.9499
X0.3863Y6.9554
X0.3807Y6.961
X0.3752Y6.9666
X0.3696Y6.9721
X0.364Y6.9777
X0.3585Y6.9833
X0.3529Y6.9888
X0.3473Y6.9944
X0.3418Y7
X0.3362Y7.0055
X0.3306Y7.0111
X0.325Y7.0167
X0.3195Y7.0222
X0.3139Y7.0278
X0.3083Y7.0334
X0.3028Y7.0389
X0.2972Y7.0445
X0.2916Y7.0501
X0.2861Y7.0556
X0.2805Y7.0612
X0.2749Y7.0668
X0.2694Y7.0724
X0.2638Y7.0779
X0.2582Y7.0835
X0.2527Y7.0891
X0.2471Y7.0946
X0.2415Y7.1002
X0.236Y7.1058
X0.2304Y7.1113
X0.2248Y7.1169
X0.2193Y7.1225
X0.2137Y7.128
X0.2081Y7.1336
X0.2026Y7.1392
X0.197Y7.1447
X0.1914Y7.1503
X0.1858Y7.1559
X0.1803Y7.1614
X0.1747Y7.167
X0.1691Y7.1726
X0.1636Y7.1781
X0.158Y7.1837
X0.1524Y7.1893
X0.1469Y7.1948
X0.1413Y7.2004
X0.1357Y7.206
X0.1302Y7.2115
X0.1246Y7.2171
X0.119Y7.2227
X0.1135Y7.2282
X0.1079Y7.2338
X0.1023Y7.2394
X0.0968Y7.2449
X0.0912Y7.2505
X0.0856Y7.2561
X0.0801Y7.2617
X0.0745Y7.2672
X0.0689Y7.2728
X0.0634Y7.2784
X0.0578Y7.2839
X0.0522Y7.2895
X0.0467Y7.2951
X0.0411Y7.3006
X0.0355Y7.3062
X0.0299Y7.3118
X0.0244Y7.3173
X0.0188Y7.3229
X0.0132Y7.3285
X0.0077Y7.334
X0.0021Y7.3396
X-0.0034Y7.3452
X-0.0089Y7.3507
X-0.0145Y7.3563
X-0.0201Y7.3619
X-0.0256Y7.3674
X-0.0312Y7.373
X-0.0368Y7.3786
X-0.0423Y7.3841
X-0.0479Y7.3897
X-0.0535Y7.3953
X-0.059Y7.4008
X-0.0646Y7.4064
X-0.0702Y7.412
X-0.0757Y7.4175
X-0.0813Y7.4231
X-0.0869Y7.4287
X-0.0924Y7.4342
X-0.098Y7.4398
X-0.1036Y7.4454
X-0.1091Y7.451
X-0.1147Y7.4565
X-0.1203Y7.4621
X-0.1259Y7.4677
X-0.1314Y7.4732
X-0.137Y7.4788
X-0.1426Y7.4844
X-0.1481Y7.4899
X-0.1537Y7.4955
X-0.1593Y7.5011
X-0.1648Y7.5066
X-0.1704Y7.5122
X-0.176Y7.5178
X-0.1815Y7.5233
X-0.1871Y7.5289
X-0.1927Y7.5345
X-0.1982Y7.54
X-0.2038Y7.5456
X-0.2094Y7.5512
X-0.2149Y7.5567
X-0.2205Y7.5623
X-0.2261Y7.5679
X-0.2316Y7.5734
X-0.2372Y7.579
X-0.2428Y7.5846
X-0.2483Y7.5901
X-0.2539Y7.5957
X-0.2595Y7.6013
X-0.265Y7.6068
X-0.2706Y7.6124
X-0.2762Y7.618
X-0.2818Y7.6236
X-0.2873Y7.6291
X-0.2929Y7.6347
X-0.2985Y7.6403
X-0.304Y7.6458
X-0.3096Y7.6514
X-0.3152Y7.657
X-0.3207Y7.6625
X-0.3263Y7.6681
X-0.3319Y7.6737
X-0.3374Y7.6792
X-0.343Y7.6848
X-0.3486Y7.6904
X-0.3541Y7.6959
X-0.3597Y7.7015
X-0.3653Y7.7071
X-0.3708Y7.7126
X-0.3764Y7.7182
X-0.382Y7.7238
X-0.3875Y7.7293
X-0.3931Y7.7349
X-0.3987Y7.7405
X-0.4042Y7.746
X-0.4098Y7.7516
X-0.4154Y7.7572
X-0.4209Y7.7627
X-0.421Y7.7628
X-0.4154Y7.7572
X-0.4099Y7.7517
X-0.4043Y7.7461
X-0.3987Y7.7405
X-0.3932Y7.735
X-0.3876Y7.7294
X-0.382Y7.7238
X-0.3765Y7.7183
X-0.3709Y7.7127
X-0.3653Y7.7071
X-0.3598Y7.7016
X-0.3542Y7.696
X-0.3486Y7.6904
X-0.3431Y7.6849
X-0.3375Y7.6793
X-0.3319Y7.6737
X-0.3264Y7.6681
X-0.3208Y7.6626
X-0.3152Y7.657
X-0.3096Y7.6514
X-0.3041Y7.6459
X-0.2985Y7.6403
X-0.2929Y7.6347
X-0.2874Y7.6292
X-0.2818Y7.6236
X-0.2762Y7.618
X-0.2707Y7.6125
X-0.2651Y7.6069
X-0.2595Y7.6013
X-0.254Y7.5958
X-0.2484Y7.5902
X-0.2428Y7.5846
X-0.2373Y7.5791
X-0.2317Y7.5735
X-0.2261Y7.5679
X-0.2206Y7.5624
X-0.215Y7.5568
X-0.2094Y7.5512
X-0.2039Y7.5457
X-0.1983Y7.5401
X-0.1927Y7.5345
X-0.1872Y7.529
X-0.1816Y7.5234
X-0.176Y7.5178
X-0.1705Y7.5123
X-0.1649Y7.5067
X-0.1593Y7.5011
X-0.1537Y7.4955
X-0.1482Y7.49
X-0.1426Y7.4844
X-0.137Y7.4788
X-0.1315Y7.4733
X-0.1259Y7.4677
X-0.1203Y7.4621
X-0.1148Y7.4566
X-0.1092Y7.451
X-0.1036Y7.4454
X-0.0981Y7.4399
X-0.0925Y7.4343
X-0.0869Y7.4287
X-0.0814Y7.4232
X-0.0758Y7.4176
X-0.0702Y7.412
X-0.0647Y7.4065
X-0.0591Y7.4009
X-0.0535Y7.3953
X-0.048Y7.3898
X-0.0424Y7.3842
X-0.0368Y7.3786
X-0.0313Y7.3731
X-0.0257Y7.3675
X-0.0201Y7.3619
X-0.0146Y7.3564
X-0.009Y7.3508
X-0.0034Y7.3452
X0.0021Y7.3397
X0.0076Y7.3341
X0.0132Y7.3285
X0.0188Y7.323
X0.0243Y7.3174
X0.0299Y7.3118
X0.0355Y7.3062
X0.041Y7.3007
X0.0466Y7.2951
X0.0522Y7.2895
X0.0577Y7.284
X0.0633Y7.2784
X0.0689Y7.2728
X0.0744Y7.2673
X0.08Y7.2617
X0.0856Y7.2561
X0.0911Y7.2506
X0.0967Y7.245
X0.1023Y7.2394
X0.1078Y7.2339
X0.1134Y7.2283
X0.119Y7.2227
X0.1245Y7.2172
X0.1301Y7.2116
X0.1357Y7.206
X0.1413Y7.2005
X0.1468Y7.1949
X0.1524Y7.1893
X0.158Y7.1838
X0.1635Y7.1782
X0.1691Y7.1726
X0.1747Y7.1671
X0.1802Y7.1615
X0.1858Y7.1559
X0.1914Y7.1504
X0.1969Y7.1448
X0.2025Y7.1392
X0.2081Y7.1337
X0.2136Y7.1281
X0.2192Y7.1225
X0.2248Y7.1169
X0.2303Y7.1114
X0.2359Y7.1058
X0.2415Y7.1002
X0.247Y7.0947
X0.2526Y7.0891
X0.2582Y7.0835
X0.2637Y7.078
X0.2693Y7.0724
X0.2749Y7.0668
X0.2804Y7.0613
X0.286Y7.0557
X0.2916Y7.0501
X0.2972Y7.0446
X0.3027Y7.039
X0.3083Y7.0334
X0.3139Y7.0279
X0.3194Y7.0223
X0.325Y7.0167
X0.3306Y7.0112
X0.3361Y7.0056
X0.3417Y7
X0.3473Y6.9945
X0.3528Y6.9889
X0.3584Y6.9833
X0.364Y6.9778
X0.3695Y6.9722
X0.3751Y6.9666
X0.3807Y6.9611
X0.3862Y6.9555
X0.3918Y6.9499
X0.3974Y6.9444
X0.4029Y6.9388
X0.4085Y6.9332
X0.4141Y6.9276
X0.4196Y6.9221
X0.4252Y6.9165
X0.4308Y6.9109
X0.4363Y6.9054
X0.4419Y6.8998
X0.4475Y6.8942
X0.4531Y6.8887
X0.4586Y6.8831
X0.4642Y6.8775
X0.4698Y6.872
X0.4753Y6.8664
X0.4809Y6.8608
X0.4865Y6.8553
X0.492Y6.8497
X0.4976Y6.8441
X0.5032Y6.8386
X0.5087Y6.833
X0.5143Y6.8274
X0.5199Y6.8219
X0.5254Y6.8163
X0.531Y6.8107
X0.5366Y6.8052
X0.5421Y6.7996
X0.5477Y6.794
X0.5533Y6.7885
X0.5588Y6.7829
X0.5644Y6.7773
X0.57Y6.7718
X0.5755Y6.7662
X0.5811Y6.7606
X0.5867Y6.755
X0.5922Y6.7495
X0.5978Y6.7439
X0.6034Y6.7383
X0.609Y6.7328
X0.6145Y6.7272
X0.6201Y6.7216
X0.6257Y6.7161
X0.6312Y6.7105
X0.6368Y6.7049
X0.6424Y6.6994
X0.6479Y6.6938
X0.6535Y6.6882
X0.6591Y6.6827
X0.6646Y6.6771
X0.6702Y6.6715
X0.6758Y6.666
X0.6813Y6.6604
X0.6869Y6.6548
X0.6925Y6.6493
X0.698Y6.6437
X0.7036Y6.6381
X0.7092Y6.6326
X0.7147Y6.627
X0.7203Y6.6214
X0.7259Y6.6159
X0.7314Y6.6103
X0.737Y6.6047
X0.7426Y6.5992
X0.7481Y6.5936
X0.7537Y6.588
X0.7593Y6.5825
X0.7649Y6.5769
Y6.5768
Z-0.125F19.68
X0.7593Y6.5824F39.37
X0.7538Y6.588
X0.7482Y6.5935
X0.7426Y6.5991
X0.7371Y6.6047
X0.7315Y6.6102
X0.7259Y6.6158
X0.7204Y6.6214
X0.7148Y6.6269
X0.7092Y6.6325
X0.7037Y6.6381
X0.6981Y6.6436
X0.6925Y6.6492
X0.687Y6.6548
X0.6814Y6.6603
X0.6758Y6.6659
X0.6703Y6.6715
X0.6647Y6.677
X0.6591Y6.6826
X0.6536Y6.6882
X0.648Y6.6937
X0.6424Y6.6993
X0.6368Y6.7049
X0.6313Y6.7105
X0.6257Y6.716
X0.6201Y6.7216
X0.6146Y6.7272
X0.609Y6.7327
X0.6034Y6.7383
X0.5979Y6.7439
X0.5923Y6.7494
X0.5867Y6.755
X0.5812Y6.7606
X0.5756Y6.7661
X0.57Y6.7717
X0.5645Y6.7773
X0.5589Y6.7828
X0.5533Y6.7884
X0.5478Y6.794
X0.5422Y6.7995
X0.5366Y6.8051
X0.5311Y6.8107
X0.5255Y6.8162
X0.5199Y6.8218
X0.5144Y6.8274
X0.5088Y6.8329
X0.5032Y6.8385
X0.4977Y6.8441
X0.4921Y6.8496
X0.4865Y6.8552
X0.4809Y6.8608
X0.4754Y6.8663
X0.4698Y6.8719
X0.4642Y6.8775
X0.4587Y6.8831
X0.4531Y6.8886
X0.4475Y6.8942
X0.442Y6.8998
X0.4364Y6.9053
X0.4308Y6.9109
X0.4253Y6.9165
X0.4197Y6.922
X0.4141Y6.9276
X0.4086Y6.9332
X0.403Y6.9387
X0.3974Y6.9443
X0.3919Y6.9499
X0.3863Y6.9554
X0.3807Y6.961
X0.3752Y6.9666
X0.3696Y6.9721
X0.364Y6.9777
X0.3585Y6.9833
X0.3529Y6.9888
X0.3473Y6.9944
X0.3418Y7
X0.3362Y7.0055
X0.3306Y7.0111
X0.325Y7.0167
X0.3195Y7.0222
X0.3139Y7.0278
X0.3083Y7.0334
X0.3028Y7.0389
X0.2972Y7.0445
X0.2916Y7.0501
X0.2861Y7.0556
X0.2805Y7.0612
X0.2749Y7.0668
X0.2694Y7.0724
X0.2638Y7.0779
X0.2582Y7.0835
X0.2527Y7.0891
X0.2471Y7.0946
X0.2415Y7.1002
X0.236Y7.1058
X0.2304Y7.1113
X0.2248Y7.1169
X0.2193Y7.1225
X0.2137Y7.128
X0.2081Y7.1336
X0.2026Y7.1392
X0.197Y7.1447
X0.1914Y7.1503
X0.1858Y7.1559
X0.1803Y7.1614
X0.1747Y7.167
X0.1691Y7.1726
X0.1636Y7.1781
X0.158Y7.1837
X0.1524Y7.1893
X0.1469Y7.1948
X0.1413Y7.2004
X0.1357Y7.206
X0.1302Y7.2115
X0.1246Y7.2171
X0.119Y7.2227
X0.1135Y7.2282
X0.1079Y7.2338
X0.1023Y7.2394
X0.0968Y7.2449
X0.0912Y7.2505
X0.0856Y7.2561
X0.0801Y7.2617
X0.0745Y7.2672
X0.0689Y7.2728
X0.0634Y7.2784
X0.0578Y7.2839
X0.0522Y7.2895
X0.0467Y7.2951
X0.0411Y7.3006
X0.0355Y7.3062
X0.0299Y7.3118
X0.0244Y7.3173
X0.0188Y7.3229
X0.0132Y7.3285
X0.0077Y7.334
X0.0021Y7.3396
X-0.0034Y7.3452
X-0.0089Y7.3507
X-0.0145Y7.3563
X-0.0201Y7.3619
X-0.0256Y7.3674
X-0.0312Y7.373
X-0.0368Y7.3786
X-0.0423Y7.3841
X-0.0479Y7.3897
X-0.0535Y7.3953
X-0.059Y7.4008
X-0.0646Y7.4064
X-0.0702Y7.412
X-0.0757Y7.4175
X-0.0813Y7.4231
X-0.0869Y7.4287
X-0.0924Y7.4342
X-0.098Y7.4398
X-0.1036Y7.4454
X-0.1091Y7.451
X-0.1147Y7.4565
X-0.1203Y7.4621
X-0.1259Y7.4677
X-0.1314Y7.4732
X-0.137Y7.4788
X-0.1426Y7.4844
X-0.1481Y7.4899
X-0.1537Y7.4955
X-0.1593Y7.5011
X-0.1648Y7.5066
X-0.1704Y7.5122
X-0.176Y7.5178
X-0.1815Y7.5233
X-0.1871Y7.5289
X-0.1927Y7.5345
X-0.1982Y7.54
X-0.2038Y7.5456
X-0.2094Y7.5512
X-0.2149Y7.5567
X-0.2205Y7.5623
X-0.2261Y7.5679
X-0.2316Y7.5734
X-0.2372Y7.579
X-0.2428Y7.5846
X-0.2483Y7.5901
X-0.2539Y7.5957
X-0.2595Y7.6013
X-0.265Y7.6068
X-0.2706Y7.6124
X-0.2762Y7.618
X-0.2818Y7.6236
X-0.2873Y7.6291
X-0.2929Y7.6347
X-0.2985Y7.6403
X-0.304Y7.6458
X-0.3096Y7.6514
X-0.3152Y7.657
X-0.3207Y7.6625
X-0.3263Y7.6681
X-0.3319Y7.6737
X-0.3374Y7.6792
X-0.343Y7.6848
X-0.3486Y7.6904
X-0.3541Y7.6959
X-0.3597Y7.7015
X-0.3653Y7.7071
X-0.3708Y7.7126
X-0.3764Y7.7182
X-0.382Y7.7238
X-0.3875Y7.7293
X-0.3931Y7.7349
X-0.3987Y7.7405
X-0.4042Y7.746
X-0.4098Y7.7516
X-0.4154Y7.7572
X-0.4209Y7.7627
X-0.421Y7.7628
X-0.4154Y7.7572
X-0.4099Y7.7517
X-0.4043Y7.7461
X-0.3987Y7.7405
X-0.3932Y7.735
X-0.3876Y7.7294
X-0.382Y7.7238
X-0.3765Y7.7183
X-0.3709Y7.7127
X-0.3653Y7.7071
X-0.3598Y7.7016
X-0.3542Y7.696
X-0.3486Y7.6904
X-0.3431Y7.6849
X-0.3375Y7.6793
X-0.3319Y7.6737
X-0.3264Y7.6681
X-0.3208Y7.6626
X-0.3152Y7.657
X-0.3096Y7.6514
X-0.3041Y7.6459
X-0.2985Y7.6403
X-0.2929Y7.6347
X-0.2874Y7.6292
X-0.2818Y7.6236
X-0.2762Y7.618
X-0.2707Y7.6125
X-0.2651Y7.6069
X-0.2595Y7.6013
X-0.254Y7.5958
X-0.2484Y7.5902
X-0.2428Y7.5846
X-0.2373Y7.5791
X-0.2317Y7.5735
X-0.2261Y7.5679
X-0.2206Y7.5624
X-0.215Y7.5568
X-0.2094Y7.5512
X-0.2039Y7.5457
X-0.1983Y7.5401
X-0.1927Y7.5345
X-0.1872Y7.529
X-0.1816Y7.5234
X-0.176Y7.5178
X-0.1705Y7.5123
X-0.1649Y7.5067
X-0.1593Y7.5011
X-0.1537Y7.4955
X-0.1482Y7.49
X-0.1426Y7.4844
X-0.137Y7.4788
X-0.1315Y7.4733
X-0.1259Y7.4677
X-0.1203Y7.4621
X-0.1148Y7.4566
X-0.1092Y7.451
X-0.1036Y7.4454
X-0.0981Y7.4399
X-0.0925Y7.4343
X-0.0869Y7.4287
X-0.0814Y7.4232
X-0.0758Y7.4176
X-0.0702Y7.412
X-0.0647Y7.4065
X-0.0591Y7.4009
X-0.0535Y7.3953
X-0.048Y7.3898
X-0.0424Y7.3842
X-0.0368Y7.3786
X-0.0313Y7.3731
X-0.0257Y7.3675
X-0.0201Y7.3619
X-0.0146Y7.3564
X-0.009Y7.3508
X-0.0034Y7.3452
X0.0021Y7.3397
X0.0076Y7.3341
X0.0132Y7.3285
X0.0188Y7.323
X0.0243Y7.3174
X0.0299Y7.3118
X0.0355Y7.3062
X0.041Y7.3007
X0.0466Y7.2951
X0.0522Y7.2895
X0.0577Y7.284
X0.0633Y7.2784
X0.0689Y7.2728
X0.0744Y7.2673
X0.08Y7.2617
X0.0856Y7.2561
X0.0911Y7.2506
X0.0967Y7.245
X0.1023Y7.2394
X0.1078Y7.2339
X0.1134Y7.2283
X0.119Y7.2227
X0.1245Y7.2172
X0.1301Y7.2116
X0.1357Y7.206
X0.1413Y7.2005
X0.1468Y7.1949
X0.1524Y7.1893
X0.158Y7.1838
X0.1635Y7.1782
X0.1691Y7.1726
X0.1747Y7.1671
X0.1802Y7.1615
X0.1858Y7.1559
X0.1914Y7.1504
X0.1969Y7.1448
X0.2025Y7.1392
X0.2081Y7.1337
X0.2136Y7.1281
X0.2192Y7.1225
X0.2248Y7.1169
X0.2303Y7.1114
X0.2359Y7.1058
X0.2415Y7.1002
X0.247Y7.0947
X0.2526Y7.0891
X0.2582Y7.0835
X0.2637Y7.078
X0.2693Y7.0724
X0.2749Y7.0668
X0.2804Y7.0613
X0.286Y7.0557
X0.2916Y7.0501
X0.2972Y7.0446
X0.3027Y7.039
X0.3083Y7.0334
X0.3139Y7.0279
X0.3194Y7.0223
X0.325Y7.0167
X0.3306Y7.0112
X0.3361Y7.0056
X0.3417Y7
X0.3473Y6.9945
X0.3528Y6.9889
X0.3584Y6.9833
X0.364Y6.9778
X0.3695Y6.9722
X0.3751Y6.9666
X0.3807Y6.9611
X0.3862Y6.9555
X0.3918Y6.9499
X0.3974Y6.9444
X0.4029Y6.9388
X0.4085Y6.9332
X0.4141Y6.9276
X0.4196Y6.9221
X0.4252Y6.9165
X0.4308Y6.9109
X0.4363Y6.9054
X0.4419Y6.8998
X0.4475Y6.8942
X0.4531Y6.8887
X0.4586Y6.8831
X0.4642Y6.8775
X0.4698Y6.872
X0.4753Y6.8664
X0.4809Y6.8608
X0.4865Y6.8553
X0.492Y6.8497
X0.4976Y6.8441
X0.5032Y6.8386
X0.5087Y6.833
X0.5143Y6.8274
X0.5199Y6.8219
X0.5254Y6.8163
X0.531Y6.8107
X0.5366Y6.8052
X0.5421Y6.7996
X0.5477Y6.794
X0.5533Y6.7885
X0.5588Y6.7829
X0.5644Y6.7773
X0.57Y6.7718
X0.5755Y6.7662
X0.5811Y6.7606
X0.5867Y6.755
X0.5922Y6.7495
X0.5978Y6.7439
X0.6034Y6.7383
X0.609Y6.7328
X0.6145Y6.7272
X0.6201Y6.7216
X0.6257Y6.7161
X0.6312Y6.7105
X0.6368Y6.7049
X0.6424Y6.6994
X0.6479Y6.6938
X0.6535Y6.6882
X0.6591Y6.6827
X0.6646Y6.6771
X0.6702Y6.6715
X0.6758Y6.666
X0.6813Y6.6604
X0.6869Y6.6548
X0.6925Y6.6493
X0.698Y6.6437
X0.7036Y6.6381
X0.7092Y6.6326
X0.7147Y6.627
X0.7203Y6.6214
X0.7259Y6.6159
X0.7314Y6.6103
X0.737Y6.6047
X0.7426Y6.5992
X0.7481Y6.5936
X0.7537Y6.588
X0.7593Y6.5825
X0.7649Y6.5769
Y6.5768
Z-0.1874F19.68
X0.7593Y6.5824F39.37
X0.7538Y6.588
X0.7482Y6.5935
X0.7426Y6.5991
X0.7371Y6.6047
X0.7315Y6.6102
X0.7259Y6.6158
X0.7204Y6.6214
X0.7148Y6.6269
X0.7092Y6.6325
X0.7037Y6.6381
X0.6981Y6.6436
X0.6925Y6.6492
X0.687Y6.6548
X0.6814Y6.6603
X0.6758Y6.6659
X0.6703Y6.6715
X0.6647Y6.677
X0.6591Y6.6826
X0.6536Y6.6882
X0.648Y6.6937
X0.6424Y6.6993
X0.6368Y6.7049
X0.6313Y6.7105
X0.6257Y6.716
X0.6201Y6.7216
X0.6146Y6.7272
X0.609Y6.7327
X0.6034Y6.7383
X0.5979Y6.7439
X0.5923Y6.7494
X0.5867Y6.755
X0.5812Y6.7606
X0.5756Y6.7661
X0.57Y6.7717
X0.5645Y6.7773
X0.5589Y6.7828
X0.5533Y6.7884
X0.5478Y6.794
X0.5422Y6.7995
X0.5366Y6.8051
X0.5311Y6.8107
X0.5255Y6.8162
X0.5199Y6.8218
X0.5144Y6.8274
X0.5088Y6.8329
X0.5032Y6.8385
X0.4977Y6.8441
X0.4921Y6.8496
X0.4865Y6.8552
X0.4809Y6.8608
X0.4754Y6.8663
X0.4698Y6.8719
X0.4642Y6.8775
X0.4587Y6.8831
X0.4531Y6.8886
X0.4475Y6.8942
X0.442Y6.8998
X0.4364Y6.9053
X0.4308Y6.9109
X0.4253Y6.9165
X0.4197Y6.922
X0.4141Y6.9276
X0.4086Y6.9332
X0.403Y6.9387
X0.3974Y6.9443
X0.3919Y6.9499
X0.3863Y6.9554
X0.3807Y6.961
X0.3752Y6.9666
X0.3696Y6.9721
X0.364Y6.9777
X0.3585Y6.9833
X0.3529Y6.9888
X0.3473Y6.9944
X0.3418Y7
X0.3362Y7.0055
X0.3306Y7.0111
X0.325Y7.0167
X0.3195Y7.0222
X0.3139Y7.0278
X0.3083Y7.0334
X0.3028Y7.0389
X0.2972Y7.0445
X0.2916Y7.0501
X0.2861Y7.0556
X0.2805Y7.0612
X0.2749Y7.0668
X0.2694Y7.0724
X0.2638Y7.0779
X0.2582Y7.0835
X0.2527Y7.0891
X0.2471Y7.0946
X0.2415Y7.1002
X0.236Y7.1058
X0.2304Y7.1113
X0.2248Y7.1169
X0.2193Y7.1225
X0.2137Y7.128
X0.2081Y7.1336
X0.2026Y7.1392
X0.197Y7.1447
X0.1914Y7.1503
X0.1858Y7.1559
X0.1803Y7.1614
X0.1747Y7.167
X0.1691Y7.1726
X0.1636Y7.1781
X0.158Y7.1837
X0.1524Y7.1893
X0.1469Y7.1948
X0.1413Y7.2004
X0.1357Y7.206
X0.1302Y7.2115
X0.1246Y7.2171
X0.119Y7.2227
X0.1135Y7.2282
X0.1079Y7.2338
X0.1023Y7.2394
X0.0968Y7.2449
X0.0912Y7.2505
X0.0856Y7.2561
X0.0801Y7.2617
X0.0745Y7.2672
X0.0689Y7.2728
X0.0634Y7.2784
X0.0578Y7.2839
X0.0522Y7.2895
X0.0467Y7.2951
X0.0411Y7.3006
X0.0355Y7.3062
X0.0299Y7.3118
X0.0244Y7.3173
X0.0188Y7.3229
X0.0132Y7.3285
X0.0077Y7.334
X0.0021Y7.3396
X-0.0034Y7.3452
X-0.0089Y7.3507
X-0.0145Y7.3563
X-0.0201Y7.3619
X-0.0256Y7.3674
X-0.0312Y7.373
X-0.0368Y7.3786
X-0.0423Y7.3841
X-0.0479Y7.3897
X-0.0535Y7.3953
X-0.059Y7.4008
X-0.0646Y7.4064
X-0.0702Y7.412
X-0.0757Y7.4175
X-0.0813Y7.4231
X-0.0869Y7.4287
X-0.0924Y7.4342
X-0.098Y7.4398
X-0.1036Y7.4454
X-0.1091Y7.451
X-0.1147Y7.4565
X-0.1203Y7.4621
X-0.1259Y7.4677
X-0.1314Y7.4732
X-0.137Y7.4788
X-0.1426Y7.4844
X-0.1481Y7.4899
X-0.1537Y7.4955
X-0.1593Y7.5011
X-0.1648Y7.5066
X-0.1704Y7.5122
X-0.176Y7.5178
X-0.1815Y7.5233
X-0.1871Y7.5289
X-0.1927Y7.5345
X-0.1982Y7.54
X-0.2038Y7.5456
X-0.2094Y7.5512
X-0.2149Y7.5567
X-0.2205Y7.5623
X-0.2261Y7.5679
X-0.2316Y7.5734
X-0.2372Y7.579
X-0.2428Y7.5846
X-0.2483Y7.5901
X-0.2539Y7.5957
X-0.2595Y7.6013
X-0.265Y7.6068
X-0.2706Y7.6124
X-0.2762Y7.618
X-0.2818Y7.6236
X-0.2873Y7.6291
X-0.2929Y7.6347
X-0.2985Y7.6403
X-0.304Y7.6458
X-0.3096Y7.6514
X-0.3152Y7.657
X-0.3207Y7.6625
X-0.3263Y7.6681
X-0.3319Y7.6737
X-0.3374Y7.6792
X-0.343Y7.6848
X-0.3486Y7.6904
X-0.3541Y7.6959
X-0.3597Y7.7015
X-0.3653Y7.7071
X-0.3708Y7.7126
X-0.3764Y7.7182
X-0.382Y7.7238
X-0.3875Y7.7293
X-0.3931Y7.7349
X-0.3987Y7.7405
X-0.4042Y7.746
X-0.4098Y7.7516
X-0.4154Y7.7572
X-0.4209Y7.7627
X-0.421Y7.7628
X-0.4154Y7.7572
X-0.4099Y7.7517
X-0.4043Y7.7461
X-0.3987Y7.7405
X-0.3932Y7.735
X-0.3876Y7.7294
X-0.382Y7.7238
X-0.3765Y7.7183
X-0.3709Y7.7127
X-0.3653Y7.7071
X-0.3598Y7.7016
X-0.3542Y7.696
X-0.3486Y7.6904
X-0.3431Y7.6849
X-0.3375Y7.6793
X-0.3319Y7.6737
X-0.3264Y7.6681
X-0.3208Y7.6626
X-0.3152Y7.657
X-0.3096Y7.6514
X-0.3041Y7.6459
X-0.2985Y7.6403
X-0.2929Y7.6347
X-0.2874Y7.6292
X-0.2818Y7.6236
X-0.2762Y7.618
X-0.2707Y7.6125
X-0.2651Y7.6069
X-0.2595Y7.6013
X-0.254Y7.5958
X-0.2484Y7.5902
X-0.2428Y7.5846
X-0.2373Y7.5791
X-0.2317Y7.5735
X-0.2261Y7.5679
X-0.2206Y7.5624
X-0.215Y7.5568
X-0.2094Y7.5512
X-0.2039Y7.5457
X-0.1983Y7.5401
X-0.1927Y7.5345
X-0.1872Y7.529
X-0.1816Y7.5234
X-0.176Y7.5178
X-0.1705Y7.5123
X-0.1649Y7.5067
X-0.1593Y7.5011
X-0.1537Y7.4955
X-0.1482Y7.49
X-0.1426Y7.4844
X-0.137Y7.4788
X-0.1315Y7.4733
X-0.1259Y7.4677
X-0.1203Y7.4621
X-0.1148Y7.4566
X-0.1092Y7.451
X-0.1036Y7.4454
X-0.0981Y7.4399
X-0.0925Y7.4343
X-0.0869Y7.4287
X-0.0814Y7.4232
X-0.0758Y7.4176
X-0.0702Y7.412
X-0.0647Y7.4065
X-0.0591Y7.4009
X-0.0535Y7.3953
X-0.048Y7.3898
X-0.0424Y7.3842
X-0.0368Y7.3786
X-0.0313Y7.3731
X-0.0257Y7.3675
X-0.0201Y7.3619
X-0.0146Y7.3564
X-0.009Y7.3508
X-0.0034Y7.3452
X0.0021Y7.3397
X0.0076Y7.3341
X0.0132Y7.3285
X0.0188Y7.323
X0.0243Y7.3174
X0.0299Y7.3118
X0.0355Y7.3062
X0.041Y7.3007
X0.0466Y7.2951
X0.0522Y7.2895
X0.0577Y7.284
X0.0633Y7.2784
X0.0689Y7.2728
X0.0744Y7.2673
X0.08Y7.2617
X0.0856Y7.2561
X0.0911Y7.2506
X0.0967Y7.245
X0.1023Y7.2394
X0.1078Y7.2339
X0.1134Y7.2283
X0.119Y7.2227
X0.1245Y7.2172
X0.1301Y7.2116
X0.1357Y7.206
X0.1413Y7.2005
X0.1468Y7.1949
X0.1524Y7.1893
X0.158Y7.1838
X0.1635Y7.1782
X0.1691Y7.1726
X0.1747Y7.1671
X0.1802Y7.1615
X0.1858Y7.1559
X0.1914Y7.1504
X0.1969Y7.1448
X0.2025Y7.1392
X0.2081Y7.1337
X0.2136Y7.1281
X0.2192Y7.1225
X0.2248Y7.1169
X0.2303Y7.1114
X0.2359Y7.1058
X0.2415Y7.1002
X0.247Y7.0947
X0.2526Y7.0891
X0.2582Y7.0835
X0.2637Y7.078
X0.2693Y7.0724
X0.2749Y7.0668
X0.2804Y7.0613
X0.286Y7.0557
X0.2916Y7.0501
X0.2972Y7.0446
X0.3027Y7.039
X0.3083Y7.0334
X0.3139Y7.0279
X0.3194Y7.0223
X0.325Y7.0167
X0.3306Y7.0112
X0.3361Y7.0056
X0.3417Y7
X0.3473Y6.9945
X0.3528Y6.9889
X0.3584Y6.9833
X0.364Y6.9778
X0.3695Y6.9722
X0.3751Y6.9666
X0.3807Y6.9611
X0.3862Y6.9555
X0.3918Y6.9499
X0.3974Y6.9444
X0.4029Y6.9388
X0.4085Y6.9332
X0.4141Y6.9276
X0.4196Y6.9221
X0.4252Y6.9165
X0.4308Y6.9109
X0.4363Y6.9054
X0.4419Y6.8998
X0.4475Y6.8942
X0.4531Y6.8887
X0.4586Y6.8831
X0.4642Y6.8775
X0.4698Y6.872
X0.4753Y6.8664
X0.4809Y6.8608
X0.4865Y6.8553
X0.492Y6.8497
X0.4976Y6.8441
X0.5032Y6.8386
X0.5087Y6.833
X0.5143Y6.8274
X0.5199Y6.8219
X0.5254Y6.8163
X0.531Y6.8107
X0.5366Y6.8052
X0.5421Y6.7996
X0.5477Y6.794
X0.5533Y6.7885
X0.5588Y6.7829
X0.5644Y6.7773
X0.57Y6.7718
X0.5755Y6.7662
X0.5811Y6.7606
X0.5867Y6.755
X0.5922Y6.7495
X0.5978Y6.7439
X0.6034Y6.7383
X0.609Y6.7328
X0.6145Y6.7272
X0.6201Y6.7216
X0.6257Y6.7161
X0.6312Y6.7105
X0.6368Y6.7049
X0.6424Y6.6994
X0.6479Y6.6938
X0.6535Y6.6882
X0.6591Y6.6827
X0.6646Y6.6771
X0.6702Y6.6715
X0.6758Y6.666
X0.6813Y6.6604
X0.6869Y6.6548
X0.6925Y6.6493
X0.698Y6.6437
X0.7036Y6.6381
X0.7092Y6.6326
X0.7147Y6.627
X0.7203Y6.6214
X0.7259Y6.6159
X0.7314Y6.6103
X0.737Y6.6047
X0.7426Y6.5992
X0.7481Y6.5936
X0.7537Y6.588
X0.7593Y6.5825
X0.7649Y6.5769
Y6.5768
Z-0.25F19.68
X0.7593Y6.5824F39.37
X0.7538Y6.588
X0.7482Y6.5935
X0.7426Y6.5991
X0.7371Y6.6047
X0.7315Y6.6102
X0.7259Y6.6158
X0.7204Y6.6214
X0.7148Y6.6269
X0.7092Y6.6325
X0.7037Y6.6381
X0.6981Y6.6436
X0.6925Y6.6492
X0.687Y6.6548
X0.6814Y6.6603
X0.6758Y6.6659
X0.6703Y6.6715
X0.6647Y6.677
X0.6591Y6.6826
X0.6536Y6.6882
X0.648Y6.6937
X0.6424Y6.6993
X0.6368Y6.7049
X0.6313Y6.7105
X0.6257Y6.716
X0.6201Y6.7216
X0.6146Y6.7272
X0.609Y6.7327
X0.6034Y6.7383
X0.5979Y6.7439
X0.5923Y6.7494
X0.5867Y6.755
X0.5812Y6.7606
X0.5756Y6.7661
X0.57Y6.7717
X0.5645Y6.7773
X0.5589Y6.7828
X0.5533Y6.7884
X0.5478Y6.794
X0.5422Y6.7995
X0.5366Y6.8051
X0.5311Y6.8107
X0.5255Y6.8162
X0.5199Y6.8218
X0.5144Y6.8274
X0.5088Y6.8329
X0.5032Y6.8385
X0.4977Y6.8441
X0.4921Y6.8496
X0.4865Y6.8552
X0.4809Y6.8608
X0.4754Y6.8663
X0.4698Y6.8719
X0.4642Y6.8775
X0.4587Y6.8831
X0.4531Y6.8886
X0.4475Y6.8942
X0.442Y6.8998
X0.4364Y6.9053
X0.4308Y6.9109
X0.4253Y6.9165
X0.4197Y6.922
X0.4141Y6.9276
X0.4086Y6.9332
X0.403Y6.9387
X0.3974Y6.9443
X0.3919Y6.9499
X0.3863Y6.9554
X0.3807Y6.961
X0.3752Y6.9666
X0.3696Y6.9721
X0.364Y6.9777
X0.3585Y6.9833
X0.3529Y6.9888
X0.3473Y6.9944
X0.3418Y7
X0.3362Y7.0055
X0.3306Y7.0111
X0.325Y7.0167
X0.3195Y7.0222
X0.3139Y7.0278
X0.3083Y7.0334
X0.3028Y7.0389
X0.2972Y7.0445
X0.2916Y7.0501
X0.2861Y7.0556
X0.2805Y7.0612
X0.2749Y7.0668
X0.2694Y7.0724
X0.2638Y7.0779
X0.2582Y7.0835
X0.2527Y7.0891
X0.2471Y7.0946
X0.2415Y7.1002
X0.236Y7.1058
X0.2304Y7.1113
X0.2248Y7.1169
X0.2193Y7.1225
X0.2137Y7.128
X0.2081Y7.1336
X0.2026Y7.1392
X0.197Y7.1447
X0.1914Y7.1503
X0.1858Y7.1559
X0.1803Y7.1614
X0.1747Y7.167
X0.1691Y7.1726
X0.1636Y7.1781
X0.158Y7.1837
X0.1524Y7.1893
X0.1469Y7.1948
X0.1413Y7.2004
X0.1357Y7.206
X0.1302Y7.2115
X0.1246Y7.2171
X0.119Y7.2227
X0.1135Y7.2282
X0.1079Y7.2338
X0.1023Y7.2394
X0.0968Y7.2449
X0.0912Y7.2505
X0.0856Y7.2561
X0.0801Y7.2617
X0.0745Y7.2672
X0.0689Y7.2728
X0.0634Y7.2784
X0.0578Y7.2839
X0.0522Y7.2895
X0.0467Y7.2951
X0.0411Y7.3006
X0.0355Y7.3062
X0.0299Y7.3118
X0.0244Y7.3173
X0.0188Y7.3229
X0.0132Y7.3285
X0.0077Y7.334
X0.0021Y7.3396
X-0.0034Y7.3452
X-0.0089Y7.3507
X-0.0145Y7.3563
X-0.0201Y7.3619
X-0.0256Y7.3674
X-0.0312Y7.373
X-0.0368Y7.3786
X-0.0423Y7.3841
X-0.0479Y7.3897
X-0.0535Y7.3953
X-0.059Y7.4008
X-0.0646Y7.4064
X-0.0702Y7.412
X-0.0757Y7.4175
X-0.0813Y7.4231
X-0.0869Y7.4287
X-0.0924Y7.4342
X-0.098Y7.4398
X-0.1036Y7.4454
X-0.1091Y7.451
X-0.1147Y7.4565
X-0.1203Y7.4621
X-0.1259Y7.4677
X-0.1314Y7.4732
X-0.137Y7.4788
X-0.1426Y7.4844
X-0.1481Y7.4899
X-0.1537Y7.4955
X-0.1593Y7.5011
X-0.1648Y7.5066
X-0.1704Y7.5122
X-0.176Y7.5178
X-0.1815Y7.5233
X-0.1871Y7.5289
X-0.1927Y7.5345
X-0.1982Y7.54
X-0.2038Y7.5456
X-0.2094Y7.5512
X-0.2149Y7.5567
X-0.2205Y7.5623
X-0.2261Y7.5679
X-0.2316Y7.5734
X-0.2372Y7.579
X-0.2428Y7.5846
X-0.2483Y7.5901
X-0.2539Y7.5957
X-0.2595Y7.6013
X-0.265Y7.6068
X-0.2706Y7.6124
X-0.2762Y7.618
X-0.2818Y7.6236
X-0.2873Y7.6291
X-0.2929Y7.6347
X-0.2985Y7.6403
X-0.304Y7.6458
X-0.3096Y7.6514
X-0.3152Y7.657
X-0.3207Y7.6625
X-0.3263Y7.6681
X-0.3319Y7.6737
X-0.3374Y7.6792
X-0.343Y7.6848
X-0.3486Y7.6904
X-0.3541Y7.6959
X-0.3597Y7.7015
X-0.3653Y7.7071
X-0.3708Y7.7126
X-0.3764Y7.7182
X-0.382Y7.7238
X-0.3875Y7.7293
X-0.3931Y7.7349
X-0.3987Y7.7405
X-0.4042Y7.746
X-0.4098Y7.7516
X-0.4154Y7.7572
X-0.4209Y7.7627
X-0.421Y7.7628
X-0.4154Y7.7572
X-0.4099Y7.7517
X-0.4043Y7.7461
X-0.3987Y7.7405
X-0.3932Y7.735
X-0.3876Y7.7294
X-0.382Y7.7238
X-0.3765Y7.7183
X-0.3709Y7.7127
X-0.3653Y7.7071
X-0.3598Y7.7016
X-0.3542Y7.696
X-0.3486Y7.6904
X-0.3431Y7.6849
X-0.3375Y7.6793
X-0.3319Y7.6737
X-0.3264Y7.6681
X-0.3208Y7.6626
X-0.3152Y7.657
X-0.3096Y7.6514
X-0.3041Y7.6459
X-0.2985Y7.6403
X-0.2929Y7.6347
X-0.2874Y7.6292
X-0.2818Y7.6236
X-0.2762Y7.618
X-0.2707Y7.6125
X-0.2651Y7.6069
X-0.2595Y7.6013
X-0.254Y7.5958
X-0.2484Y7.5902
X-0.2428Y7.5846
X-0.2373Y7.5791
X-0.2317Y7.5735
X-0.2261Y7.5679
X-0.2206Y7.5624
X-0.215Y7.5568
X-0.2094Y7.5512
X-0.2039Y7.5457
X-0.1983Y7.5401
X-0.1927Y7.5345
X-0.1872Y7.529
X-0.1816Y7.5234
X-0.176Y7.5178
X-0.1705Y7.5123
X-0.1649Y7.5067
X-0.1593Y7.5011
X-0.1537Y7.4955
X-0.1482Y7.49
X-0.1426Y7.4844
X-0.137Y7.4788
X-0.1315Y7.4733
X-0.1259Y7.4677
X-0.1203Y7.4621
X-0.1148Y7.4566
X-0.1092Y7.451
X-0.1036Y7.4454
X-0.0981Y7.4399
X-0.0925Y7.4343
X-0.0869Y7.4287
X-0.0814Y7.4232
X-0.0758Y7.4176
X-0.0702Y7.412
X-0.0647Y7.4065
X-0.0591Y7.4009
X-0.0535Y7.3953
X-0.048Y7.3898
X-0.0424Y7.3842
X-0.0368Y7.3786
X-0.0313Y7.3731
X-0.0257Y7.3675
X-0.0201Y7.3619
X-0.0146Y7.3564
X-0.009Y7.3508
X-0.0034Y7.3452
X0.0021Y7.3397
X0.0076Y7.3341
X0.0132Y7.3285
X0.0188Y7.323
X0.0243Y7.3174
X0.0299Y7.3118
X0.0355Y7.3062
X0.041Y7.3007
X0.0466Y7.2951
X0.0522Y7.2895
X0.0577Y7.284
X0.0633Y7.2784
X0.0689Y7.2728
X0.0744Y7.2673
X0.08Y7.2617
X0.0856Y7.2561
X0.0911Y7.2506
X0.0967Y7.245
X0.1023Y7.2394
X0.1078Y7.2339
X0.1134Y7.2283
X0.119Y7.2227
X0.1245Y7.2172
X0.1301Y7.2116
X0.1357Y7.206
X0.1413Y7.2005
X0.1468Y7.1949
X0.1524Y7.1893
X0.158Y7.1838
X0.1635Y7.1782
X0.1691Y7.1726
X0.1747Y7.1671
X0.1802Y7.1615
X0.1858Y7.1559
X0.1914Y7.1504
X0.1969Y7.1448
X0.2025Y7.1392
X0.2081Y7.1337
X0.2136Y7.1281
X0.2192Y7.1225
X0.2248Y7.1169
X0.2303Y7.1114
X0.2359Y7.1058
X0.2415Y7.1002
X0.247Y7.0947
X0.2526Y7.0891
X0.2582Y7.0835
X0.2637Y7.078
X0.2693Y7.0724
X0.2749Y7.0668
X0.2804Y7.0613
X0.286Y7.0557
X0.2916Y7.0501
X0.2972Y7.0446
X0.3027Y7.039
X0.3083Y7.0334
X0.3139Y7.0279
X0.3194Y7.0223
X0.325Y7.0167
X0.3306Y7.0112
X0.3361Y7.0056
X0.3417Y7
X0.3473Y6.9945
X0.3528Y6.9889
X0.3584Y6.9833
X0.364Y6.9778
X0.3695Y6.9722
X0.3751Y6.9666
X0.3807Y6.9611
X0.3862Y6.9555
X0.3918Y6.9499
X0.3974Y6.9444
X0.4029Y6.9388
X0.4085Y6.9332
X0.4141Y6.9276
X0.4196Y6.9221
X0.4252Y6.9165
X0.4308Y6.9109
X0.4363Y6.9054
X0.4419Y6.8998
X0.4475Y6.8942
X0.4531Y6.8887
X0.4586Y6.8831
X0.4642Y6.8775
X0.4698Y6.872
X0.4753Y6.8664
X0.4809Y6.8608
X0.4865Y6.8553
X0.492Y6.8497
X0.4976Y6.8441
X0.5032Y6.8386
X0.5087Y6.833
X0.5143Y6.8274
X0.5199Y6.8219
X0.5254Y6.8163
X0.531Y6.8107
X0.5366Y6.8052
X0.5421Y6.7996
X0.5477Y6.794
X0.5533Y6.7885
X0.5588Y6.7829
X0.5644Y6.7773
X0.57Y6.7718
X0.5755Y6.7662
X0.5811Y6.7606
X0.5867Y6.755
X0.5922Y6.7495
X0.5978Y6.7439
X0.6034Y6.7383
X0.609Y6.7328
X0.6145Y6.7272
X0.6201Y6.7216
X0.6257Y6.7161
X0.6312Y6.7105
X0.6368Y6.7049
X0.6424Y6.6994
X0.6479Y6.6938
X0.6535Y6.6882
X0.6591Y6.6827
X0.6646Y6.6771
X0.6702Y6.6715
X0.6758Y6.666
X0.6813Y6.6604
X0.6869Y6.6548
X0.6925Y6.6493
X0.698Y6.6437
X0.7036Y6.6381
X0.7092Y6.6326
X0.7147Y6.627
X0.7203Y6.6214
X0.7259Y6.6159
X0.7314Y6.6103
X0.737Y6.6047
X0.7426Y6.5992
X0.7481Y6.5936
X0.7537Y6.588
X0.7593Y6.5825
X0.7649Y6.5769
Y6.5768
Z-0.3124F19.68
X0.7593Y6.5824F39.37
X0.7538Y6.588
X0.7482Y6.5935
X0.7426Y6.5991
X0.7371Y6.6047
X0.7315Y6.6102
X0.7259Y6.6158
X0.7204Y6.6214
X0.7148Y6.6269
X0.7092Y6.6325
X0.7037Y6.6381
X0.6981Y6.6436
X0.6925Y6.6492
X0.687Y6.6548
X0.6814Y6.6603
X0.6758Y6.6659
X0.6703Y6.6715
X0.6647Y6.677
X0.6591Y6.6826
X0.6536Y6.6882
X0.648Y6.6937
X0.6424Y6.6993
X0.6368Y6.7049
X0.6313Y6.7105
X0.6257Y6.716
X0.6201Y6.7216
X0.6146Y6.7272
X0.609Y6.7327
X0.6034Y6.7383
X0.5979Y6.7439
X0.5923Y6.7494
X0.5867Y6.755
X0.5812Y6.7606
X0.5756Y6.7661
X0.57Y6.7717
X0.5645Y6.7773
X0.5589Y6.7828
X0.5533Y6.7884
X0.5478Y6.794
X0.5422Y6.7995
X0.5366Y6.8051
X0.5311Y6.8107
X0.5255Y6.8162
X0.5199Y6.8218
X0.5144Y6.8274
X0.5088Y6.8329
X0.5032Y6.8385
X0.4977Y6.8441
X0.4921Y6.8496
X0.4865Y6.8552
X0.4809Y6.8608
X0.4754Y6.8663
X0.4698Y6.8719
X0.4642Y6.8775
X0.4587Y6.8831
X0.4531Y6.8886
X0.4475Y6.8942
X0.442Y6.8998
X0.4364Y6.9053
X0.4308Y6.9109
X0.4253Y6.9165
X0.4197Y6.922
X0.4141Y6.9276
X0.4086Y6.9332
X0.403Y6.9387
X0.3974Y6.9443
X0.3919Y6.9499
X0.3863Y6.9554
X0.3807Y6.961
X0.3752Y6.9666
X0.3696Y6.9721
X0.364Y6.9777
X0.3585Y6.9833
X0.3529Y6.9888
X0.3473Y6.9944
X0.3418Y7
X0.3362Y7.0055
X0.3306Y7.0111
X0.325Y7.0167
X0.3195Y7.0222
X0.3139Y7.0278
X0.3083Y7.0334
X0.3028Y7.0389
X0.2972Y7.0445
X0.2916Y7.0501
X0.2861Y7.0556
X0.2805Y7.0612
X0.2749Y7.0668
X0.2694Y7.0724
X0.2638Y7.0779
X0.2582Y7.0835
X0.2527Y7.0891
X0.2471Y7.0946
X0.2415Y7.1002
X0.236Y7.1058
X0.2304Y7.1113
X0.2248Y7.1169
X0.2193Y7.1225
X0.2137Y7.128
X0.2081Y7.1336
X0.2026Y7.1392
X0.197Y7.1447
X0.1914Y7.1503
X0.1858Y7.1559
X0.1803Y7.1614
X0.1747Y7.167
X0.1691Y7.1726
X0.1636Y7.1781
X0.158Y7.1837
X0.1524Y7.1893
X0.1469Y7.1948
X0.1413Y7.2004
X0.1357Y7.206
X0.1302Y7.2115
X0.1246Y7.2171
X0.119Y7.2227
X0.1135Y7.2282
X0.1079Y7.2338
X0.1023Y7.2394
X0.0968Y7.2449
X0.0912Y7.2505
X0.0856Y7.2561
X0.0801Y7.2617
X0.0745Y7.2672
X0.0689Y7.2728
X0.0634Y7.2784
X0.0578Y7.2839
X0.0522Y7.2895
X0.0467Y7.2951
X0.0411Y7.3006
X0.0355Y7.3062
X0.0299Y7.3118
X0.0244Y7.3173
X0.0188Y7.3229
X0.0132Y7.3285
X0.0077Y7.334
X0.0021Y7.3396
X-0.0034Y7.3452
X-0.0089Y7.3507
X-0.0145Y7.3563
X-0.0201Y7.3619
X-0.0256Y7.3674
X-0.0312Y7.373
X-0.0368Y7.3786
X-0.0423Y7.3841
X-0.0479Y7.3897
X-0.0535Y7.3953
X-0.059Y7.4008
X-0.0646Y7.4064
X-0.0702Y7.412
X-0.0757Y7.4175
X-0.0813Y7.4231
X-0.0869Y7.4287
X-0.0924Y7.4342
X-0.098Y7.4398
X-0.1036Y7.4454
X-0.1091Y7.451
X-0.1147Y7.4565
X-0.1203Y7.4621
X-0.1259Y7.4677
X-0.1314Y7.4732
X-0.137Y7.4788
X-0.1426Y7.4844
X-0.1481Y7.4899
X-0.1537Y7.4955
X-0.1593Y7.5011
X-0.1648Y7.5066
X-0.1704Y7.5122
X-0.176Y7.5178
X-0.1815Y7.5233
X-0.1871Y7.5289
X-0.1927Y7.5345
X-0.1982Y7.54
X-0.2038Y7.5456
X-0.2094Y7.5512
X-0.2149Y7.5567
X-0.2205Y7.5623
X-0.2261Y7.5679
X-0.2316Y7.5734
X-0.2372Y7.579
X-0.2428Y7.5846
X-0.2483Y7.5901
X-0.2539Y7.5957
X-0.2595Y7.6013
X-0.265Y7.6068
X-0.2706Y7.6124
X-0.2762Y7.618
X-0.2818Y7.6236
X-0.2873Y7.6291
X-0.2929Y7.6347
X-0.2985Y7.6403
X-0.304Y7.6458
X-0.3096Y7.6514
X-0.3152Y7.657
X-0.3207Y7.6625
X-0.3263Y7.6681
X-0.3319Y7.6737
X-0.3374Y7.6792
X-0.343Y7.6848
X-0.3486Y7.6904
X-0.3541Y7.6959
X-0.3597Y7.7015
X-0.3653Y7.7071
X-0.3708Y7.7126
X-0.3764Y7.7182
X-0.382Y7.7238
X-0.3875Y7.7293
X-0.3931Y7.7349
X-0.3987Y7.7405
X-0.4042Y7.746
X-0.4098Y7.7516
X-0.4154Y7.7572
X-0.4209Y7.7627
X-0.421Y7.7628
X-0.4154Y7.7572
X-0.4099Y7.7517
X-0.4043Y7.7461
X-0.3987Y7.7405
X-0.3932Y7.735
X-0.3876Y7.7294
X-0.382Y7.7238
X-0.3765Y7.7183
X-0.3709Y7.7127
X-0.3653Y7.7071
X-0.3598Y7.7016
X-0.3542Y7.696
X-0.3486Y7.6904
X-0.3431Y7.6849
X-0.3375Y7.6793
X-0.3319Y7.6737
X-0.3264Y7.6681
X-0.3208Y7.6626
X-0.3152Y7.657
X-0.3096Y7.6514
X-0.3041Y7.6459
X-0.2985Y7.6403
X-0.2929Y7.6347
X-0.2874Y7.6292
X-0.2818Y7.6236
X-0.2762Y7.618
X-0.2707Y7.6125
X-0.2651Y7.6069
X-0.2595Y7.6013
X-0.254Y7.5958
X-0.2484Y7.5902
X-0.2428Y7.5846
X-0.2373Y7.5791
X-0.2317Y7.5735
X-0.2261Y7.5679
X-0.2206Y7.5624
X-0.215Y7.5568
X-0.2094Y7.5512
X-0.2039Y7.5457
X-0.1983Y7.5401
X-0.1927Y7.5345
X-0.1872Y7.529
X-0.1816Y7.5234
X-0.176Y7.5178
X-0.1705Y7.5123
X-0.1649Y7.5067
X-0.1593Y7.5011
X-0.1537Y7.4955
X-0.1482Y7.49
X-0.1426Y7.4844
X-0.137Y7.4788
X-0.1315Y7.4733
X-0.1259Y7.4677
X-0.1203Y7.4621
X-0.1148Y7.4566
X-0.1092Y7.451
X-0.1036Y7.4454
X-0.0981Y7.4399
X-0.0925Y7.4343
X-0.0869Y7.4287
X-0.0814Y7.4232
X-0.0758Y7.4176
X-0.0702Y7.412
X-0.0647Y7.4065
X-0.0591Y7.4009
X-0.0535Y7.3953
X-0.048Y7.3898
X-0.0424Y7.3842
X-0.0368Y7.3786
X-0.0313Y7.3731
X-0.0257Y7.3675
X-0.0201Y7.3619
X-0.0146Y7.3564
X-0.009Y7.3508
X-0.0034Y7.3452
X0.0021Y7.3397
X0.0076Y7.3341
X0.0132Y7.3285
X0.0188Y7.323
X0.0243Y7.3174
X0.0299Y7.3118
X0.0355Y7.3062
X0.041Y7.3007
X0.0466Y7.2951
X0.0522Y7.2895
X0.0577Y7.284
X0.0633Y7.2784
X0.0689Y7.2728
X0.0744Y7.2673
X0.08Y7.2617
X0.0856Y7.2561
X0.0911Y7.2506
X0.0967Y7.245
X0.1023Y7.2394
X0.1078Y7.2339
X0.1134Y7.2283
X0.119Y7.2227
X0.1245Y7.2172
X0.1301Y7.2116
X0.1357Y7.206
X0.1413Y7.2005
X0.1468Y7.1949
X0.1524Y7.1893
X0.158Y7.1838
X0.1635Y7.1782
X0.1691Y7.1726
X0.1747Y7.1671
X0.1802Y7.1615
X0.1858Y7.1559
X0.1914Y7.1504
X0.1969Y7.1448
X0.2025Y7.1392
X0.2081Y7.1337
X0.2136Y7.1281
X0.2192Y7.1225
X0.2248Y7.1169
X0.2303Y7.1114
X0.2359Y7.1058
X0.2415Y7.1002
X0.247Y7.0947
X0.2526Y7.0891
X0.2582Y7.0835
X0.2637Y7.078
X0.2693Y7.0724
X0.2749Y7.0668
X0.2804Y7.0613
X0.286Y7.0557
X0.2916Y7.0501
X0.2972Y7.0446
X0.3027Y7.039
X0.3083Y7.0334
X0.3139Y7.0279
X0.3194Y7.0223
X0.325Y7.0167
X0.3306Y7.0112
X0.3361Y7.0056
X0.3417Y7
X0.3473Y6.9945
X0.3528Y6.9889
X0.3584Y6.9833
X0.364Y6.9778
X0.3695Y6.9722
X0.3751Y6.9666
X0.3807Y6.9611
X0.3862Y6.9555
X0.3918Y6.9499
X0.3974Y6.9444
X0.4029Y6.9388
X0.4085Y6.9332
X0.4141Y6.9276
X0.4196Y6.9221
X0.4252Y6.9165
X0.4308Y6.9109
X0.4363Y6.9054
X0.4419Y6.8998
X0.4475Y6.8942
X0.4531Y6.8887
X0.4586Y6.8831
X0.4642Y6.8775
X0.4698Y6.872
X0.4753Y6.8664
X0.4809Y6.8608
X0.4865Y6.8553
X0.492Y6.8497
X0.4976Y6.8441
X0.5032Y6.8386
X0.5087Y6.833
X0.5143Y6.8274
X0.5199Y6.8219
X0.5254Y6.8163
X0.531Y6.8107
X0.5366Y6.8052
X0.5421Y6.7996
X0.5477Y6.794
X0.5533Y6.7885
X0.5588Y6.7829
X0.5644Y6.7773
X0.57Y6.7718
X0.5755Y6.7662
X0.5811Y6.7606
X0.5867Y6.755
X0.5922Y6.7495
X0.5978Y6.7439
X0.6034Y6.7383
X0.609Y6.7328
X0.6145Y6.7272
X0.6201Y6.7216
X0.6257Y6.7161
X0.6312Y6.7105
X0.6368Y6.7049
X0.6424Y6.6994
X0.6479Y6.6938
X0.6535Y6.6882
X0.6591Y6.6827
X0.6646Y6.6771
X0.6702Y6.6715
X0.6758Y6.666
X0.6813Y6.6604
X0.6869Y6.6548
X0.6925Y6.6493
X0.698Y6.6437
X0.7036Y6.6381
X0.7092Y6.6326
X0.7147Y6.627
X0.7203Y6.6214
X0.7259Y6.6159
X0.7314Y6.6103
X0.737Y6.6047
X0.7426Y6.5992
X0.7481Y6.5936
X0.7537Y6.588
X0.7593Y6.5825
X0.7649Y6.5769
Y6.5768
Z-0.3125F19.68
X0.7593Y6.5824F39.37
X0.7538Y6.588
X0.7482Y6.5935
X0.7426Y6.5991
X0.7371Y6.6047
X0.7315Y6.6102
X0.7259Y6.6158
X0.7204Y6.6214
X0.7148Y6.6269
X0.7092Y6.6325
X0.7037Y6.6381
X0.6981Y6.6436
X0.6925Y6.6492
X0.687Y6.6548
X0.6814Y6.6603
X0.6758Y6.6659
X0.6703Y6.6715
X0.6647Y6.677
X0.6591Y6.6826
X0.6536Y6.6882
X0.648Y6.6937
X0.6424Y6.6993
X0.6368Y6.7049
X0.6313Y6.7105
X0.6257Y6.716
X0.6201Y6.7216
X0.6146Y6.7272
X0.609Y6.7327
X0.6034Y6.7383
X0.5979Y6.7439
X0.5923Y6.7494
X0.5867Y6.755
X0.5812Y6.7606
X0.5756Y6.7661
X0.57Y6.7717
X0.5645Y6.7773
X0.5589Y6.7828
X0.5533Y6.7884
X0.5478Y6.794
X0.5422Y6.7995
X0.5366Y6.8051
X0.5311Y6.8107
X0.5255Y6.8162
X0.5199Y6.8218
X0.5144Y6.8274
X0.5088Y6.8329
X0.5032Y6.8385
X0.4977Y6.8441
X0.4921Y6.8496
X0.4865Y6.8552
X0.4809Y6.8608
X0.4754Y6.8663
X0.4698Y6.8719
X0.4642Y6.8775
X0.4587Y6.8831
X0.4531Y6.8886
X0.4475Y6.8942
X0.442Y6.8998
X0.4364Y6.9053
X0.4308Y6.9109
X0.4253Y6.9165
X0.4197Y6.922
X0.4141Y6.9276
X0.4086Y6.9332
X0.403Y6.9387
X0.3974Y6.9443
X0.3919Y6.9499
X0.3863Y6.9554
X0.3807Y6.961
X0.3752Y6.9666
X0.3696Y6.9721
X0.364Y6.9777
X0.3585Y6.9833
X0.3529Y6.9888
X0.3473Y6.9944
X0.3418Y7
X0.3362Y7.0055
X0.3306Y7.0111
X0.325Y7.0167
X0.3195Y7.0222
X0.3139Y7.0278
X0.3083Y7.0334
X0.3028Y7.0389
X0.2972Y7.0445
X0.2916Y7.0501
X0.2861Y7.0556
X0.2805Y7.0612
X0.2749Y7.0668
X0.2694Y7.0724
X0.2638Y7.0779
X0.2582Y7.0835
X0.2527Y7.0891
X0.2471Y7.0946
X0.2415Y7.1002
X0.236Y7.1058
X0.2304Y7.1113
X0.2248Y7.1169
X0.2193Y7.1225
X0.2137Y7.128
X0.2081Y7.1336
X0.2026Y7.1392
X0.197Y7.1447
X0.1914Y7.1503
X0.1858Y7.1559
X0.1803Y7.1614
X0.1747Y7.167
X0.1691Y7.1726
X0.1636Y7.1781
X0.158Y7.1837
X0.1524Y7.1893
X0.1469Y7.1948
X0.1413Y7.2004
X0.1357Y7.206
X0.1302Y7.2115
X0.1246Y7.2171
X0.119Y7.2227
X0.1135Y7.2282
X0.1079Y7.2338
X0.1023Y7.2394
X0.0968Y7.2449
X0.0912Y7.2505
X0.0856Y7.2561
X0.0801Y7.2617
X0.0745Y7.2672
X0.0689Y7.2728
X0.0634Y7.2784
X0.0578Y7.2839
X0.0522Y7.2895
X0.0467Y7.2951
X0.0411Y7.3006
X0.0355Y7.3062
X0.0299Y7.3118
X0.0244Y7.3173
X0.0188Y7.3229
X0.0132Y7.3285
X0.0077Y7.334
X0.0021Y7.3396
X-0.0034Y7.3452
X-0.0089Y7.3507
X-0.0145Y7.3563
X-0.0201Y7.3619
X-0.0256Y7.3674
X-0.0312Y7.373
X-0.0368Y7.3786
X-0.0423Y7.3841
X-0.0479Y7.3897
X-0.0535Y7.3953
X-0.059Y7.4008
X-0.0646Y7.4064
X-0.0702Y7.412
X-0.0757Y7.4175
X-0.0813Y7.4231
X-0.0869Y7.4287
X-0.0924Y7.4342
X-0.098Y7.4398
X-0.1036Y7.4454
X-0.1091Y7.451
X-0.1147Y7.4565
X-0.1203Y7.4621
X-0.1259Y7.4677
X-0.1314Y7.4732
X-0.137Y7.4788
X-0.1426Y7.4844
X-0.1481Y7.4899
X-0.1537Y7.4955
X-0.1593Y7.5011
X-0.1648Y7.5066
X-0.1704Y7.5122
X-0.176Y7.5178
X-0.1815Y7.5233
X-0.1871Y7.5289
X-0.1927Y7.5345
X-0.1982Y7.54
X-0.2038Y7.5456
X-0.2094Y7.5512
X-0.2149Y7.5567
X-0.2205Y7.5623
X-0.2261Y7.5679
X-0.2316Y7.5734
X-0.2372Y7.579
X-0.2428Y7.5846
X-0.2483Y7.5901
X-0.2539Y7.5957
X-0.2595Y7.6013
X-0.265Y7.6068
X-0.2706Y7.6124
X-0.2762Y7.618
X-0.2818Y7.6236
X-0.2873Y7.6291
X-0.2929Y7.6347
X-0.2985Y7.6403
X-0.304Y7.6458
X-0.3096Y7.6514
X-0.3152Y7.657
X-0.3207Y7.6625
X-0.3263Y7.6681
X-0.3319Y7.6737
X-0.3374Y7.6792
X-0.343Y7.6848
X-0.3486Y7.6904
X-0.3541Y7.6959
X-0.3597Y7.7015
X-0.3653Y7.7071
X-0.3708Y7.7126
X-0.3764Y7.7182
X-0.382Y7.7238
X-0.3875Y7.7293
X-0.3931Y7.7349
X-0.3987Y7.7405
X-0.4042Y7.746
X-0.4098Y7.7516
X-0.4154Y7.7572
X-0.4209Y7.7627
X-0.421Y7.7628
X-0.4154Y7.7572
X-0.4099Y7.7517
X-0.4043Y7.7461
X-0.3987Y7.7405
X-0.3932Y7.735
X-0.3876Y7.7294
X-0.382Y7.7238
X-0.3765Y7.7183
X-0.3709Y7.7127
X-0.3653Y7.7071
X-0.3598Y7.7016
X-0.3542Y7.696
X-0.3486Y7.6904
X-0.3431Y7.6849
X-0.3375Y7.6793
X-0.3319Y7.6737
X-0.3264Y7.6681
X-0.3208Y7.6626
X-0.3152Y7.657
X-0.3096Y7.6514
X-0.3041Y7.6459
X-0.2985Y7.6403
X-0.2929Y7.6347
X-0.2874Y7.6292
X-0.2818Y7.6236
X-0.2762Y7.618
X-0.2707Y7.6125
X-0.2651Y7.6069
X-0.2595Y7.6013
X-0.254Y7.5958
X-0.2484Y7.5902
X-0.2428Y7.5846
X-0.2373Y7.5791
X-0.2317Y7.5735
X-0.2261Y7.5679
X-0.2206Y7.5624
X-0.215Y7.5568
X-0.2094Y7.5512
X-0.2039Y7.5457
X-0.1983Y7.5401
X-0.1927Y7.5345
X-0.1872Y7.529
X-0.1816Y7.5234
X-0.176Y7.5178
X-0.1705Y7.5123
X-0.1649Y7.5067
X-0.1593Y7.5011
X-0.1537Y7.4955
X-0.1482Y7.49
X-0.1426Y7.4844
X-0.137Y7.4788
X-0.1315Y7.4733
X-0.1259Y7.4677
X-0.1203Y7.4621
X-0.1148Y7.4566
X-0.1092Y7.451
X-0.1036Y7.4454
X-0.0981Y7.4399
X-0.0925Y7.4343
X-0.0869Y7.4287
X-0.0814Y7.4232
X-0.0758Y7.4176
X-0.0702Y7.412
X-0.0647Y7.4065
X-0.0591Y7.4009
X-0.0535Y7.3953
X-0.048Y7.3898
X-0.0424Y7.3842
X-0.0368Y7.3786
X-0.0313Y7.3731
X-0.0257Y7.3675
X-0.0201Y7.3619
X-0.0146Y7.3564
X-0.009Y7.3508
X-0.0034Y7.3452
X0.0021Y7.3397
X0.0076Y7.3341
X0.0132Y7.3285
X0.0188Y7.323
X0.0243Y7.3174
X0.0299Y7.3118
X0.0355Y7.3062
X0.041Y7.3007
X0.0466Y7.2951
X0.0522Y7.2895
X0.0577Y7.284
X0.0633Y7.2784
X0.0689Y7.2728
X0.0744Y7.2673
X0.08Y7.2617
X0.0856Y7.2561
X0.0911Y7.2506
X0.0967Y7.245
X0.1023Y7.2394
X0.1078Y7.2339
X0.1134Y7.2283
X0.119Y7.2227
X0.1245Y7.2172
X0.1301Y7.2116
X0.1357Y7.206
X0.1413Y7.2005
X0.1468Y7.1949
X0.1524Y7.1893
X0.158Y7.1838
X0.1635Y7.1782
X0.1691Y7.1726
X0.1747Y7.1671
X0.1802Y7.1615
X0.1858Y7.1559
X0.1914Y7.1504
X0.1969Y7.1448
X0.2025Y7.1392
X0.2081Y7.1337
X0.2136Y7.1281
X0.2192Y7.1225
X0.2248Y7.1169
X0.2303Y7.1114
X0.2359Y7.1058
X0.2415Y7.1002
X0.247Y7.0947
X0.2526Y7.0891
X0.2582Y7.0835
X0.2637Y7.078
X0.2693Y7.0724
X0.2749Y7.0668
X0.2804Y7.0613
X0.286Y7.0557
X0.2916Y7.0501
X0.2972Y7.0446
X0.3027Y7.039
X0.3083Y7.0334
X0.3139Y7.0279
X0.3194Y7.0223
X0.325Y7.0167
X0.3306Y7.0112
X0.3361Y7.0056
X0.3417Y7
X0.3473Y6.9945
X0.3528Y6.9889
X0.3584Y6.9833
X0.364Y6.9778
X0.3695Y6.9722
X0.3751Y6.9666
X0.3807Y6.9611
X0.3862Y6.9555
X0.3918Y6.9499
X0.3974Y6.9444
X0.4029Y6.9388
X0.4085Y6.9332
X0.4141Y6.9276
X0.4196Y6.9221
X0.4252Y6.9165
X0.4308Y6.9109
X0.4363Y6.9054
X0.4419Y6.8998
X0.4475Y6.8942
X0.4531Y6.8887
X0.4586Y6.8831
X0.4642Y6.8775
X0.4698Y6.872
X0.4753Y6.8664
X0.4809Y6.8608
X0.4865Y6.8553
X0.492Y6.8497
X0.4976Y6.8441
X0.5032Y6.8386
X0.5087Y6.833
X0.5143Y6.8274
X0.5199Y6.8219
X0.5254Y6.8163
X0.531Y6.8107
X0.5366Y6.8052
X0.5421Y6.7996
X0.5477Y6.794
X0.5533Y6.7885
X0.5588Y6.7829
X0.5644Y6.7773
X0.57Y6.7718
X0.5755Y6.7662
X0.5811Y6.7606
X0.5867Y6.755
X0.5922Y6.7495
X0.5978Y6.7439
X0.6034Y6.7383
X0.609Y6.7328
X0.6145Y6.7272
X0.6201Y6.7216
X0.6257Y6.7161
X0.6312Y6.7105
X0.6368Y6.7049
X0.6424Y6.6994
X0.6479Y6.6938
X0.6535Y6.6882
X0.6591Y6.6827
X0.6646Y6.6771
X0.6702Y6.6715
X0.6758Y6.666
X0.6813Y6.6604
X0.6869Y6.6548
X0.6925Y6.6493
X0.698Y6.6437
X0.7036Y6.6381
X0.7092Y6.6326
X0.7147Y6.627
X0.7203Y6.6214
X0.7259Y6.6159
X0.7314Y6.6103
X0.737Y6.6047
X0.7426Y6.5992
X0.7481Y6.5936
X0.7537Y6.588
X0.7593Y6.5825
X0.7649Y6.5769
Y6.5768
G0Z0.2
X2.0649
G1Z-0.0624F19.68
X2.0593Y6.5824F39.37
X2.0538Y6.588
X2.0482Y6.5935
X2.0426Y6.5991
X2.0371Y6.6047
X2.0315Y6.6102
X2.0259Y6.6158
X2.0204Y6.6214
X2.0148Y6.6269
X2.0092Y6.6325
X2.0037Y6.6381
X1.9981Y6.6436
X1.9925Y6.6492
X1.987Y6.6548
X1.9814Y6.6603
X1.9758Y6.6659
X1.9703Y6.6715
X1.9647Y6.677
X1.9591Y6.6826
X1.9536Y6.6882
X1.948Y6.6937
X1.9424Y6.6993
X1.9368Y6.7049
X1.9313Y6.7105
X1.9257Y6.716
X1.9201Y6.7216
X1.9146Y6.7272
X1.909Y6.7327
X1.9034Y6.7383
X1.8979Y6.7439
X1.8923Y6.7494
X1.8867Y6.755
X1.8812Y6.7606
X1.8756Y6.7661
X1.87Y6.7717
X1.8645Y6.7773
X1.8589Y6.7828
X1.8533Y6.7884
X1.8478Y6.794
X1.8422Y6.7995
X1.8366Y6.8051
X1.8311Y6.8107
X1.8255Y6.8162
X1.8199Y6.8218
X1.8144Y6.8274
X1.8088Y6.8329
X1.8032Y6.8385
X1.7977Y6.8441
X1.7921Y6.8496
X1.7865Y6.8552
X1.7809Y6.8608
X1.7754Y6.8663
X1.7698Y6.8719
X1.7642Y6.8775
X1.7587Y6.8831
X1.7531Y6.8886
X1.7475Y6.8942
X1.742Y6.8998
X1.7364Y6.9053
X1.7308Y6.9109
X1.7253Y6.9165
X1.7197Y6.922
X1.7141Y6.9276
X1.7086Y6.9332
X1.703Y6.9387
X1.6974Y6.9443
X1.6919Y6.9499
X1.6863Y6.9554
X1.6807Y6.961
X1.6752Y6.9666
X1.6696Y6.9721
X1.664Y6.9777
X1.6585Y6.9833
X1.6529Y6.9888
X1.6473Y6.9944
X1.6418Y7
X1.6362Y7.0055
X1.6306Y7.0111
X1.625Y7.0167
X1.6195Y7.0222
X1.6139Y7.0278
X1.6083Y7.0334
X1.6028Y7.0389
X1.5972Y7.0445
X1.5916Y7.0501
X1.5861Y7.0556
X1.5805Y7.0612
X1.5749Y7.0668
X1.5694Y7.0724
X1.5638Y7.0779
X1.5582Y7.0835
X1.5527Y7.0891
X1.5471Y7.0946
X1.5415Y7.1002
X1.536Y7.1058
X1.5304Y7.1113
X1.5248Y7.1169
X1.5193Y7.1225
X1.5137Y7.128
X1.5081Y7.1336
X1.5026Y7.1392
X1.497Y7.1447
X1.4914Y7.1503
X1.4859Y7.1559
X1.4803Y7.1614
X1.4747Y7.167
X1.4691Y7.1726
X1.4636Y7.1781
X1.458Y7.1837
X1.4524Y7.1893
X1.4469Y7.1948
X1.4413Y7.2004
X1.4357Y7.206
X1.4302Y7.2115
X1.4246Y7.2171
X1.419Y7.2227
X1.4135Y7.2282
X1.4079Y7.2338
X1.4023Y7.2394
X1.3968Y7.2449
X1.3912Y7.2505
X1.3856Y7.2561
X1.3801Y7.2617
X1.3745Y7.2672
X1.3689Y7.2728
X1.3634Y7.2784
X1.3578Y7.2839
X1.3522Y7.2895
X1.3467Y7.2951
X1.3411Y7.3006
X1.3355Y7.3062
X1.3299Y7.3118
X1.3244Y7.3173
X1.3188Y7.3229
X1.3132Y7.3285
X1.3077Y7.334
X1.3021Y7.3396
X1.2965Y7.3452
X1.291Y7.3507
X1.2854Y7.3563
X1.2798Y7.3619
X1.2743Y7.3674
X1.2687Y7.373
X1.2631Y7.3786
X1.2576Y7.3841
X1.252Y7.3897
X1.2464Y7.3953
X1.2409Y7.4008
X1.2353Y7.4064
X1.2297Y7.412
X1.2242Y7.4175
X1.2186Y7.4231
X1.213Y7.4287
X1.2075Y7.4342
X1.2019Y7.4398
X1.1963Y7.4454
X1.1908Y7.451
X1.1852Y7.4565
X1.1796Y7.4621
X1.174Y7.4677
X1.1685Y7.4732
X1.1629Y7.4788
X1.1573Y7.4844
X1.1518Y7.4899
X1.1462Y7.4955
X1.1406Y7.5011
X1.1351Y7.5066
X1.1295Y7.5122
X1.1239Y7.5178
X1.1184Y7.5233
X1.1128Y7.5289
X1.1072Y7.5345
X1.1017Y7.54
X1.0961Y7.5456
X1.0905Y7.5512
X1.085Y7.5567
X1.0794Y7.5623
X1.0738Y7.5679
X1.0683Y7.5734
X1.0627Y7.579
X1.0571Y7.5846
X1.0516Y7.5901
X1.046Y7.5957
X1.0404Y7.6013
X1.0349Y7.6068
X1.0293Y7.6124
X1.0237Y7.618
X1.0181Y7.6236
X1.0126Y7.6291
X1.007Y7.6347
X1.0014Y7.6403
X0.9959Y7.6458
X0.9903Y7.6514
X0.9847Y7.657
X0.9792Y7.6625
X0.9736Y7.6681
X0.968Y7.6737
X0.9625Y7.6792
X0.9569Y7.6848
X0.9513Y7.6904
X0.9458Y7.6959
X0.9402Y7.7015
X0.9346Y7.7071
X0.9291Y7.7126
X0.9235Y7.7182
X0.9179Y7.7238
X0.9124Y7.7293
X0.9068Y7.7349
X0.9012Y7.7405
X0.8957Y7.746
X0.8901Y7.7516
X0.8845Y7.7572
X0.879Y7.7627
X0.8789Y7.7628
X0.8845Y7.7572
X0.89Y7.7517
X0.8956Y7.7461
X0.9012Y7.7405
X0.9067Y7.735
X0.9123Y7.7294
X0.9179Y7.7238
X0.9234Y7.7183
X0.929Y7.7127
X0.9346Y7.7071
X0.9401Y7.7016
X0.9457Y7.696
X0.9513Y7.6904
X0.9568Y7.6849
X0.9624Y7.6793
X0.968Y7.6737
X0.9735Y7.6681
X0.9791Y7.6626
X0.9847Y7.657
X0.9903Y7.6514
X0.9958Y7.6459
X1.0014Y7.6403
X1.007Y7.6347
X1.0125Y7.6292
X1.0181Y7.6236
X1.0237Y7.618
X1.0292Y7.6125
X1.0348Y7.6069
X1.0404Y7.6013
X1.0459Y7.5958
X1.0515Y7.5902
X1.0571Y7.5846
X1.0626Y7.5791
X1.0682Y7.5735
X1.0738Y7.5679
X1.0793Y7.5624
X1.0849Y7.5568
X1.0905Y7.5512
X1.096Y7.5457
X1.1016Y7.5401
X1.1072Y7.5345
X1.1127Y7.529
X1.1183Y7.5234
X1.1239Y7.5178
X1.1295Y7.5123
X1.135Y7.5067
X1.1406Y7.5011
X1.1462Y7.4955
X1.1517Y7.49
X1.1573Y7.4844
X1.1629Y7.4788
X1.1684Y7.4733
X1.174Y7.4677
X1.1796Y7.4621
X1.1851Y7.4566
X1.1907Y7.451
X1.1963Y7.4454
X1.2018Y7.4399
X1.2074Y7.4343
X1.213Y7.4287
X1.2185Y7.4232
X1.2241Y7.4176
X1.2297Y7.412
X1.2352Y7.4065
X1.2408Y7.4009
X1.2464Y7.3953
X1.2519Y7.3898
X1.2575Y7.3842
X1.2631Y7.3786
X1.2686Y7.3731
X1.2742Y7.3675
X1.2798Y7.3619
X1.2854Y7.3564
X1.2909Y7.3508
X1.2965Y7.3452
X1.3021Y7.3397
X1.3076Y7.3341
X1.3132Y7.3285
X1.3188Y7.323
X1.3243Y7.3174
X1.3299Y7.3118
X1.3355Y7.3062
X1.341Y7.3007
X1.3466Y7.2951
X1.3522Y7.2895
X1.3577Y7.284
X1.3633Y7.2784
X1.3689Y7.2728
X1.3744Y7.2673
X1.38Y7.2617
X1.3856Y7.2561
X1.3911Y7.2506
X1.3967Y7.245
X1.4023Y7.2394
X1.4078Y7.2339
X1.4134Y7.2283
X1.419Y7.2227
X1.4245Y7.2172
X1.4301Y7.2116
X1.4357Y7.206
X1.4413Y7.2005
X1.4468Y7.1949
X1.4524Y7.1893
X1.458Y7.1838
X1.4635Y7.1782
X1.4691Y7.1726
X1.4747Y7.1671
X1.4802Y7.1615
X1.4858Y7.1559
X1.4914Y7.1504
X1.4969Y7.1448
X1.5025Y7.1392
X1.5081Y7.1337
X1.5136Y7.1281
X1.5192Y7.1225
X1.5248Y7.1169
X1.5303Y7.1114
X1.5359Y7.1058
X1.5415Y7.1002
X1.547Y7.0947
X1.5526Y7.0891
X1.5582Y7.0835
X1.5637Y7.078
X1.5693Y7.0724
X1.5749Y7.0668
X1.5804Y7.0613
X1.586Y7.0557
X1.5916Y7.0501
X1.5972Y7.0446
X1.6027Y7.039
X1.6083Y7.0334
X1.6139Y7.0279
X1.6194Y7.0223
X1.625Y7.0167
X1.6306Y7.0112
X1.6361Y7.0056
X1.6417Y7
X1.6473Y6.9945
X1.6528Y6.9889
X1.6584Y6.9833
X1.664Y6.9778
X1.6695Y6.9722
X1.6751Y6.9666
X1.6807Y6.9611
X1.6862Y6.9555
X1.6918Y6.9499
X1.6974Y6.9444
X1.7029Y6.9388
X1.7085Y6.9332
X1.7141Y6.9276
X1.7196Y6.9221
X1.7252Y6.9165
X1.7308Y6.9109
X1.7363Y6.9054
X1.7419Y6.8998
X1.7475Y6.8942
X1.7531Y6.8887
X1.7586Y6.8831
X1.7642Y6.8775
X1.7698Y6.872
X1.7753Y6.8664
X1.7809Y6.8608
X1.7865Y6.8553
X1.792Y6.8497
X1.7976Y6.8441
X1.8032Y6.8386
X1.8087Y6.833
X1.8143Y6.8274
X1.8199Y6.8219
X1.8254Y6.8163
X1.831Y6.8107
X1.8366Y6.8052
X1.8421Y6.7996
X1.8477Y6.794
X1.8533Y6.7885
X1.8588Y6.7829
X1.8644Y6.7773
X1.87Y6.7718
X1.8755Y6.7662
X1.8811Y6.7606
X1.8867Y6.755
X1.8922Y6.7495
X1.8978Y6.7439
X1.9034Y6.7383
X1.909Y6.7328
X1.9145Y6.7272
X1.9201Y6.7216
X1.9257Y6.7161
X1.9312Y6.7105
X1.9368Y6.7049
X1.9424Y6.6994
X1.9479Y6.6938
X1.9535Y6.6882
X1.9591Y6.6827
X1.9646Y6.6771
X1.9702Y6.6715
X1.9758Y6.666
X1.9813Y6.6604
X1.9869Y6.6548
X1.9925Y6.6493
X1.998Y6.6437
X2.0036Y6.6381
X2.0092Y6.6326
X2.0147Y6.627
X2.0203Y6.6214
X2.0259Y6.6159
X2.0314Y6.6103
X2.037Y6.6047
X2.0426Y6.5992
X2.0481Y6.5936
X2.0537Y6.588
X2.0593Y6.5825
X2.0649Y6.5769
Y6.5768
Z-0.125F19.68
X2.0593Y6.5824F39.37
X2.0538Y6.588
X2.0482Y6.5935
X2.0426Y6.5991
X2.0371Y6.6047
X2.0315Y6.6102
X2.0259Y6.6158
X2.0204Y6.6214
X2.0148Y6.6269
X2.0092Y6.6325
X2.0037Y6.6381
X1.9981Y6.6436
X1.9925Y6.6492
X1.987Y6.6548
X1.9814Y6.6603
X1.9758Y6.6659
X1.9703Y6.6715
X1.9647Y6.677
X1.9591Y6.6826
X1.9536Y6.6882
X1.948Y6.6937
X1.9424Y6.6993
X1.9368Y6.7049
X1.9313Y6.7105
X1.9257Y6.716
X1.9201Y6.7216
X1.9146Y6.7272
X1.909Y6.7327
X1.9034Y6.7383
X1.8979Y6.7439
X1.8923Y6.7494
X1.8867Y6.755
X1.8812Y6.7606
X1.8756Y6.7661
X1.87Y6.7717
X1.8645Y6.7773
X1.8589Y6.7828
X1.8533Y6.7884
X1.8478Y6.794
X1.8422Y6.7995
X1.8366Y6.8051
X1.8311Y6.8107
X1.8255Y6.8162
X1.8199Y6.8218
X1.8144Y6.8274
X1.8088Y6.8329
X1.8032Y6.8385
X1.7977Y6.8441
X1.7921Y6.8496
X1.7865Y6.8552
X1.7809Y6.8608
X1.7754Y6.8663
X1.7698Y6.8719
X1.7642Y6.8775
X1.7587Y6.8831
X1.7531Y6.8886
X1.7475Y6.8942
X1.742Y6.8998
X1.7364Y6.9053
X1.7308Y6.9109
X1.7253Y6.9165
X1.7197Y6.922
X1.7141Y6.9276
X1.7086Y6.9332
X1.703Y6.9387
X1.6974Y6.9443
X1.6919Y6.9499
X1.6863Y6.9554
X1.6807Y6.961
X1.6752Y6.9666
X1.6696Y6.9721
X1.664Y6.9777
X1.6585Y6.9833
X1.6529Y6.9888
X1.6473Y6.9944
X1.6418Y7
X1.6362Y7.0055
X1.6306Y7.0111
X1.625Y7.0167
X1.6195Y7.0222
X1.6139Y7.0278
X1.6083Y7.0334
X1.6028Y7.0389
X1.5972Y7.0445
X1.5916Y7.0501
X1.5861Y7.0556
X1.5805Y7.0612
X1.5749Y7.0668
X1.5694Y7.0724
X1.5638Y7.0779
X1.5582Y7.0835
X1.5527Y7.0891
X1.5471Y7.0946
X1.5415Y7.1002
X1.536Y7.1058
X1.5304Y7.1113
X1.5248Y7.1169
X1.5193Y7.1225
X1.5137Y7.128
X1.5081Y7.1336
X1.5026Y7.1392
X1.497Y7.1447
X1.4914Y7.1503
X1.4859Y7.1559
X1.4803Y7.1614
X1.4747Y7.167
X1.4691Y7.1726
X1.4636Y7.1781
X1.458Y7.1837
X1.4524Y7.1893
X1.4469Y7.1948
X1.4413Y7.2004
X1.4357Y7.206
X1.4302Y7.2115
X1.4246Y7.2171
X1.419Y7.2227
X1.4135Y7.2282
X1.4079Y7.2338
X1.4023Y7.2394
X1.3968Y7.2449
X1.3912Y7.2505
X1.3856Y7.2561
X1.3801Y7.2617
X1.3745Y7.2672
X1.3689Y7.2728
X1.3634Y7.2784
X1.3578Y7.2839
X1.3522Y7.2895
X1.3467Y7.2951
X1.3411Y7.3006
X1.3355Y7.3062
X1.3299Y7.3118
X1.3244Y7.3173
X1.3188Y7.3229
X1.3132Y7.3285
X1.3077Y7.334
X1.3021Y7.3396
X1.2965Y7.3452
X1.291Y7.3507
X1.2854Y7.3563
X1.2798Y7.3619
X1.2743Y7.3674
X1.2687Y7.373
X1.2631Y7.3786
X1.2576Y7.3841
X1.252Y7.3897
X1.2464Y7.3953
X1.2409Y7.4008
X1.2353Y7.4064
X1.2297Y7.412
X1.2242Y7.4175
X1.2186Y7.4231
X1.213Y7.4287
X1.2075Y7.4342
X1.2019Y7.4398
X1.1963Y7.4454
X1.1908Y7.451
X1.1852Y7.4565
X1.1796Y7.4621
X1.174Y7.4677
X1.1685Y7.4732
X1.1629Y7.4788
X1.1573Y7.4844
X1.1518Y7.4899
X1.1462Y7.4955
X1.1406Y7.5011
X1.1351Y7.5066
X1.1295Y7.5122
X1.1239Y7.5178
X1.1184Y7.5233
X1.1128Y7.5289
X1.1072Y7.5345
X1.1017Y7.54
X1.0961Y7.5456
X1.0905Y7.5512
X1.085Y7.5567
X1.0794Y7.5623
X1.0738Y7.5679
X1.0683Y7.5734
X1.0627Y7.579
X1.0571Y7.5846
X1.0516Y7.5901
X1.046Y7.5957
X1.0404Y7.6013
X1.0349Y7.6068
X1.0293Y7.6124
X1.0237Y7.618
X1.0181Y7.6236
X1.0126Y7.6291
X1.007Y7.6347
X1.0014Y7.6403
X0.9959Y7.6458
X0.9903Y7.6514
X0.9847Y7.657
X0.9792Y7.6625
X0.9736Y7.6681
X0.968Y7.6737
X0.9625Y7.6792
X0.9569Y7.6848
X0.9513Y7.6904
X0.9458Y7.6959
X0.9402Y7.7015
X0.9346Y7.7071
X0.9291Y7.7126
X0.9235Y7.7182
X0.9179Y7.7238
X0.9124Y7.7293
X0.9068Y7.7349
X0.9012Y7.7405
X0.8957Y7.746
X0.8901Y7.7516
X0.8845Y7.7572
X0.879Y7.7627
X0.8789Y7.7628
X0.8845Y7.7572
X0.89Y7.7517
X0.8956Y7.7461
X0.9012Y7.7405
X0.9067Y7.735
X0.9123Y7.7294
X0.9179Y7.7238
X0.9234Y7.7183
X0.929Y7.7127
X0.9346Y7.7071
X0.9401Y7.7016
X0.9457Y7.696
X0.9513Y7.6904
X0.9568Y7.6849
X0.9624Y7.6793
X0.968Y7.6737
X0.9735Y7.6681
X0.9791Y7.6626
X0.9847Y7.657
X0.9903Y7.6514
X0.9958Y7.6459
X1.0014Y7.6403
X1.007Y7.6347
X1.0125Y7.6292
X1.0181Y7.6236
X1.0237Y7.618
X1.0292Y7.6125
X1.0348Y7.6069
X1.0404Y7.6013
X1.0459Y7.5958
X1.0515Y7.5902
X1.0571Y7.5846
X1.0626Y7.5791
X1.0682Y7.5735
X1.0738Y7.5679
X1.0793Y7.5624
X1.0849Y7.5568
X1.0905Y7.5512
X1.096Y7.5457
X1.1016Y7.5401
X1.1072Y7.5345
X1.1127Y7.529
X1.1183Y7.5234
X1.1239Y7.5178
X1.1295Y7.5123
X1.135Y7.5067
X1.1406Y7.5011
X1.1462Y7.4955
X1.1517Y7.49
X1.1573Y7.4844
X1.1629Y7.4788
X1.1684Y7.4733
X1.174Y7.4677
X1.1796Y7.4621
X1.1851Y7.4566
X1.1907Y7.451
X1.1963Y7.4454
X1.2018Y7.4399
X1.2074Y7.4343
X1.213Y7.4287
X1.2185Y7.4232
X1.2241Y7.4176
X1.2297Y7.412
X1.2352Y7.4065
X1.2408Y7.4009
X1.2464Y7.3953
X1.2519Y7.3898
X1.2575Y7.3842
X1.2631Y7.3786
X1.2686Y7.3731
X1.2742Y7.3675
X1.2798Y7.3619
X1.2854Y7.3564
X1.2909Y7.3508
X1.2965Y7.3452
X1.3021Y7.3397
X1.3076Y7.3341
X1.3132Y7.3285
X1.3188Y7.323
X1.3243Y7.3174
X1.3299Y7.3118
X1.3355Y7.3062
X1.341Y7.3007
X1.3466Y7.2951
X1.3522Y7.2895
X1.3577Y7.284
X1.3633Y7.2784
X1.3689Y7.2728
X1.3744Y7.2673
X1.38Y7.2617
X1.3856Y7.2561
X1.3911Y7.2506
X1.3967Y7.245
X1.4023Y7.2394
X1.4078Y7.2339
X1.4134Y7.2283
X1.419Y7.2227
X1.4245Y7.2172
X1.4301Y7.2116
X1.4357Y7.206
X1.4413Y7.2005
X1.4468Y7.1949
X1.4524Y7.1893
X1.458Y7.1838
X1.4635Y7.1782
X1.4691Y7.1726
X1.4747Y7.1671
X1.4802Y7.1615
X1.4858Y7.1559
X1.4914Y7.1504
X1.4969Y7.1448
X1.5025Y7.1392
X1.5081Y7.1337
X1.5136Y7.1281
X1.5192Y7.1225
X1.5248Y7.1169
X1.5303Y7.1114
X1.5359Y7.1058
X1.5415Y7.1002
X1.547Y7.0947
X1.5526Y7.0891
X1.5582Y7.0835
X1.5637Y7.078
X1.5693Y7.0724
X1.5749Y7.0668
X1.5804Y7.0613
X1.586Y7.0557
X1.5916Y7.0501
X1.5972Y7.0446
X1.6027Y7.039
X1.6083Y7.0334
X1.6139Y7.0279
X1.6194Y7.0223
X1.625Y7.0167
X1.6306Y7.0112
X1.6361Y7.0056
X1.6417Y7
X1.6473Y6.9945
X1.6528Y6.9889
X1.6584Y6.9833
X1.664Y6.9778
X1.6695Y6.9722
X1.6751Y6.9666
X1.6807Y6.9611
X1.6862Y6.9555
X1.6918Y6.9499
X1.6974Y6.9444
X1.7029Y6.9388
X1.7085Y6.9332
X1.7141Y6.9276
X1.7196Y6.9221
X1.7252Y6.9165
X1.7308Y6.9109
X1.7363Y6.9054
X1.7419Y6.8998
X1.7475Y6.8942
X1.7531Y6.8887
X1.7586Y6.8831
X1.7642Y6.8775
X1.7698Y6.872
X1.7753Y6.8664
X1.7809Y6.8608
X1.7865Y6.8553
X1.792Y6.8497
X1.7976Y6.8441
X1.8032Y6.8386
X1.8087Y6.833
X1.8143Y6.8274
X1.8199Y6.8219
X1.8254Y6.8163
X1.831Y6.8107
X1.8366Y6.8052
X1.8421Y6.7996
X1.8477Y6.794
X1.8533Y6.7885
X1.8588Y6.7829
X1.8644Y6.7773
X1.87Y6.7718
X1.8755Y6.7662
X1.8811Y6.7606
X1.8867Y6.755
X1.8922Y6.7495
X1.8978Y6.7439
X1.9034Y6.7383
X1.909Y6.7328
X1.9145Y6.7272
X1.9201Y6.7216
X1.9257Y6.7161
X1.9312Y6.7105
X1.9368Y6.7049
X1.9424Y6.6994
X1.9479Y6.6938
X1.9535Y6.6882
X1.9591Y6.6827
X1.9646Y6.6771
X1.9702Y6.6715
X1.9758Y6.666
X1.9813Y6.6604
X1.9869Y6.6548
X1.9925Y6.6493
X1.998Y6.6437
X2.0036Y6.6381
X2.0092Y6.6326
X2.0147Y6.627
X2.0203Y6.6214
X2.0259Y6.6159
X2.0314Y6.6103
X2.037Y6.6047
X2.0426Y6.5992
X2.0481Y6.5936
X2.0537Y6.588
X2.0593Y6.5825
X2.0649Y6.5769
Y6.5768
Z-0.1874F19.68
X2.0593Y6.5824F39.37
X2.0538Y6.588
X2.0482Y6.5935
X2.0426Y6.5991
X2.0371Y6.6047
X2.0315Y6.6102
X2.0259Y6.6158
X2.0204Y6.6214
X2.0148Y6.6269
X2.0092Y6.6325
X2.0037Y6.6381
X1.9981Y6.6436
X1.9925Y6.6492
X1.987Y6.6548
X1.9814Y6.6603
X1.9758Y6.6659
X1.9703Y6.6715
X1.9647Y6.677
X1.9591Y6.6826
X1.9536Y6.6882
X1.948Y6.6937
X1.9424Y6.6993
X1.9368Y6.7049
X1.9313Y6.7105
X1.9257Y6.716
X1.9201Y6.7216
X1.9146Y6.7272
X1.909Y6.7327
X1.9034Y6.7383
X1.8979Y6.7439
X1.8923Y6.7494
X1.8867Y6.755
X1.8812Y6.7606
X1.8756Y6.7661
X1.87Y6.7717
X1.8645Y6.7773
X1.8589Y6.7828
X1.8533Y6.7884
X1.8478Y6.794
X1.8422Y6.7995
X1.8366Y6.8051
X1.8311Y6.8107
X1.8255Y6.8162
X1.8199Y6.8218
X1.8144Y6.8274
X1.8088Y6.8329
X1.8032Y6.8385
X1.7977Y6.8441
X1.7921Y6.8496
X1.7865Y6.8552
X1.7809Y6.8608
X1.7754Y6.8663
X1.7698Y6.8719
X1.7642Y6.8775
X1.7587Y6.8831
X1.7531Y6.8886
X1.7475Y6.8942
X1.742Y6.8998
X1.7364Y6.9053
X1.7308Y6.9109
X1.7253Y6.9165
X1.7197Y6.922
X1.7141Y6.9276
X1.7086Y6.9332
X1.703Y6.9387
X1.6974Y6.9443
X1.6919Y6.9499
X1.6863Y6.9554
X1.6807Y6.961
X1.6752Y6.9666
X1.6696Y6.9721
X1.664Y6.9777
X1.6585Y6.9833
X1.6529Y6.9888
X1.6473Y6.9944
X1.6418Y7
X1.6362Y7.0055
X1.6306Y7.0111
X1.625Y7.0167
X1.6195Y7.0222
X1.6139Y7.0278
X1.6083Y7.0334
X1.6028Y7.0389
X1.5972Y7.0445
X1.5916Y7.0501
X1.5861Y7.0556
X1.5805Y7.0612
X1.5749Y7.0668
X1.5694Y7.0724
X1.5638Y7.0779
X1.5582Y7.0835
X1.5527Y7.0891
X1.5471Y7.0946
X1.5415Y7.1002
X1.536Y7.1058
X1.5304Y7.1113
X1.5248Y7.1169
X1.5193Y7.1225
X1.5137Y7.128
X1.5081Y7.1336
X1.5026Y7.1392
X1.497Y7.1447
X1.4914Y7.1503
X1.4859Y7.1559
X1.4803Y7.1614
X1.4747Y7.167
X1.4691Y7.1726
X1.4636Y7.1781
X1.458Y7.1837
X1.4524Y7.1893
X1.4469Y7.1948
X1.4413Y7.2004
X1.4357Y7.206
X1.4302Y7.2115
X1.4246Y7.2171
X1.419Y7.2227
X1.4135Y7.2282
X1.4079Y7.2338
X1.4023Y7.2394
X1.3968Y7.2449
X1.3912Y7.2505
X1.3856Y7.2561
X1.3801Y7.2617
X1.3745Y7.2672
X1.3689Y7.2728
X1.3634Y7.2784
X1.3578Y7.2839
X1.3522Y7.2895
X1.3467Y7.2951
X1.3411Y7.3006
X1.3355Y7.3062
X1.3299Y7.3118
X1.3244Y7.3173
X1.3188Y7.3229
X1.3132Y7.3285
X1.3077Y7.334
X1.3021Y7.3396
X1.2965Y7.3452
X1.291Y7.3507
X1.2854Y7.3563
X1.2798Y7.3619
X1.2743Y7.3674
X1.2687Y7.373
X1.2631Y7.3786
X1.2576Y7.3841
X1.252Y7.3897
X1.2464Y7.3953
X1.2409Y7.4008
X1.2353Y7.4064
X1.2297Y7.412
X1.2242Y7.4175
X1.2186Y7.4231
X1.213Y7.4287
X1.2075Y7.4342
X1.2019Y7.4398
X1.1963Y7.4454
X1.1908Y7.451
X1.1852Y7.4565
X1.1796Y7.4621
X1.174Y7.4677
X1.1685Y7.4732
X1.1629Y7.4788
X1.1573Y7.4844
X1.1518Y7.4899
X1.1462Y7.4955
X1.1406Y7.5011
X1.1351Y7.5066
X1.1295Y7.5122
X1.1239Y7.5178
X1.1184Y7.5233
X1.1128Y7.5289
X1.1072Y7.5345
X1.1017Y7.54
X1.0961Y7.5456
X1.0905Y7.5512
X1.085Y7.5567
X1.0794Y7.5623
X1.0738Y7.5679
X1.0683Y7.5734
X1.0627Y7.579
X1.0571Y7.5846
X1.0516Y7.5901
X1.046Y7.5957
X1.0404Y7.6013
X1.0349Y7.6068
X1.0293Y7.6124
X1.0237Y7.618
X1.0181Y7.6236
X1.0126Y7.6291
X1.007Y7.6347
X1.0014Y7.6403
X0.9959Y7.6458
X0.9903Y7.6514
X0.9847Y7.657
X0.9792Y7.6625
X0.9736Y7.6681
X0.968Y7.6737
X0.9625Y7.6792
X0.9569Y7.6848
X0.9513Y7.6904
X0.9458Y7.6959
X0.9402Y7.7015
X0.9346Y7.7071
X0.9291Y7.7126
X0.9235Y7.7182
X0.9179Y7.7238
X0.9124Y7.7293
X0.9068Y7.7349
X0.9012Y7.7405
X0.8957Y7.746
X0.8901Y7.7516
X0.8845Y7.7572
X0.879Y7.7627
X0.8789Y7.7628
X0.8845Y7.7572
X0.89Y7.7517
X0.8956Y7.7461
X0.9012Y7.7405
X0.9067Y7.735
X0.9123Y7.7294
X0.9179Y7.7238
X0.9234Y7.7183
X0.929Y7.7127
X0.9346Y7.7071
X0.9401Y7.7016
X0.9457Y7.696
X0.9513Y7.6904
X0.9568Y7.6849
X0.9624Y7.6793
X0.968Y7.6737
X0.9735Y7.6681
X0.9791Y7.6626
X0.9847Y7.657
X0.9903Y7.6514
X0.9958Y7.6459
X1.0014Y7.6403
X1.007Y7.6347
X1.0125Y7.6292
X1.0181Y7.6236
X1.0237Y7.618
X1.0292Y7.6125
X1.0348Y7.6069
X1.0404Y7.6013
X1.0459Y7.5958
X1.0515Y7.5902
X1.0571Y7.5846
X1.0626Y7.5791
X1.0682Y7.5735
X1.0738Y7.5679
X1.0793Y7.5624
X1.0849Y7.5568
X1.0905Y7.5512
X1.096Y7.5457
X1.1016Y7.5401
X1.1072Y7.5345
X1.1127Y7.529
X1.1183Y7.5234
X1.1239Y7.5178
X1.1295Y7.5123
X1.135Y7.5067
X1.1406Y7.5011
X1.1462Y7.4955
X1.1517Y7.49
X1.1573Y7.4844
X1.1629Y7.4788
X1.1684Y7.4733
X1.174Y7.4677
X1.1796Y7.4621
X1.1851Y7.4566
X1.1907Y7.451
X1.1963Y7.4454
X1.2018Y7.4399
X1.2074Y7.4343
X1.213Y7.4287
X1.2185Y7.4232
X1.2241Y7.4176
X1.2297Y7.412
X1.2352Y7.4065
X1.2408Y7.4009
X1.2464Y7.3953
X1.2519Y7.3898
X1.2575Y7.3842
X1.2631Y7.3786
X1.2686Y7.3731
X1.2742Y7.3675
X1.2798Y7.3619
X1.2854Y7.3564
X1.2909Y7.3508
X1.2965Y7.3452
X1.3021Y7.3397
X1.3076Y7.3341
X1.3132Y7.3285
X1.3188Y7.323
X1.3243Y7.3174
X1.3299Y7.3118
X1.3355Y7.3062
X1.341Y7.3007
X1.3466Y7.2951
X1.3522Y7.2895
X1.3577Y7.284
X1.3633Y7.2784
X1.3689Y7.2728
X1.3744Y7.2673
X1.38Y7.2617
X1.3856Y7.2561
X1.3911Y7.2506
X1.3967Y7.245
X1.4023Y7.2394
X1.4078Y7.2339
X1.4134Y7.2283
X1.419Y7.2227
X1.4245Y7.2172
X1.4301Y7.2116
X1.4357Y7.206
X1.4413Y7.2005
X1.4468Y7.1949
X1.4524Y7.1893
X1.458Y7.1838
X1.4635Y7.1782
X1.4691Y7.1726
X1.4747Y7.1671
X1.4802Y7.1615
X1.4858Y7.1559
X1.4914Y7.1504
X1.4969Y7.1448
X1.5025Y7.1392
X1.5081Y7.1337
X1.5136Y7.1281
X1.5192Y7.1225
X1.5248Y7.1169
X1.5303Y7.1114
X1.5359Y7.1058
X1.5415Y7.1002
X1.547Y7.0947
X1.5526Y7.0891
X1.5582Y7.0835
X1.5637Y7.078
X1.5693Y7.0724
X1.5749Y7.0668
X1.5804Y7.0613
X1.586Y7.0557
X1.5916Y7.0501
X1.5972Y7.0446
X1.6027Y7.039
X1.6083Y7.0334
X1.6139Y7.0279
X1.6194Y7.0223
X1.625Y7.0167
X1.6306Y7.0112
X1.6361Y7.0056
X1.6417Y7
X1.6473Y6.9945
X1.6528Y6.9889
X1.6584Y6.9833
X1.664Y6.9778
X1.6695Y6.9722
X1.6751Y6.9666
X1.6807Y6.9611
X1.6862Y6.9555
X1.6918Y6.9499
X1.6974Y6.9444
X1.7029Y6.9388
X1.7085Y6.9332
X1.7141Y6.9276
X1.7196Y6.9221
X1.7252Y6.9165
X1.7308Y6.9109
X1.7363Y6.9054
X1.7419Y6.8998
X1.7475Y6.8942
X1.7531Y6.8887
X1.7586Y6.8831
X1.7642Y6.8775
X1.7698Y6.872
X1.7753Y6.8664
X1.7809Y6.8608
X1.7865Y6.8553
X1.792Y6.8497
X1.7976Y6.8441
X1.8032Y6.8386
X1.8087Y6.833
X1.8143Y6.8274
X1.8199Y6.8219
X1.8254Y6.8163
X1.831Y6.8107
X1.8366Y6.8052
X1.8421Y6.7996
X1.8477Y6.794
X1.8533Y6.7885
X1.8588Y6.7829
X1.8644Y6.7773
X1.87Y6.7718
X1.8755Y6.7662
X1.8811Y6.7606
X1.8867Y6.755
X1.8922Y6.7495
X1.8978Y6.7439
X1.9034Y6.7383
X1.909Y6.7328
X1.9145Y6.7272
X1.9201Y6.7216
X1.9257Y6.7161
X1.9312Y6.7105
X1.9368Y6.7049
X1.9424Y6.6994
X1.9479Y6.6938
X1.9535Y6.6882
X1.9591Y6.6827
X1.9646Y6.6771
X1.9702Y6.6715
X1.9758Y6.666
X1.9813Y6.6604
X1.9869Y6.6548
X1.9925Y6.6493
X1.998Y6.6437
X2.0036Y6.6381
X2.0092Y6.6326
X2.0147Y6.627
X2.0203Y6.6214
X2.0259Y6.6159
X2.0314Y6.6103
X2.037Y6.6047
X2.0426Y6.5992
X2.0481Y6.5936
X2.0537Y6.588
X2.0593Y6.5825
X2.0649Y6.5769
Y6.5768
Z-0.25F19.68
X2.0593Y6.5824F39.37
X2.0538Y6.588
X2.0482Y6.5935
X2.0426Y6.5991
X2.0371Y6.6047
X2.0315Y6.6102
X2.0259Y6.6158
X2.0204Y6.6214
X2.0148Y6.6269
X2.0092Y6.6325
X2.0037Y6.6381
X1.9981Y6.6436
X1.9925Y6.6492
X1.987Y6.6548
X1.9814Y6.6603
X1.9758Y6.6659
X1.9703Y6.6715
X1.9647Y6.677
X1.9591Y6.6826
X1.9536Y6.6882
X1.948Y6.6937
X1.9424Y6.6993
X1.9368Y6.7049
X1.9313Y6.7105
X1.9257Y6.716
X1.9201Y6.7216
X1.9146Y6.7272
X1.909Y6.7327
X1.9034Y6.7383
X1.8979Y6.7439
X1.8923Y6.7494
X1.8867Y6.755
X1.8812Y6.7606
X1.8756Y6.7661
X1.87Y6.7717
X1.8645Y6.7773
X1.8589Y6.7828
X1.8533Y6.7884
X1.8478Y6.794
X1.8422Y6.7995
X1.8366Y6.8051
X1.8311Y6.8107
X1.8255Y6.8162
X1.8199Y6.8218
X1.8144Y6.8274
X1.8088Y6.8329
X1.8032Y6.8385
X1.7977Y6.8441
X1.7921Y6.8496
X1.7865Y6.8552
X1.7809Y6.8608
X1.7754Y6.8663
X1.7698Y6.8719
X1.7642Y6.8775
X1.7587Y6.8831
X1.7531Y6.8886
X1.7475Y6.8942
X1.742Y6.8998
X1.7364Y6.9053
X1.7308Y6.9109
X1.7253Y6.9165
X1.7197Y6.922
X1.7141Y6.9276
X1.7086Y6.9332
X1.703Y6.9387
X1.6974Y6.9443
X1.6919Y6.9499
X1.6863Y6.9554
X1.6807Y6.961
X1.6752Y6.9666
X1.6696Y6.9721
X1.664Y6.9777
X1.6585Y6.9833
X1.6529Y6.9888
X1.6473Y6.9944
X1.6418Y7
X1.6362Y7.0055
X1.6306Y7.0111
X1.625Y7.0167
X1.6195Y7.0222
X1.6139Y7.0278
X1.6083Y7.0334
X1.6028Y7.0389
X1.5972Y7.0445
X1.5916Y7.0501
X1.5861Y7.0556
X1.5805Y7.0612
X1.5749Y7.0668
X1.5694Y7.0724
X1.5638Y7.0779
X1.5582Y7.0835
X1.5527Y7.0891
X1.5471Y7.0946
X1.5415Y7.1002
X1.536Y7.1058
X1.5304Y7.1113
X1.5248Y7.1169
X1.5193Y7.1225
X1.5137Y7.128
X1.5081Y7.1336
X1.5026Y7.1392
X1.497Y7.1447
X1.4914Y7.1503
X1.4859Y7.1559
X1.4803Y7.1614
X1.4747Y7.167
X1.4691Y7.1726
X1.4636Y7.1781
X1.458Y7.1837
X1.4524Y7.1893
X1.4469Y7.1948
X1.4413Y7.2004
X1.4357Y7.206
X1.4302Y7.2115
X1.4246Y7.2171
X1.419Y7.2227
X1.4135Y7.2282
X1.4079Y7.2338
X1.4023Y7.2394
X1.3968Y7.2449
X1.3912Y7.2505
X1.3856Y7.2561
X1.3801Y7.2617
X1.3745Y7.2672
X1.3689Y7.2728
X1.3634Y7.2784
X1.3578Y7.2839
X1.3522Y7.2895
X1.3467Y7.2951
X1.3411Y7.3006
X1.3355Y7.3062
X1.3299Y7.3118
X1.3244Y7.3173
X1.3188Y7.3229
X1.3132Y7.3285
X1.3077Y7.334
X1.3021Y7.3396
X1.2965Y7.3452
X1.291Y7.3507
X1.2854Y7.3563
X1.2798Y7.3619
X1.2743Y7.3674
X1.2687Y7.373
X1.2631Y7.3786
X1.2576Y7.3841
X1.252Y7.3897
X1.2464Y7.3953
X1.2409Y7.4008
X1.2353Y7.4064
X1.2297Y7.412
X1.2242Y7.4175
X1.2186Y7.4231
X1.213Y7.4287
X1.2075Y7.4342
X1.2019Y7.4398
X1.1963Y7.4454
X1.1908Y7.451
X1.1852Y7.4565
X1.1796Y7.4621
X1.174Y7.4677
X1.1685Y7.4732
X1.1629Y7.4788
X1.1573Y7.4844
X1.1518Y7.4899
X1.1462Y7.4955
X1.1406Y7.5011
X1.1351Y7.5066
X1.1295Y7.5122
X1.1239Y7.5178
X1.1184Y7.5233
X1.1128Y7.5289
X1.1072Y7.5345
X1.1017Y7.54
X1.0961Y7.5456
X1.0905Y7.5512
X1.085Y7.5567
X1.0794Y7.5623
X1.0738Y7.5679
X1.0683Y7.5734
X1.0627Y7.579
X1.0571Y7.5846
X1.0516Y7.5901
X1.046Y7.5957
X1.0404Y7.6013
X1.0349Y7.6068
X1.0293Y7.6124
X1.0237Y7.618
X1.0181Y7.6236
X1.0126Y7.6291
X1.007Y7.6347
X1.0014Y7.6403
X0.9959Y7.6458
X0.9903Y7.6514
X0.9847Y7.657
X0.9792Y7.6625
X0.9736Y7.6681
X0.968Y7.6737
X0.9625Y7.6792
X0.9569Y7.6848
X0.9513Y7.6904
X0.9458Y7.6959
X0.9402Y7.7015
X0.9346Y7.7071
X0.9291Y7.7126
X0.9235Y7.7182
X0.9179Y7.7238
X0.9124Y7.7293
X0.9068Y7.7349
X0.9012Y7.7405
X0.8957Y7.746
X0.8901Y7.7516
X0.8845Y7.7572
X0.879Y7.7627
X0.8789Y7.7628
X0.8845Y7.7572
X0.89Y7.7517
X0.8956Y7.7461
X0.9012Y7.7405
X0.9067Y7.735
X0.9123Y7.7294
X0.9179Y7.7238
X0.9234Y7.7183
X0.929Y7.7127
X0.9346Y7.7071
X0.9401Y7.7016
X0.9457Y7.696
X0.9513Y7.6904
X0.9568Y7.6849
X0.9624Y7.6793
X0.968Y7.6737
X0.9735Y7.6681
X0.9791Y7.6626
X0.9847Y7.657
X0.9903Y7.6514
X0.9958Y7.6459
X1.0014Y7.6403
X1.007Y7.6347
X1.0125Y7.6292
X1.0181Y7.6236
X1.0237Y7.618
X1.0292Y7.6125
X1.0348Y7.6069
X1.0404Y7.6013
X1.0459Y7.5958
X1.0515Y7.5902
X1.0571Y7.5846
X1.0626Y7.5791
X1.0682Y7.5735
X1.0738Y7.5679
X1.0793Y7.5624
X1.0849Y7.5568
X1.0905Y7.5512
X1.096Y7.5457
X1.1016Y7.5401
X1.1072Y7.5345
X1.1127Y7.529
X1.1183Y7.5234
X1.1239Y7.5178
X1.1295Y7.5123
X1.135Y7.5067
X1.1406Y7.5011
X1.1462Y7.4955
X1.1517Y7.49
X1.1573Y7.4844
X1.1629Y7.4788
X1.1684Y7.4733
X1.174Y7.4677
X1.1796Y7.4621
X1.1851Y7.4566
X1.1907Y7.451
X1.1963Y7.4454
X1.2018Y7.4399
X1.2074Y7.4343
X1.213Y7.4287
X1.2185Y7.4232
X1.2241Y7.4176
X1.2297Y7.412
X1.2352Y7.4065
X1.2408Y7.4009
X1.2464Y7.3953
X1.2519Y7.3898
X1.2575Y7.3842
X1.2631Y7.3786
X1.2686Y7.3731
X1.2742Y7.3675
X1.2798Y7.3619
X1.2854Y7.3564
X1.2909Y7.3508
X1.2965Y7.3452
X1.3021Y7.3397
X1.3076Y7.3341
X1.3132Y7.3285
X1.3188Y7.323
X1.3243Y7.3174
X1.3299Y7.3118
X1.3355Y7.3062
X1.341Y7.3007
X1.3466Y7.2951
X1.3522Y7.2895
X1.3577Y7.284
X1.3633Y7.2784
X1.3689Y7.2728
X1.3744Y7.2673
X1.38Y7.2617
X1.3856Y7.2561
X1.3911Y7.2506
X1.3967Y7.245
X1.4023Y7.2394
